(1DOF)
(T1  D=3.175 CR=0 - ZMIN=-3.2 - flat end mill)
G90 G94
G17
G21
G28 G91 Z0
G90

(2D Contour2)
S20000 M3
G54
G0 X-1.96 Y15.318
Z5
Z2
G1 Z1.3 F333.3
Z0.017
G18 G3 X-2.277 Z-0.3 I-0.317 K0
G1 X-2.595 F200
G17 G3 X-2.912 Y15 I0 J-0.318
G1 Y-23.413
X5.5
G2 X5.5 Y-36.588 I0 J-6.587
G1 X-2.912
Y-50
G2 X-16.087 Y-50 I-6.588 J0
G1 Y-36.588
X-24.5
G2 X-24.5 Y-23.413 I0 J6.588
G1 X-16.087
Y50
G2 X-2.912 Y50 I6.587 J0
G1 Y15
G3 X-2.595 Y14.682 I0.317 J0
G1 X-2.277
G18 G2 X-1.96 Z0.017 I0 K0.318
G0 Z2
X12.96 Y-15.318
G1 Z1.3 F333.3
Z0.017
G2 X13.278 Z-0.3 I0.318 K0
G1 X13.595 F200
G17 G3 X13.913 Y-15 I0 J0.318
G1 Y23.413
X5.5
G2 X5.5 Y36.588 I0 J6.587
G1 X13.913
Y50
G2 X27.087 Y50 I6.587 J0
G1 Y36.588
X35.5
G2 X35.5 Y23.413 I0 J-6.588
G1 X27.087
Y-50
G2 X13.913 Y-50 I-6.587 J0
G1 Y-30
Y-15
G3 X13.595 Y-14.682 I-0.318 J0
G1 X13.278
G18 G3 X12.96 Z0.017 I0 K0.318
G0 Z2
X42.96 Y-17.317
G1 Z1.3 F333.3
Z0.017
G2 X43.278 Z-0.3 I0.318 K0
G1 X43.595 F200
G17 G3 X43.912 Y-17 I0 J0.317
G1 Y30
Y44
G2 X45.5 Y45.588 I1.588 J0
G1 X55.5
G2 X57.088 Y44 I0 J-1.588
G1 Y-23.413
X59.5
G2 X61.088 Y-25 I0 J-1.587
G1 Y-35
G2 X59.5 Y-36.588 I-1.588 J0
G1 X57.088
Y-44
G2 X55.5 Y-45.588 I-1.588 J0
G1 X45.5
G2 X43.912 Y-44 I0 J1.588
G1 Y-36.588
X41.5
G2 X39.912 Y-35 I0 J1.588
G1 Y-25
G2 X41.5 Y-23.413 I1.588 J0
G1 X43.912
Y-17
G3 X43.595 Y-16.683 I-0.317 J0
G1 X43.278
G18 G3 X42.96 Z0.017 I0 K0.318
G0 Z2
Y-17.317
G1 Z1 F333.3
Z-0.283
G2 X43.278 Z-0.6 I0.318 K0
G1 X43.595 F200
G17 G3 X43.912 Y-17 I0 J0.317
G1 Y30
Y44
G2 X45.5 Y45.588 I1.588 J0
G1 X55.5
G2 X57.088 Y44 I0 J-1.588
G1 Y-23.413
X59.5
G2 X61.088 Y-25 I0 J-1.587
G1 Y-35
G2 X59.5 Y-36.588 I-1.588 J0
G1 X57.088
Y-44
G2 X55.5 Y-45.588 I-1.588 J0
G1 X45.5
G2 X43.912 Y-44 I0 J1.588
G1 Y-36.588
X41.5
G2 X39.912 Y-35 I0 J1.588
G1 Y-25
G2 X41.5 Y-23.413 I1.588 J0
G1 X43.912
Y-17
G3 X43.595 Y-16.683 I-0.317 J0
G1 X43.278
G18 G3 X42.96 Z-0.283 I0 K0.318
G0 Z2
X35.818 Y22.46
G1 Z1 F333.3
Z-0.283
G19 G3 Y22.778 Z-0.6 J0.318 K0
G1 Y23.095 F200
G17 G3 X35.5 Y23.413 I-0.318 J0
G1 X27.087
Y-50
G2 X13.913 Y-50 I-6.587 J0
G1 Y23.413
X5.5
G2 X5.5 Y36.588 I0 J6.587
G1 X13.913
Y50
G2 X27.087 Y50 I6.587 J0
G1 Y36.588
X35.5
G2 X35.5 Y23.413 I0 J-6.588
G3 X35.182 Y23.095 I0 J-0.318
G1 Y22.778
G19 G2 Y22.46 Z-0.283 J0 K0.318
G0 Z2
X42.96 Y43.682
G1 Z0.7 F333.3
Z-0.583
G18 G2 X43.278 Z-0.9 I0.318 K0
G1 X43.595 F200
G17 G3 X43.912 Y44 I0 J0.318
G2 X45.5 Y45.588 I1.588 J0
G1 X55.5
G2 X57.088 Y44 I0 J-1.588
G1 Y-23.413
X59.5
G2 X61.088 Y-25 I0 J-1.587
G1 Y-35
G2 X59.5 Y-36.588 I-1.588 J0
G1 X57.088
Y-44
G2 X55.5 Y-45.588 I-1.588 J0
G1 X45.5
G2 X43.912 Y-44 I0 J1.588
G1 Y-36.588
X41.5
G2 X39.912 Y-35 I0 J1.588
G1 Y-25
G2 X41.5 Y-23.413 I1.588 J0
G1 X43.912
Y30
Y44
G3 X43.595 Y44.318 I-0.317 J0
G1 X43.278
G18 G3 X42.96 Z-0.583 I0 K0.317
G0 Z2
X-16.962 Y30.353
G1 Z1.3 F333.3
Z0.017
X-16.97 Z-0.053
X-16.993 Z-0.12
X-17.031 Z-0.18
X-17.081 Z-0.231
X-17.141 Z-0.269
X-17.208 Y30.352 Z-0.292
X-17.279 Z-0.3
X-17.597 Y30.35 F200
G17 G3 X-17.913 Y30.031 I0.002 J-0.317
G2 X-24.5 Y23.413 I-6.587 J-0.031
G1 X-32.912
Y-50
G2 X-46.088 Y-50 I-6.588 J0
G1 Y23.413
X-54.5
G2 X-54.5 Y36.588 I0 J6.587
G1 X-46.088
Y50
G2 X-32.912 Y50 I6.588 J0
G1 Y36.588
X-24.5
G2 X-17.913 Y30.031 I0 J-6.588
G3 X-17.594 Y29.715 I0.317 J0.002
G1 X-17.276 Y29.717
X-17.205 Z-0.292
X-17.138 Y29.718 Z-0.269
X-17.078 Z-0.231
X-17.028 Z-0.18
X-16.99 Z-0.12
X-16.967 Z-0.053
X-16.959 Z0.017
G0 Z2
X-17.04 Y29.647
G1 Z1 F333.3
Z-0.283
G18 G2 X-16.722 Z-0.6 I0.318 K0
G1 X-16.405 F200
G17 G3 X-16.087 Y29.964 I0 J0.318
G1 Y50
G2 X-2.912 Y50 I6.587 J0
G1 Y-23.413
X5.5
G2 X5.5 Y-36.588 I0 J-6.587
G1 X-2.912
Y-50
G2 X-16.087 Y-50 I-6.588 J0
G1 Y-36.588
X-24.5
G2 X-24.5 Y-23.413 I0 J6.588
G1 X-16.087
Y29.964
G3 X-16.405 Y30.282 I-0.318 J0
G1 X-16.722
G18 G3 X-17.04 Z-0.283 I0 K0.318
G0 Z2
X-16.962 Y30.353
G1 Z1 F333.3
Z-0.283
X-16.97 Z-0.353
X-16.993 Z-0.42
X-17.031 Z-0.48
X-17.081 Z-0.531
X-17.141 Z-0.569
X-17.208 Y30.352 Z-0.592
X-17.279 Z-0.6
X-17.597 Y30.35 F200
G17 G3 X-17.913 Y30.031 I0.002 J-0.317
G2 X-24.5 Y23.413 I-6.587 J-0.031
G1 X-32.912
Y-50
G2 X-46.088 Y-50 I-6.588 J0
G1 Y23.413
X-54.5
G2 X-54.5 Y36.588 I0 J6.587
G1 X-46.088
Y50
G2 X-32.912 Y50 I6.588 J0
G1 Y36.588
X-24.5
G2 X-17.913 Y30.031 I0 J-6.588
G3 X-17.594 Y29.715 I0.317 J0.002
G1 X-17.276 Y29.717
X-17.205 Z-0.592
X-17.138 Y29.718 Z-0.569
X-17.078 Z-0.531
X-17.028 Z-0.48
X-16.99 Z-0.42
X-16.967 Z-0.353
X-16.959 Z-0.283
G0 Z2
X-17.04 Y29.647
G1 Z0.7 F333.3
Z-0.583
G18 G2 X-16.722 Z-0.9 I0.318 K0
G1 X-16.405 F200
G17 G3 X-16.087 Y29.964 I0 J0.318
G1 Y50
G2 X-2.912 Y50 I6.587 J0
G1 Y-23.413
X5.5
G2 X5.5 Y-36.588 I0 J-6.587
G1 X-2.912
Y-50
G2 X-16.087 Y-50 I-6.588 J0
G1 Y-36.588
X-24.5
G2 X-24.5 Y-23.413 I0 J6.588
G1 X-16.087
Y29.964
G3 X-16.405 Y30.282 I-0.318 J0
G1 X-16.722
G18 G3 X-17.04 Z-0.583 I0 K0.317
G0 Z2
X-16.962 Y30.353
G1 Z0.7 F333.3
Z-0.583
X-16.97 Z-0.653
X-16.993 Z-0.72
X-17.031 Z-0.78
X-17.081 Z-0.831
X-17.141 Z-0.869
X-17.208 Y30.352 Z-0.892
X-17.279 Z-0.9
X-17.597 Y30.35 F200
G17 G3 X-17.913 Y30.031 I0.002 J-0.317
G2 X-24.5 Y23.413 I-6.587 J-0.031
G1 X-32.912
Y-50
G2 X-46.088 Y-50 I-6.588 J0
G1 Y23.413
X-54.5
G2 X-54.5 Y36.588 I0 J6.587
G1 X-46.088
Y50
G2 X-32.912 Y50 I6.588 J0
G1 Y36.588
X-24.5
G2 X-17.913 Y30.031 I0 J-6.588
G3 X-17.594 Y29.715 I0.317 J0.002
G1 X-17.276 Y29.717
X-17.205 Z-0.892
X-17.138 Y29.718 Z-0.869
X-17.078 Z-0.831
X-17.028 Z-0.78
X-16.99 Z-0.72
X-16.967 Z-0.653
X-16.959 Z-0.583
G0 Z2
X-16.962 Y30.353
G1 Z0.4 F333.3
Z-0.883
X-16.97 Z-0.953
X-16.993 Z-1.02
X-17.031 Z-1.08
X-17.081 Z-1.131
X-17.141 Z-1.169
X-17.208 Y30.352 Z-1.192
X-17.279 Z-1.2
X-17.597 Y30.35 F200
G3 X-17.913 Y30.031 I0.002 J-0.317
G2 X-24.5 Y23.413 I-6.587 J-0.031
G1 X-32.912
Y-50
G2 X-46.088 Y-50 I-6.588 J0
G1 Y23.413
X-54.5
G2 X-54.5 Y36.588 I0 J6.587
G1 X-46.088
Y50
G2 X-32.912 Y50 I6.588 J0
G1 Y36.588
X-24.5
G2 X-17.913 Y30.031 I0 J-6.588
G3 X-17.594 Y29.715 I0.317 J0.002
G1 X-17.276 Y29.717
X-17.205 Z-1.192
X-17.138 Y29.718 Z-1.169
X-17.078 Z-1.131
X-17.028 Z-1.08
X-16.99 Z-1.02
X-16.967 Z-0.953
X-16.959 Z-0.883
G0 Z2
X12.96 Y44.682
G1 Z0.7 F333.3
Z-0.583
G18 G2 X13.278 Z-0.9 I0.318 K0
G1 X13.595 F200
G17 G3 X13.913 Y45 I0 J0.318
G1 Y50
G2 X27.087 Y50 I6.587 J0
G1 Y36.588
X35.5
G2 X35.5 Y23.413 I0 J-6.588
G1 X27.087
Y-50
G2 X13.913 Y-50 I-6.587 J0
G1 Y23.413
X5.5
G2 X5.5 Y36.588 I0 J6.587
G1 X13.913
Y45
G3 X13.595 Y45.318 I-0.318 J0
G1 X13.278
G18 G3 X12.96 Z-0.583 I0 K0.317
G0 Z2
Y44.682
G1 Z0.4 F333.3
Z-0.883
G2 X13.278 Z-1.2 I0.318 K0
G1 X13.595 F200
G17 G3 X13.913 Y45 I0 J0.318
G1 Y50
G2 X27.087 Y50 I6.587 J0
G1 Y36.588
X35.5
G2 X35.5 Y23.413 I0 J-6.588
G1 X27.087
Y-50
G2 X13.913 Y-50 I-6.587 J0
G1 Y23.413
X5.5
G2 X5.5 Y36.588 I0 J6.587
G1 X13.913
Y45
G3 X13.595 Y45.318 I-0.318 J0
G1 X13.278
G18 G3 X12.96 Z-0.883 I0 K0.318
G0 Z2
X-1.96 Y50.318
G1 Z0.4 F333.3
Z-0.883
G3 X-2.277 Z-1.2 I-0.317 K0
G1 X-2.595 F200
G17 G3 X-2.912 Y50 I0 J-0.318
G1 Y-23.413
X5.5
G2 X5.5 Y-36.588 I0 J-6.587
G1 X-2.912
Y-50
G2 X-16.087 Y-50 I-6.588 J0
G1 Y-36.588
X-24.5
G2 X-24.5 Y-23.413 I0 J6.588
G1 X-16.087
Y50
G2 X-2.912 Y50 I6.587 J0
G3 X-2.595 Y49.682 I0.317 J0
G1 X-2.277
G18 G2 X-1.96 Z-0.883 I0 K0.318
G0 Z2
Y50.318
G1 Z0.1 F333.3
Z-1.183
G3 X-2.277 Z-1.5 I-0.317 K0
G1 X-2.595 F200
G17 G3 X-2.912 Y50 I0 J-0.318
G1 Y-23.413
X5.5
G2 X5.5 Y-36.588 I0 J-6.587
G1 X-2.912
Y-50
G2 X-16.087 Y-50 I-6.588 J0
G1 Y-36.588
X-24.5
G2 X-24.5 Y-23.413 I0 J6.588
G1 X-16.087
Y50
G2 X-2.912 Y50 I6.587 J0
G3 X-2.595 Y49.682 I0.317 J0
G1 X-2.277
G18 G2 X-1.96 Z-1.183 I0 K0.317
G0 Z2
X-31.96 Y50.318
G1 Z0.1 F333.3
Z-1.183
G3 X-32.278 Z-1.5 I-0.318 K0
G1 X-32.595 F200
G17 G3 X-32.912 Y50 I0 J-0.318
G1 Y36.588
X-24.5
G2 X-24.5 Y23.413 I0 J-6.588
G1 X-32.912
Y-50
G2 X-46.088 Y-50 I-6.588 J0
G1 Y23.413
X-54.5
G2 X-54.5 Y36.588 I0 J6.587
G1 X-46.088
Y50
G2 X-32.912 Y50 I6.588 J0
G3 X-32.595 Y49.682 I0.317 J0
G1 X-32.278
G18 G2 X-31.96 Z-1.183 I0 K0.317
G0 Z2
Y50.318
G1 Z-0.2 F333.3
Z-1.483
G3 X-32.278 Z-1.8 I-0.318 K0
G1 X-32.595 F200
G17 G3 X-32.912 Y50 I0 J-0.318
G1 Y36.588
X-24.5
G2 X-24.5 Y23.413 I0 J-6.588
G1 X-32.912
Y-50
G2 X-46.088 Y-50 I-6.588 J0
G1 Y23.413
X-54.5
G2 X-54.5 Y36.588 I0 J6.587
G1 X-46.088
Y50
G2 X-32.912 Y50 I6.588 J0
G3 X-32.595 Y49.682 I0.317 J0
G1 X-32.278
G18 G2 X-31.96 Z-1.483 I0 K0.317
G0 Z2
X42.96 Y43.682
G1 Z0.4 F333.3
Z-0.883
G2 X43.278 Z-1.2 I0.318 K0
G1 X43.595 F200
G17 G3 X43.912 Y44 I0 J0.318
G2 X45.5 Y45.588 I1.588 J0
G1 X55.5
G2 X57.088 Y44 I0 J-1.588
G1 Y-23.413
X59.5
G2 X61.088 Y-25 I0 J-1.587
G1 Y-35
G2 X59.5 Y-36.588 I-1.588 J0
G1 X57.088
Y-44
G2 X55.5 Y-45.588 I-1.588 J0
G1 X45.5
G2 X43.912 Y-44 I0 J1.588
G1 Y-36.588
X41.5
G2 X39.912 Y-35 I0 J1.588
G1 Y-25
G2 X41.5 Y-23.413 I1.588 J0
G1 X43.912
Y30
Y44
G3 X43.595 Y44.318 I-0.317 J0
G1 X43.278
G18 G3 X42.96 Z-0.883 I0 K0.318
G0 Z2
Y43.682
G1 Z0.1 F333.3
Z-1.183
G2 X43.278 Z-1.5 I0.318 K0
G1 X43.595 F200
G17 G3 X43.912 Y44 I0 J0.318
G2 X45.5 Y45.588 I1.588 J0
G1 X55.5
G2 X57.088 Y44 I0 J-1.588
G1 Y-23.413
X59.5
G2 X61.088 Y-25 I0 J-1.587
G1 Y-35
G2 X59.5 Y-36.588 I-1.588 J0
G1 X57.088
Y-44
G2 X55.5 Y-45.588 I-1.588 J0
G1 X45.5
G2 X43.912 Y-44 I0 J1.588
G1 Y-36.588
X41.5
G2 X39.912 Y-35 I0 J1.588
G1 Y-25
G2 X41.5 Y-23.413 I1.588 J0
G1 X43.912
Y30
Y44
G3 X43.595 Y44.318 I-0.317 J0
G1 X43.278
G18 G3 X42.96 Z-1.183 I0 K0.317
G0 Z2
X43.038 Y30.353
G1 Z0.1 F333.3
Z-1.183
X43.03 Z-1.253
X43.007 Z-1.32
X42.969 Z-1.38
X42.919 Z-1.431
X42.859 Z-1.469
X42.792 Y30.352 Z-1.492
X42.721 Z-1.5
X42.403 Y30.35 F200
G17 G3 X42.087 Y30.031 I0.002 J-0.317
G2 X35.5 Y23.413 I-6.587 J-0.031
G1 X27.087
Y-50
G2 X13.913 Y-50 I-6.587 J0
G1 Y23.413
X5.5
G2 X5.5 Y36.588 I0 J6.587
G1 X13.913
Y50
G2 X27.087 Y50 I6.587 J0
G1 Y36.588
X35.5
G2 X42.087 Y30.031 I0 J-6.588
G3 X42.406 Y29.715 I0.317 J0.002
G1 X42.724 Y29.717
X42.795 Z-1.492
X42.862 Y29.718 Z-1.469
X42.922 Z-1.431
X42.972 Z-1.38
X43.01 Z-1.32
X43.033 Z-1.253
X43.041 Z-1.183
G0 Z2
X42.96 Y43.682
G1 Z-0.2 F333.3
Z-1.483
G18 G2 X43.278 Z-1.8 I0.318 K0
G1 X43.595 F200
G17 G3 X43.912 Y44 I0 J0.318
G2 X45.5 Y45.588 I1.588 J0
G1 X55.5
G2 X57.088 Y44 I0 J-1.588
G1 Y-23.413
X59.5
G2 X61.088 Y-25 I0 J-1.587
G1 Y-35
G2 X59.5 Y-36.588 I-1.588 J0
G1 X57.088
Y-44
G2 X55.5 Y-45.588 I-1.588 J0
G1 X45.5
G2 X43.912 Y-44 I0 J1.588
G1 Y-36.588
X41.5
G2 X39.912 Y-35 I0 J1.588
G1 Y-25
G2 X41.5 Y-23.413 I1.588 J0
G1 X43.912
Y30
Y44
G3 X43.595 Y44.318 I-0.317 J0
G1 X43.278
G18 G3 X42.96 Z-1.483 I0 K0.317
G0 Z2
X43.038 Y30.353
G1 Z-0.2 F333.3
Z-1.483
X43.03 Z-1.553
X43.007 Z-1.62
X42.969 Z-1.68
X42.919 Z-1.731
X42.859 Z-1.769
X42.792 Y30.352 Z-1.792
X42.721 Z-1.8
X42.403 Y30.35 F200
G17 G3 X42.087 Y30.031 I0.002 J-0.317
G2 X35.5 Y23.413 I-6.587 J-0.031
G1 X27.087
Y-50
G2 X13.913 Y-50 I-6.587 J0
G1 Y23.413
X5.5
G2 X5.5 Y36.588 I0 J6.587
G1 X13.913
Y50
G2 X27.087 Y50 I6.587 J0
G1 Y36.588
X35.5
G2 X42.087 Y30.031 I0 J-6.588
G3 X42.406 Y29.715 I0.317 J0.002
G1 X42.724 Y29.717
X42.795 Z-1.792
X42.862 Y29.718 Z-1.769
X42.922 Z-1.731
X42.972 Z-1.68
X43.01 Z-1.62
X43.033 Z-1.553
X43.041 Z-1.483
G0 Z2
X42.96 Y43.682
G1 Z-0.5 F333.3
Z-1.783
G18 G2 X43.278 Z-2.1 I0.318 K0
G1 X43.595 F200
G17 G3 X43.912 Y44 I0 J0.318
G2 X45.5 Y45.588 I1.588 J0
G1 X55.5
G2 X57.088 Y44 I0 J-1.588
G1 Y-23.413
X59.5
G2 X61.088 Y-25 I0 J-1.587
G1 Y-35
G2 X59.5 Y-36.588 I-1.588 J0
G1 X57.088
Y-44
G2 X55.5 Y-45.588 I-1.588 J0
G1 X45.5
G2 X43.912 Y-44 I0 J1.588
G1 Y-36.588
X41.5
G2 X39.912 Y-35 I0 J1.588
G1 Y-25
G2 X41.5 Y-23.413 I1.588 J0
G1 X43.912
Y30
Y44
G3 X43.595 Y44.318 I-0.317 J0
G1 X43.278
G18 G3 X42.96 Z-1.783 I0 K0.317
G0 Z2
X-1.96 Y50.318
G1 Z-0.2 F333.3
Z-1.483
G3 X-2.277 Z-1.8 I-0.317 K0
G1 X-2.595 F200
G17 G3 X-2.912 Y50 I0 J-0.318
G1 Y-23.413
X5.5
G2 X5.5 Y-36.588 I0 J-6.587
G1 X-2.912
Y-50
G2 X-16.087 Y-50 I-6.588 J0
G1 Y-36.588
X-24.5
G2 X-24.5 Y-23.413 I0 J6.588
G1 X-16.087
Y50
G2 X-2.912 Y50 I6.587 J0
G3 X-2.595 Y49.682 I0.317 J0
G1 X-2.277
G18 G2 X-1.96 Z-1.483 I0 K0.317
G0 Z2
Y50.318
G1 Z-0.5 F333.3
Z-1.783
G3 X-2.277 Z-2.1 I-0.317 K0
G1 X-2.595 F200
G17 G3 X-2.912 Y50 I0 J-0.318
G1 Y-23.413
X5.5
G2 X5.5 Y-36.588 I0 J-6.587
G1 X-2.912
Y-50
G2 X-16.087 Y-50 I-6.588 J0
G1 Y-36.588
X-24.5
G2 X-24.5 Y-23.413 I0 J6.588
G1 X-16.087
Y50
G2 X-2.912 Y50 I6.587 J0
G3 X-2.595 Y49.682 I0.317 J0
G1 X-2.277
G18 G2 X-1.96 Z-1.783 I0 K0.317
G0 Z2
X12.96
G1 Z-0.5 F333.3
Z-1.783
G2 X13.278 Z-2.1 I0.318 K0
G1 X13.595 F200
G17 G3 X13.913 Y50 I0 J0.318
G2 X27.087 Y50 I6.587 J0
G1 Y36.588
X35.5
G2 X35.5 Y23.413 I0 J-6.588
G1 X27.087
Y-50
G2 X13.913 Y-50 I-6.587 J0
G1 Y23.413
X5.5
G2 X5.5 Y36.588 I0 J6.587
G1 X13.913
Y50
G3 X13.595 Y50.318 I-0.318 J0
G1 X13.278
G18 G3 X12.96 Z-1.783 I0 K0.317
G0 Z2
Y49.682
G1 Z-0.8 F333.3
Z-2.083
G2 X13.278 Z-2.4 I0.318 K0
G1 X13.595 F200
G17 G3 X13.913 Y50 I0 J0.318
G2 X27.087 Y50 I6.587 J0
G1 Y36.588
X35.5
G2 X35.5 Y23.413 I0 J-6.588
G1 X27.087
Y-50
G2 X13.913 Y-50 I-6.587 J0
G1 Y23.413
X5.5
G2 X5.5 Y36.588 I0 J6.587
G1 X13.913
Y50
G3 X13.595 Y50.318 I-0.318 J0
G1 X13.278
G18 G3 X12.96 Z-2.083 I0 K0.318
G0 Z2
X42.96 Y43.682
G1 Z-0.8 F333.3
Z-2.083
G2 X43.278 Z-2.4 I0.318 K0
G1 X43.595 F200
G17 G3 X43.912 Y44 I0 J0.318
G2 X45.5 Y45.588 I1.588 J0
G1 X55.5
G2 X57.088 Y44 I0 J-1.588
G1 Y-23.413
X59.5
G2 X61.088 Y-25 I0 J-1.587
G1 Y-35
G2 X59.5 Y-36.588 I-1.588 J0
G1 X57.088
Y-44
G2 X55.5 Y-45.588 I-1.588 J0
G1 X45.5
G2 X43.912 Y-44 I0 J1.588
G1 Y-36.588
X41.5
G2 X39.912 Y-35 I0 J1.588
G1 Y-25
G2 X41.5 Y-23.413 I1.588 J0
G1 X43.912
Y30
Y44
G3 X43.595 Y44.318 I-0.317 J0
G1 X43.278
G18 G3 X42.96 Z-2.083 I0 K0.318
G0 Z2
Y43.682
G1 Z-1.1 F333.3
Z-2.383
G2 X43.278 Z-2.7 I0.318 K0
G1 X43.595 F200
G17 G3 X43.912 Y44 I0 J0.318
G2 X45.5 Y45.588 I1.588 J0
G1 X55.5
G2 X57.088 Y44 I0 J-1.588
G1 Y-23.413
X59.5
G2 X61.088 Y-25 I0 J-1.587
G1 Y-35
G2 X59.5 Y-36.588 I-1.588 J0
G1 X57.088
Y-44
G2 X55.5 Y-45.588 I-1.588 J0
G1 X45.5
G2 X43.912 Y-44 I0 J1.588
G1 Y-36.588
X41.5
G2 X39.912 Y-35 I0 J1.588
G1 Y-25
G2 X41.5 Y-23.413 I1.588 J0
G1 X43.912
Y30
Y44
G3 X43.595 Y44.318 I-0.317 J0
G1 X43.278
G18 G3 X42.96 Z-2.383 I0 K0.318
G0 Z2
X-16.962 Y30.353
G1 Z-0.5 F333.3
Z-1.783
X-16.97 Z-1.853
X-16.993 Z-1.92
X-17.031 Z-1.98
X-17.081 Z-2.031
X-17.141 Z-2.069
X-17.208 Y30.352 Z-2.092
X-17.279 Z-2.1
X-17.597 Y30.35 F200
G17 G3 X-17.913 Y30.031 I0.002 J-0.317
G2 X-24.5 Y23.413 I-6.587 J-0.031
G1 X-32.912
Y-50
G2 X-46.088 Y-50 I-6.588 J0
G1 Y23.413
X-54.5
G2 X-54.5 Y36.588 I0 J6.587
G1 X-46.088
Y50
G2 X-32.912 Y50 I6.588 J0
G1 Y36.588
X-24.5
G2 X-17.913 Y30.031 I0 J-6.588
G3 X-17.594 Y29.715 I0.317 J0.002
G1 X-17.276 Y29.717
X-17.205 Z-2.092
X-17.138 Y29.718 Z-2.069
X-17.078 Z-2.031
X-17.028 Z-1.98
X-16.99 Z-1.92
X-16.967 Z-1.853
X-16.959 Z-1.783
G0 Z2
X-17.04 Y29.647
G1 Z-0.8 F333.3
Z-2.083
G18 G2 X-16.722 Z-2.4 I0.318 K0
G1 X-16.405 F200
G17 G3 X-16.087 Y29.964 I0 J0.318
G1 Y50
G2 X-2.912 Y50 I6.587 J0
G1 Y-23.413
X5.5
G2 X5.5 Y-36.588 I0 J-6.587
G1 X-2.912
Y-50
G2 X-16.087 Y-50 I-6.588 J0
G1 Y-36.588
X-24.5
G2 X-24.5 Y-23.413 I0 J6.588
G1 X-16.087
Y29.964
G3 X-16.405 Y30.282 I-0.318 J0
G1 X-16.722
G18 G3 X-17.04 Z-2.083 I0 K0.318
G0 Z2
X-16.962 Y30.353
G1 Z-0.8 F333.3
Z-2.083
X-16.97 Z-2.153
X-16.993 Z-2.22
X-17.031 Z-2.28
X-17.081 Z-2.331
X-17.141 Z-2.369
X-17.208 Y30.352 Z-2.392
X-17.279 Z-2.4
X-17.597 Y30.35 F200
G17 G3 X-17.913 Y30.031 I0.002 J-0.317
G2 X-24.5 Y23.413 I-6.587 J-0.031
G1 X-32.912
Y-50
G2 X-46.088 Y-50 I-6.588 J0
G1 Y23.413
X-54.5
G2 X-54.5 Y36.588 I0 J6.587
G1 X-46.088
Y50
G2 X-32.912 Y50 I6.588 J0
G1 Y36.588
X-24.5
G2 X-17.913 Y30.031 I0 J-6.588
G3 X-17.594 Y29.715 I0.317 J0.002
G1 X-17.276 Y29.717
X-17.205 Z-2.392
X-17.138 Y29.718 Z-2.369
X-17.078 Z-2.331
X-17.028 Z-2.28
X-16.99 Z-2.22
X-16.967 Z-2.153
X-16.959 Z-2.083
G0 Z2
X-17.04 Y29.647
G1 Z-1.1 F333.3
Z-2.383
G18 G2 X-16.722 Z-2.7 I0.318 K0
G1 X-16.405 F200
G17 G3 X-16.087 Y29.964 I0 J0.318
G1 Y50
G2 X-2.912 Y50 I6.587 J0
G1 Y-23.413
X5.5
G2 X5.5 Y-36.588 I0 J-6.587
G1 X-2.912
Y-50
G2 X-16.087 Y-50 I-6.588 J0
G1 Y-36.588
X-24.5
G2 X-24.5 Y-23.413 I0 J6.588
G1 X-16.087
Y29.964
G3 X-16.405 Y30.282 I-0.318 J0
G1 X-16.722
G18 G3 X-17.04 Z-2.383 I0 K0.318
G0 Z2
X-16.962 Y30.353
G1 Z-1.1 F333.3
Z-2.383
X-16.97 Z-2.453
X-16.993 Z-2.52
X-17.031 Z-2.58
X-17.081 Z-2.631
X-17.141 Z-2.669
X-17.208 Y30.352 Z-2.692
X-17.279 Z-2.7
X-17.597 Y30.35 F200
G17 G3 X-17.913 Y30.031 I0.002 J-0.317
G2 X-24.5 Y23.413 I-6.587 J-0.031
G1 X-32.912
Y-50
G2 X-46.088 Y-50 I-6.588 J0
G1 Y23.413
X-54.5
G2 X-54.5 Y36.588 I0 J6.587
G1 X-46.088
Y50
G2 X-32.912 Y50 I6.588 J0
G1 Y36.588
X-24.5
G2 X-17.913 Y30.031 I0 J-6.588
G3 X-17.594 Y29.715 I0.317 J0.002
G1 X-17.276 Y29.717
X-17.205 Z-2.692
X-17.138 Y29.718 Z-2.669
X-17.078 Z-2.631
X-17.028 Z-2.58
X-16.99 Z-2.52
X-16.967 Z-2.453
X-16.959 Z-2.383
G0 Z2
X-16.962 Y30.353
G1 Z-1.4 F333.3
Z-2.683
X-16.97 Z-2.753
X-16.993 Z-2.82
X-17.031 Z-2.88
X-17.081 Z-2.931
X-17.141 Z-2.969
X-17.208 Y30.352 Z-2.992
X-17.279 Z-3
X-17.597 Y30.35 F200
G3 X-17.913 Y30.031 I0.002 J-0.317
G2 X-24.5 Y23.413 I-6.587 J-0.031
G1 X-32.912
Y-50
G2 X-46.088 Y-50 I-6.588 J0
G1 Y23.413
X-54.5
G2 X-54.5 Y36.588 I0 J6.587
G1 X-46.088
Y50
G2 X-32.912 Y50 I6.588 J0
G1 Y36.588
X-24.5
G2 X-17.913 Y30.031 I0 J-6.588
G3 X-17.594 Y29.715 I0.317 J0.002
G1 X-17.276 Y29.717
X-17.205 Z-2.992
X-17.138 Y29.718 Z-2.969
X-17.078 Z-2.931
X-17.028 Z-2.88
X-16.99 Z-2.82
X-16.967 Z-2.753
X-16.959 Z-2.683
G0 Z2
X12.96 Y44.682
G1 Z-1.1 F333.3
Z-2.383
G18 G2 X13.278 Z-2.7 I0.318 K0
G1 X13.595 F200
G17 G3 X13.913 Y45 I0 J0.318
G1 Y50
G2 X27.087 Y50 I6.587 J0
G1 Y36.588
X35.5
G2 X35.5 Y23.413 I0 J-6.588
G1 X27.087
Y-50
G2 X13.913 Y-50 I-6.587 J0
G1 Y23.413
X5.5
G2 X5.5 Y36.588 I0 J6.587
G1 X13.913
Y45
G3 X13.595 Y45.318 I-0.318 J0
G1 X13.278
G18 G3 X12.96 Z-2.383 I0 K0.318
G0 Z2
Y44.682
G1 Z-1.4 F333.3
Z-2.683
G2 X13.278 Z-3 I0.318 K0
G1 X13.595 F200
G17 G3 X13.913 Y45 I0 J0.318
G1 Y50
G2 X27.087 Y50 I6.587 J0
G1 Y36.588
X35.5
G2 X35.5 Y23.413 I0 J-6.588
G1 X27.087
Y-50
G2 X13.913 Y-50 I-6.587 J0
G1 Y23.413
X5.5
G2 X5.5 Y36.588 I0 J6.587
G1 X13.913
Y45
G3 X13.595 Y45.318 I-0.318 J0
G1 X13.278
G18 G3 X12.96 Z-2.683 I0 K0.318
G0 Z2
X-1.96 Y50.318
G1 Z-1.4 F333.3
Z-2.683
G3 X-2.277 Z-3 I-0.317 K0
G1 X-2.595 F200
G17 G3 X-2.912 Y50 I0 J-0.318
G1 Y-23.413
X5.5
G2 X5.5 Y-36.588 I0 J-6.587
G1 X-2.912
Y-50
G2 X-16.087 Y-50 I-6.588 J0
G1 Y-36.588
X-24.5
G2 X-24.5 Y-23.413 I0 J6.588
G1 X-16.087
Y50
G2 X-2.912 Y50 I6.587 J0
G3 X-2.595 Y49.682 I0.317 J0
G1 X-2.277
G18 G2 X-1.96 Z-2.683 I0 K0.318
G0 Z2
Y50.318
G1 Z-1.7 F333.3
Z-2.783
G3 X-2.277 Z-3.1 I-0.317 K0
G1 X-2.595 F200
G17 G3 X-2.912 Y50 I0 J-0.318
G1 Y-23.413
X5.5
G2 X5.5 Y-36.588 I0 J-6.587
G1 X-2.912
Y-50
G2 X-16.087 Y-50 I-6.588 J0
G1 Y-36.588
X-24.5
G2 X-24.5 Y-23.413 I0 J6.588
G1 X-16.087
Y50
G2 X-2.912 Y50 I6.587 J0
G3 X-2.595 Y49.682 I0.317 J0
G1 X-2.277
G18 G2 X-1.96 Z-2.783 I0 K0.317
G0 Z2
X-31.96 Y50.318
G1 Z-1.7 F333.3
Z-2.783
G3 X-32.278 Z-3.1 I-0.318 K0
G1 X-32.595 F200
G17 G3 X-32.912 Y50 I0 J-0.318
G1 Y36.588
X-24.5
G2 X-24.5 Y23.413 I0 J-6.588
G1 X-32.912
Y-50
G2 X-46.088 Y-50 I-6.588 J0
G1 Y23.413
X-54.5
G2 X-54.5 Y36.588 I0 J6.587
G1 X-46.088
Y50
G2 X-32.912 Y50 I6.588 J0
G3 X-32.595 Y49.682 I0.317 J0
G1 X-32.278
G18 G2 X-31.96 Z-2.783 I0 K0.317
G0 Z2
Y50.318
G1 Z-1.8 F333.3
Z-2.883
G3 X-32.278 Z-3.2 I-0.318 K0
G1 X-32.595 F200
G17 G3 X-32.912 Y50 I0 J-0.318
G1 Y36.588
X-24.5
G2 X-24.5 Y23.413 I0 J-6.588
G1 X-32.912
Y-50
G2 X-46.088 Y-50 I-6.588 J0
G1 Y23.413
X-54.5
G2 X-54.5 Y36.588 I0 J6.587
G1 X-46.088
Y50
G2 X-32.912 Y50 I6.588 J0
G3 X-32.595 Y49.682 I0.317 J0
G1 X-32.278
G18 G2 X-31.96 Z-2.883 I0 K0.318
G0 Z2
X42.96 Y43.682
G1 Z-1.4 F333.3
Z-2.683
G2 X43.278 Z-3 I0.318 K0
G1 X43.595 F200
G17 G3 X43.912 Y44 I0 J0.318
G2 X45.5 Y45.588 I1.588 J0
G1 X55.5
G2 X57.088 Y44 I0 J-1.588
G1 Y-23.413
X59.5
G2 X61.088 Y-25 I0 J-1.587
G1 Y-35
G2 X59.5 Y-36.588 I-1.588 J0
G1 X57.088
Y-44
G2 X55.5 Y-45.588 I-1.588 J0
G1 X45.5
G2 X43.912 Y-44 I0 J1.588
G1 Y-36.588
X41.5
G2 X39.912 Y-35 I0 J1.588
G1 Y-25
G2 X41.5 Y-23.413 I1.588 J0
G1 X43.912
Y30
Y44
G3 X43.595 Y44.318 I-0.317 J0
G1 X43.278
G18 G3 X42.96 Z-2.683 I0 K0.318
G0 Z2
Y43.682
G1 Z-1.7 F333.3
Z-2.783
G2 X43.278 Z-3.1 I0.318 K0
G1 X43.595 F200
G17 G3 X43.912 Y44 I0 J0.318
G2 X45.5 Y45.588 I1.588 J0
G1 X55.5
G2 X57.088 Y44 I0 J-1.588
G1 Y-23.413
X59.5
G2 X61.088 Y-25 I0 J-1.587
G1 Y-35
G2 X59.5 Y-36.588 I-1.588 J0
G1 X57.088
Y-44
G2 X55.5 Y-45.588 I-1.588 J0
G1 X45.5
G2 X43.912 Y-44 I0 J1.588
G1 Y-36.588
X41.5
G2 X39.912 Y-35 I0 J1.588
G1 Y-25
G2 X41.5 Y-23.413 I1.588 J0
G1 X43.912
Y30
Y44
G3 X43.595 Y44.318 I-0.317 J0
G1 X43.278
G18 G3 X42.96 Z-2.783 I0 K0.317
G0 Z2
X43.038 Y30.353
G1 Z-1.7 F333.3
Z-2.783
X43.03 Z-2.853
X43.007 Z-2.92
X42.969 Z-2.98
X42.919 Z-3.031
X42.859 Z-3.069
X42.792 Y30.352 Z-3.092
X42.721 Z-3.1
X42.403 Y30.35 F200
G17 G3 X42.087 Y30.031 I0.002 J-0.317
G2 X35.5 Y23.413 I-6.587 J-0.031
G1 X27.087
Y-50
G2 X13.913 Y-50 I-6.587 J0
G1 Y23.413
X5.5
G2 X5.5 Y36.588 I0 J6.587
G1 X13.913
Y50
G2 X27.087 Y50 I6.587 J0
G1 Y36.588
X35.5
G2 X42.087 Y30.031 I0 J-6.588
G3 X42.406 Y29.715 I0.317 J0.002
G1 X42.724 Y29.717
X42.795 Z-3.092
X42.862 Y29.718 Z-3.069
X42.922 Z-3.031
X42.972 Z-2.98
X43.01 Z-2.92
X43.033 Z-2.853
X43.041 Z-2.783
G0 Z2
X42.96 Y43.682
G1 Z-1.8 F333.3
Z-2.883
G18 G2 X43.278 Z-3.2 I0.318 K0
G1 X43.595 F200
G17 G3 X43.912 Y44 I0 J0.318
G2 X45.5 Y45.588 I1.588 J0
G1 X55.5
G2 X57.088 Y44 I0 J-1.588
G1 Y-23.413
X59.5
G2 X61.088 Y-25 I0 J-1.587
G1 Y-35
G2 X59.5 Y-36.588 I-1.588 J0
G1 X57.088
Y-44
G2 X55.5 Y-45.588 I-1.588 J0
G1 X45.5
G2 X43.912 Y-44 I0 J1.588
G1 Y-36.588
X41.5
G2 X39.912 Y-35 I0 J1.588
G1 Y-25
G2 X41.5 Y-23.413 I1.588 J0
G1 X43.912
Y30
Y44
G3 X43.595 Y44.318 I-0.317 J0
G1 X43.278
G18 G3 X42.96 Z-2.883 I0 K0.318
G0 Z2
X43.038 Y30.353
G1 Z-1.8 F333.3
Z-2.883
X43.03 Z-2.953
X43.007 Z-3.02
X42.969 Z-3.08
X42.919 Z-3.131
X42.859 Z-3.169
X42.792 Y30.352 Z-3.192
X42.721 Z-3.2
X42.403 Y30.35 F200
G17 G3 X42.087 Y30.031 I0.002 J-0.317
G2 X35.5 Y23.413 I-6.587 J-0.031
G1 X27.087
Y-50
G2 X13.913 Y-50 I-6.587 J0
G1 Y23.413
X5.5
G2 X5.5 Y36.588 I0 J6.587
G1 X13.913
Y50
G2 X27.087 Y50 I6.587 J0
G1 Y36.588
X35.5
G2 X42.087 Y30.031 I0 J-6.588
G3 X42.406 Y29.715 I0.317 J0.002
G1 X42.724 Y29.717
X42.795 Z-3.192
X42.862 Y29.718 Z-3.169
X42.922 Z-3.131
X42.972 Z-3.08
X43.01 Z-3.02
X43.033 Z-2.953
X43.041 Z-2.883
G0 Z2
X-1.96 Y15.318
G1 Z-1.8 F333.3
Z-2.883
G18 G3 X-2.277 Z-3.2 I-0.317 K0
G1 X-2.595 F200
G17 G3 X-2.912 Y15 I0 J-0.318
G1 Y-23.413
X5.5
G2 X5.5 Y-36.588 I0 J-6.587
G1 X-2.912
Y-50
G2 X-16.087 Y-50 I-6.588 J0
G1 Y-36.588
X-24.5
G2 X-24.5 Y-23.413 I0 J6.588
G1 X-16.087
Y50
G2 X-2.912 Y50 I6.587 J0
G1 Y15
G3 X-2.595 Y14.682 I0.317 J0
G1 X-2.277
G18 G2 X-1.96 Z-2.883 I0 K0.318
G0 Z5
G17
G28 G91 Z0
G90
G28 G91 X0 Y0
G90
M5
M30
