(1DOF)
(T1  D=3.175 CR=0 - ZMIN=-3.2 - flat end mill)
G90 G94
G17
G21
G28 G91 Z0
G90

(2D Contour2 2)
S20000 M3
G54
G0 X-13.285 Y50.318
Z5
Z2
G1 Z1.5 F333.3
Z-0.183
G18 G3 X-13.603 Z-0.5 I-0.318 K0
G1 X-13.92 F600
G17 G3 X-14.238 Y50 I0 J-0.318
G1 Y5
G2 X-27.413 Y5 I-6.588 J0
G1 Y50
G2 X-14.238 Y50 I6.587 J0
G3 X-13.92 Y49.682 I0.318 J0
G1 X-13.603
G18 G2 X-13.285 Z-0.183 I0 K0.317
G0 Z2
X-13.366
G1 Z1.5 F333.3
Z-0.183
G2 X-13.048 Z-0.5 I0.318 K0
G1 X-12.731 F600
G17 G3 X-12.413 Y50 I0 J0.318
G2 X0.762 Y50 I6.588 J0
G1 Y5
Y4.964
G2 X-5.825 Y-1.588 I-6.587 J0.036
X-12.413 Y5 I0 J6.588
G1 Y50
G3 X-12.731 Y50.318 I-0.318 J0
G1 X-13.048
G18 G3 X-13.366 Z-0.183 I0 K0.317
G0 Z2
X1.635 Y49.682
G1 Z1.5 F333.3
Z-0.183
G2 X1.952 Z-0.5 I0.317 K0
G1 X2.27 F600
G17 G3 X2.587 Y50 I0 J0.318
G2 X15.762 Y50 I6.588 J0
G1 Y5
G2 X2.587 Y5 I-6.587 J0
G1 Y50
G3 X2.27 Y50.318 I-0.317 J0
G1 X1.952
G18 G3 X1.635 Z-0.183 I0 K0.317
G0 Z2
X1.713 Y50.353
G1 Z1 F333.3
Z-0.683
X1.705 Z-0.753
X1.681 Z-0.82
X1.644 Z-0.88
X1.593 Z-0.931
X1.533 Z-0.969
X1.466 Y50.352 Z-0.992
X1.395 Z-1
X1.078 Y50.35 F600
G17 G3 X0.762 Y50.031 I0.002 J-0.317
G1 Y50
Y5
Y4.964
G2 X-5.825 Y-1.588 I-6.587 J0.036
X-12.413 Y5 I0 J6.588
G1 Y50
G2 X0.762 Y50.031 I6.588 J0
G3 X1.081 Y49.715 I0.317 J0.002
G1 X1.398 Y49.717
X1.469 Z-0.992
X1.536 Y49.718 Z-0.969
X1.596 Z-0.931
X1.647 Z-0.88
X1.684 Z-0.82
X1.708 Z-0.753
X1.716 Z-0.683
G0 Z2
X16.633 Y49.723
G1 Z1.5 F333.3
Z-0.183
X16.641 Z-0.253
X16.664 Z-0.32
X16.702 Z-0.38
X16.752 Z-0.431
X16.813 Y49.722 Z-0.469
X16.88 Z-0.492
X16.95 Z-0.5
X17.268 Y49.72 F600
G3 X17.587 Y50.036 I0.002 J0.317
G2 X24.174 Y56.588 I6.587 J-0.036
X30.762 Y50 I0 J-6.588
G1 Y5
G2 X17.587 Y5 I-6.587 J0
G1 Y50
Y50.036
G3 X17.27 Y50.354 I-0.317 J0.001
G1 X16.953 Y50.355
X16.882 Z-0.492
X16.815 Z-0.469
X16.755 Z-0.431
X16.705 Y50.356 Z-0.38
X16.667 Z-0.32
X16.643 Z-0.253
X16.635 Z-0.183
G0 Z2
X16.713 Y50.353
G1 Z1 F333.3
Z-0.683
X16.705 Z-0.753
X16.681 Z-0.82
X16.644 Z-0.88
X16.593 Z-0.931
X16.533 Z-0.969
X16.466 Y50.352 Z-0.992
X16.395 Z-1
X16.078 Y50.35 F600
G3 X15.762 Y50.031 I0.002 J-0.317
G1 Y50
Y5
G2 X2.587 Y5 I-6.587 J0
G1 Y50
G2 X15.762 Y50.031 I6.588 J0
G3 X16.081 Y49.715 I0.317 J0.002
G1 X16.398 Y49.717
X16.469 Z-0.992
X16.536 Y49.718 Z-0.969
X16.596 Z-0.931
X16.647 Z-0.88
X16.684 Z-0.82
X16.708 Z-0.753
X16.716 Z-0.683
G0 Z2
X16.633 Y49.723
G1 Z1 F333.3
Z-0.683
X16.641 Z-0.753
X16.664 Z-0.82
X16.702 Z-0.88
X16.752 Z-0.931
X16.813 Y49.722 Z-0.969
X16.88 Z-0.992
X16.95 Z-1
X17.268 Y49.72 F600
G3 X17.587 Y50.036 I0.002 J0.317
G2 X24.174 Y56.588 I6.587 J-0.036
X30.762 Y50 I0 J-6.588
G1 Y5
G2 X17.587 Y5 I-6.587 J0
G1 Y50
Y50.036
G3 X17.27 Y50.354 I-0.317 J0.001
G1 X16.953 Y50.355
X16.882 Z-0.992
X16.815 Z-0.969
X16.755 Z-0.931
X16.705 Y50.356 Z-0.88
X16.667 Z-0.82
X16.643 Z-0.753
X16.635 Z-0.683
G0 Z2
X16.713 Y50.353
G1 Z0.5 F333.3
Z-1.183
X16.705 Z-1.253
X16.681 Z-1.32
X16.644 Z-1.38
X16.593 Z-1.431
X16.533 Z-1.469
X16.466 Y50.352 Z-1.492
X16.395 Z-1.5
X16.078 Y50.35 F600
G3 X15.762 Y50.031 I0.002 J-0.317
G1 Y50
Y5
G2 X2.587 Y5 I-6.587 J0
G1 Y50
G2 X15.762 Y50.031 I6.588 J0
G3 X16.081 Y49.715 I0.317 J0.002
G1 X16.398 Y49.717
X16.469 Z-1.492
X16.536 Y49.718 Z-1.469
X16.596 Z-1.431
X16.647 Z-1.38
X16.684 Z-1.32
X16.708 Z-1.253
X16.716 Z-1.183
G0 Z2
X16.633 Y49.723
G1 Z0.5 F333.3
Z-1.183
X16.641 Z-1.253
X16.664 Z-1.32
X16.702 Z-1.38
X16.752 Z-1.431
X16.813 Y49.722 Z-1.469
X16.88 Z-1.492
X16.95 Z-1.5
X17.268 Y49.72 F600
G3 X17.587 Y50.036 I0.002 J0.317
G2 X24.174 Y56.588 I6.587 J-0.036
X30.762 Y50 I0 J-6.588
G1 Y5
G2 X17.587 Y5 I-6.587 J0
G1 Y50
Y50.036
G3 X17.27 Y50.354 I-0.317 J0.001
G1 X16.953 Y50.355
X16.882 Z-1.492
X16.815 Z-1.469
X16.755 Z-1.431
X16.705 Y50.356 Z-1.38
X16.667 Z-1.32
X16.643 Z-1.253
X16.635 Z-1.183
G0 Z2
X16.633 Y49.723
G1 Z0 F333.3
Z-1.683
X16.641 Z-1.753
X16.664 Z-1.82
X16.702 Z-1.88
X16.752 Z-1.931
X16.813 Y49.722 Z-1.969
X16.88 Z-1.992
X16.95 Z-2
X17.268 Y49.72 F600
G3 X17.587 Y50.036 I0.002 J0.317
G2 X24.174 Y56.588 I6.587 J-0.036
X30.762 Y50 I0 J-6.588
G1 Y5
G2 X17.587 Y5 I-6.587 J0
G1 Y50
Y50.036
G3 X17.27 Y50.354 I-0.317 J0.001
G1 X16.953 Y50.355
X16.882 Z-1.992
X16.815 Z-1.969
X16.755 Z-1.931
X16.705 Y50.356 Z-1.88
X16.667 Z-1.82
X16.643 Z-1.753
X16.635 Z-1.683
G0 Z2
X-28.287 Y47.853
G1 Z1.5 F333.3
Z-0.183
X-28.295 Z-0.253
X-28.319 Z-0.32
X-28.356 Z-0.38
X-28.407 Z-0.431
X-28.467 Z-0.469
X-28.534 Y47.852 Z-0.492
X-28.605 Z-0.5
X-28.922 Y47.85 F600
G3 X-29.238 Y47.531 I0.002 J-0.317
G1 Y47.5
Y7.5
G2 X-42.413 Y7.5 I-6.587 J0
G1 Y47.5
G2 X-29.238 Y47.531 I6.587 J0
G3 X-28.919 Y47.215 I0.317 J0.002
G1 X-28.602 Y47.217
X-28.531 Z-0.492
X-28.464 Y47.218 Z-0.469
X-28.404 Z-0.431
X-28.353 Z-0.38
X-28.316 Z-0.32
X-28.292 Z-0.253
X-28.284 Z-0.183
G0 Z2
X-28.365 Y47.182
G1 Z1 F333.3
Z-0.683
G18 G2 X-28.048 Z-1 I0.317 K0
G1 X-27.73 F600
G17 G3 X-27.413 Y47.5 I0 J0.318
G1 Y50
G2 X-14.238 Y50 I6.587 J0
G1 Y5
G2 X-27.413 Y5 I-6.588 J0
G1 Y47.5
G3 X-27.73 Y47.818 I-0.317 J0
G1 X-28.048
G18 G3 X-28.365 Z-0.683 I0 K0.317
G0 Z2
X-43.287 Y47.853
G1 Z1.5 F333.3
Z-0.183
X-43.295 Z-0.253
X-43.319 Z-0.32
X-43.356 Z-0.38
X-43.407 Z-0.431
X-43.467 Z-0.469
X-43.534 Y47.852 Z-0.492
X-43.605 Z-0.5
X-43.922 Y47.85 F600
G17 G3 X-44.238 Y47.531 I0.002 J-0.317
G1 Y47.5
Y7.5
G2 X-57.413 Y7.5 I-6.588 J0
G1 Y47.5
G2 X-44.238 Y47.531 I6.587 J0
G3 X-43.919 Y47.215 I0.317 J0.002
G1 X-43.602 Y47.217
X-43.531 Z-0.492
X-43.464 Y47.218 Z-0.469
X-43.404 Z-0.431
X-43.353 Z-0.38
X-43.316 Z-0.32
X-43.292 Z-0.253
X-43.284 Z-0.183
G0 Z2
X-43.366 Y47.182
G1 Z1 F333.3
Z-0.683
G18 G2 X-43.048 Z-1 I0.318 K0
G1 X-42.73 F600
G17 G3 X-42.413 Y47.5 I0 J0.318
G2 X-29.238 Y47.5 I6.587 J0
G1 Y7.5
G2 X-42.413 Y7.5 I-6.587 J0
G1 Y47.5
G3 X-42.73 Y47.818 I-0.318 J0
G1 X-43.048
G18 G3 X-43.366 Z-0.683 I0 K0.317
G0 Z2
X-43.287 Y47.853
G1 Z1 F333.3
Z-0.683
X-43.295 Z-0.753
X-43.319 Z-0.82
X-43.356 Z-0.88
X-43.407 Z-0.931
X-43.467 Z-0.969
X-43.534 Y47.852 Z-0.992
X-43.605 Z-1
X-43.922 Y47.85 F600
G17 G3 X-44.238 Y47.531 I0.002 J-0.317
G1 Y47.5
Y7.5
G2 X-57.413 Y7.5 I-6.588 J0
G1 Y47.5
G2 X-44.238 Y47.531 I6.587 J0
G3 X-43.919 Y47.215 I0.317 J0.002
G1 X-43.602 Y47.217
X-43.531 Z-0.992
X-43.464 Y47.218 Z-0.969
X-43.404 Z-0.931
X-43.353 Z-0.88
X-43.316 Z-0.82
X-43.292 Z-0.753
X-43.284 Z-0.683
G0 Z2
X-43.366 Y47.182
G1 Z0.5 F333.3
Z-1.183
G18 G2 X-43.048 Z-1.5 I0.318 K0
G1 X-42.73 F600
G17 G3 X-42.413 Y47.5 I0 J0.318
G2 X-29.238 Y47.5 I6.587 J0
G1 Y7.5
G2 X-42.413 Y7.5 I-6.587 J0
G1 Y47.5
G3 X-42.73 Y47.818 I-0.318 J0
G1 X-43.048
G18 G3 X-43.366 Z-1.183 I0 K0.317
G0 Z2
X-43.287 Y47.853
G1 Z0.5 F333.3
Z-1.183
X-43.295 Z-1.253
X-43.319 Z-1.32
X-43.356 Z-1.38
X-43.407 Z-1.431
X-43.467 Z-1.469
X-43.534 Y47.852 Z-1.492
X-43.605 Z-1.5
X-43.922 Y47.85 F600
G17 G3 X-44.238 Y47.531 I0.002 J-0.317
G1 Y47.5
Y7.5
G2 X-57.413 Y7.5 I-6.588 J0
G1 Y47.5
G2 X-44.238 Y47.531 I6.587 J0
G3 X-43.919 Y47.215 I0.317 J0.002
G1 X-43.602 Y47.217
X-43.531 Z-1.492
X-43.464 Y47.218 Z-1.469
X-43.404 Z-1.431
X-43.353 Z-1.38
X-43.316 Z-1.32
X-43.292 Z-1.253
X-43.284 Z-1.183
G0 Z2
X-43.285 Y47.343
G1 Z0 F333.3
Z-1.683
G18 G3 X-43.603 Z-2 I-0.318 K0
G1 X-43.921 F600
G17 G3 X-44.238 Y47.026 I0 J-0.318
G1 Y7.5
G2 X-57.413 Y7.5 I-6.588 J0
G1 Y47.5
G2 X-44.238 Y47.5 I6.587 J0
G1 Y47.026
G3 X-43.921 Y46.708 I0.317 J0
G1 X-43.603
G18 G2 X-43.285 Z-1.683 I0 K0.317
G0 Z2
X-28.365 Y47.182
G1 Z0.5 F333.3
Z-1.183
G2 X-28.048 Z-1.5 I0.317 K0
G1 X-27.73 F600
G17 G3 X-27.413 Y47.5 I0 J0.318
G1 Y50
G2 X-14.238 Y50 I6.587 J0
G1 Y5
G2 X-27.413 Y5 I-6.588 J0
G1 Y47.5
G3 X-27.73 Y47.818 I-0.317 J0
G1 X-28.048
G18 G3 X-28.365 Z-1.183 I0 K0.317
G0 Z2
X-28.287 Y47.853
G1 Z0 F333.3
Z-1.683
X-28.295 Z-1.753
X-28.319 Z-1.82
X-28.356 Z-1.88
X-28.407 Z-1.931
X-28.467 Z-1.969
X-28.534 Y47.852 Z-1.992
X-28.605 Z-2
X-28.922 Y47.85 F600
G17 G3 X-29.238 Y47.531 I0.002 J-0.317
G1 Y47.5
Y7.5
G2 X-42.413 Y7.5 I-6.587 J0
G1 Y47.5
G2 X-29.238 Y47.531 I6.587 J0
G3 X-28.919 Y47.215 I0.317 J0.002
G1 X-28.602 Y47.217
X-28.531 Z-1.992
X-28.464 Y47.218 Z-1.969
X-28.404 Z-1.931
X-28.353 Z-1.88
X-28.316 Z-1.82
X-28.292 Z-1.753
X-28.284 Z-1.683
G0 Z2
X-13.366 Y49.682
G1 Z0.5 F333.3
Z-1.183
G18 G2 X-13.048 Z-1.5 I0.318 K0
G1 X-12.731 F600
G17 G3 X-12.413 Y50 I0 J0.318
G2 X0.762 Y50 I6.588 J0
G1 Y5
Y4.964
G2 X-5.825 Y-1.588 I-6.587 J0.036
X-12.413 Y5 I0 J6.588
G1 Y50
G3 X-12.731 Y50.318 I-0.318 J0
G1 X-13.048
G18 G3 X-13.366 Z-1.183 I0 K0.317
G0 Z2
X-13.287 Y50.353
G1 Z0 F333.3
Z-1.683
X-13.295 Z-1.753
X-13.319 Z-1.82
X-13.356 Z-1.88
X-13.407 Z-1.931
X-13.467 Z-1.969
X-13.534 Y50.352 Z-1.992
X-13.605 Z-2
X-13.922 Y50.35 F600
G17 G3 X-14.238 Y50.031 I0.002 J-0.317
G1 Y50
Y5
G2 X-27.413 Y5 I-6.588 J0
G1 Y50
G2 X-14.238 Y50.031 I6.587 J0
G3 X-13.919 Y49.715 I0.317 J0.002
G1 X-13.602 Y49.717
X-13.531 Z-1.992
X-13.464 Y49.718 Z-1.969
X-13.404 Z-1.931
X-13.353 Z-1.88
X-13.316 Z-1.82
X-13.292 Z-1.753
X-13.284 Z-1.683
G0 Z2
X-13.366 Y49.682
G1 Z0 F333.3
Z-1.683
G18 G2 X-13.048 Z-2 I0.318 K0
G1 X-12.731 F600
G17 G3 X-12.413 Y50 I0 J0.318
G2 X0.762 Y50 I6.588 J0
G1 Y5
Y4.964
G2 X-5.825 Y-1.588 I-6.587 J0.036
X-12.413 Y5 I0 J6.588
G1 Y50
G3 X-12.731 Y50.318 I-0.318 J0
G1 X-13.048
G18 G3 X-13.366 Z-1.683 I0 K0.317
G0 Z2
X-13.287 Y50.353
G1 Z-0.5 F333.3
Z-2.183
X-13.295 Z-2.253
X-13.319 Z-2.32
X-13.356 Z-2.38
X-13.407 Z-2.431
X-13.467 Z-2.469
X-13.534 Y50.352 Z-2.492
X-13.605 Z-2.5
X-13.922 Y50.35 F600
G17 G3 X-14.238 Y50.031 I0.002 J-0.317
G1 Y50
Y5
G2 X-27.413 Y5 I-6.588 J0
G1 Y50
G2 X-14.238 Y50.031 I6.587 J0
G3 X-13.919 Y49.715 I0.317 J0.002
G1 X-13.602 Y49.717
X-13.531 Z-2.492
X-13.464 Y49.718 Z-2.469
X-13.404 Z-2.431
X-13.353 Z-2.38
X-13.316 Z-2.32
X-13.292 Z-2.253
X-13.284 Z-2.183
G0 Z2
X1.635 Y49.682
G1 Z0 F333.3
Z-1.683
G18 G2 X1.952 Z-2 I0.317 K0
G1 X2.27 F600
G17 G3 X2.587 Y50 I0 J0.318
G2 X15.762 Y50 I6.588 J0
G1 Y5
G2 X2.587 Y5 I-6.587 J0
G1 Y50
G3 X2.27 Y50.318 I-0.317 J0
G1 X1.952
G18 G3 X1.635 Z-1.683 I0 K0.317
G0 Z2
X1.713 Y50.353
G1 Z-0.5 F333.3
Z-2.183
X1.705 Z-2.253
X1.681 Z-2.32
X1.644 Z-2.38
X1.593 Z-2.431
X1.533 Z-2.469
X1.466 Y50.352 Z-2.492
X1.395 Z-2.5
X1.078 Y50.35 F600
G17 G3 X0.762 Y50.031 I0.002 J-0.317
G1 Y50
Y5
Y4.964
G2 X-5.825 Y-1.588 I-6.587 J0.036
X-12.413 Y5 I0 J6.588
G1 Y50
G2 X0.762 Y50.031 I6.588 J0
G3 X1.081 Y49.715 I0.317 J0.002
G1 X1.398 Y49.717
X1.469 Z-2.492
X1.536 Y49.718 Z-2.469
X1.596 Z-2.431
X1.647 Z-2.38
X1.684 Z-2.32
X1.708 Z-2.253
X1.716 Z-2.183
G0 Z2
X1.635 Y49.682
G1 Z-0.5 F333.3
Z-2.183
G18 G2 X1.952 Z-2.5 I0.317 K0
G1 X2.27 F600
G17 G3 X2.587 Y50 I0 J0.318
G2 X15.762 Y50 I6.588 J0
G1 Y5
G2 X2.587 Y5 I-6.587 J0
G1 Y50
G3 X2.27 Y50.318 I-0.317 J0
G1 X1.952
G18 G3 X1.635 Z-2.183 I0 K0.318
G0 Z2
X1.713 Y50.353
G1 Z-1 F333.3
Z-2.683
X1.705 Z-2.753
X1.681 Z-2.82
X1.644 Z-2.88
X1.593 Z-2.931
X1.533 Z-2.969
X1.466 Y50.352 Z-2.992
X1.395 Z-3
X1.078 Y50.35 F600
G17 G3 X0.762 Y50.031 I0.002 J-0.317
G1 Y50
Y5
Y4.964
G2 X-5.825 Y-1.588 I-6.587 J0.036
X-12.413 Y5 I0 J6.588
G1 Y50
G2 X0.762 Y50.031 I6.588 J0
G3 X1.081 Y49.715 I0.317 J0.002
G1 X1.398 Y49.717
X1.469 Z-2.992
X1.536 Y49.718 Z-2.969
X1.596 Z-2.931
X1.647 Z-2.88
X1.684 Z-2.82
X1.708 Z-2.753
X1.716 Z-2.683
G0 Z2
X16.633 Y49.723
G1 Z-0.5 F333.3
Z-2.183
X16.641 Z-2.253
X16.664 Z-2.32
X16.702 Z-2.38
X16.752 Z-2.431
X16.813 Y49.722 Z-2.469
X16.88 Z-2.492
X16.95 Z-2.5
X17.268 Y49.72 F600
G3 X17.587 Y50.036 I0.002 J0.317
G2 X24.174 Y56.588 I6.587 J-0.036
X30.762 Y50 I0 J-6.588
G1 Y5
G2 X17.587 Y5 I-6.587 J0
G1 Y50
Y50.036
G3 X17.27 Y50.354 I-0.317 J0.001
G1 X16.953 Y50.355
X16.882 Z-2.492
X16.815 Z-2.469
X16.755 Z-2.431
X16.705 Y50.356 Z-2.38
X16.667 Z-2.32
X16.643 Z-2.253
X16.635 Z-2.183
G0 Z2
X16.713 Y50.353
G1 Z-1 F333.3
Z-2.683
X16.705 Z-2.753
X16.681 Z-2.82
X16.644 Z-2.88
X16.593 Z-2.931
X16.533 Z-2.969
X16.466 Y50.352 Z-2.992
X16.395 Z-3
X16.078 Y50.35 F600
G3 X15.762 Y50.031 I0.002 J-0.317
G1 Y50
Y5
G2 X2.587 Y5 I-6.587 J0
G1 Y50
G2 X15.762 Y50.031 I6.588 J0
G3 X16.081 Y49.715 I0.317 J0.002
G1 X16.398 Y49.717
X16.469 Z-2.992
X16.536 Y49.718 Z-2.969
X16.596 Z-2.931
X16.647 Z-2.88
X16.684 Z-2.82
X16.708 Z-2.753
X16.716 Z-2.683
G0 Z2
X16.633 Y49.723
G1 Z-1 F333.3
Z-2.683
X16.641 Z-2.753
X16.664 Z-2.82
X16.702 Z-2.88
X16.752 Z-2.931
X16.813 Y49.722 Z-2.969
X16.88 Z-2.992
X16.95 Z-3
X17.268 Y49.72 F600
G3 X17.587 Y50.036 I0.002 J0.317
G2 X24.174 Y56.588 I6.587 J-0.036
X30.762 Y50 I0 J-6.588
G1 Y5
G2 X17.587 Y5 I-6.587 J0
G1 Y50
Y50.036
G3 X17.27 Y50.354 I-0.317 J0.001
G1 X16.953 Y50.355
X16.882 Z-2.992
X16.815 Z-2.969
X16.755 Z-2.931
X16.705 Y50.356 Z-2.88
X16.667 Z-2.82
X16.643 Z-2.753
X16.635 Z-2.683
G0 Z2
X16.713 Y50.353
G1 Z-1.5 F333.3
Z-2.883
X16.705 Z-2.953
X16.681 Z-3.02
X16.644 Z-3.08
X16.593 Z-3.131
X16.533 Z-3.169
X16.466 Y50.352 Z-3.192
X16.395 Z-3.2
X16.078 Y50.35 F600
G3 X15.762 Y50.031 I0.002 J-0.317
G1 Y50
Y5
G2 X2.587 Y5 I-6.587 J0
G1 Y50
G2 X15.762 Y50.031 I6.588 J0
G3 X16.081 Y49.715 I0.317 J0.002
G1 X16.398 Y49.717
X16.469 Z-3.192
X16.536 Y49.718 Z-3.169
X16.596 Z-3.131
X16.647 Z-3.08
X16.684 Z-3.02
X16.708 Z-2.953
X16.716 Z-2.883
G0 Z2
X16.633 Y49.723
G1 Z-1.5 F333.3
Z-2.883
X16.641 Z-2.953
X16.664 Z-3.02
X16.702 Z-3.08
X16.752 Z-3.131
X16.813 Y49.722 Z-3.169
X16.88 Z-3.192
X16.95 Z-3.2
X17.268 Y49.72 F600
G3 X17.587 Y50.036 I0.002 J0.317
G2 X24.174 Y56.588 I6.587 J-0.036
X30.762 Y50 I0 J-6.588
G1 Y5
G2 X17.587 Y5 I-6.587 J0
G1 Y50
Y50.036
G3 X17.27 Y50.354 I-0.317 J0.001
G1 X16.953 Y50.355
X16.882 Z-3.192
X16.815 Z-3.169
X16.755 Z-3.131
X16.705 Y50.356 Z-3.08
X16.667 Z-3.02
X16.643 Z-2.953
X16.635 Z-2.883
G0 Z2
X-28.287 Y47.853
G1 Z-0.5 F333.3
Z-2.183
X-28.295 Z-2.253
X-28.319 Z-2.32
X-28.356 Z-2.38
X-28.407 Z-2.431
X-28.467 Z-2.469
X-28.534 Y47.852 Z-2.492
X-28.605 Z-2.5
X-28.922 Y47.85 F600
G3 X-29.238 Y47.531 I0.002 J-0.317
G1 Y47.5
Y7.5
G2 X-42.413 Y7.5 I-6.587 J0
G1 Y47.5
G2 X-29.238 Y47.531 I6.587 J0
G3 X-28.919 Y47.215 I0.317 J0.002
G1 X-28.602 Y47.217
X-28.531 Z-2.492
X-28.464 Y47.218 Z-2.469
X-28.404 Z-2.431
X-28.353 Z-2.38
X-28.316 Z-2.32
X-28.292 Z-2.253
X-28.284 Z-2.183
G0 Z2
X-28.365 Y47.182
G1 Z-1 F333.3
Z-2.683
G18 G2 X-28.048 Z-3 I0.317 K0
G1 X-27.73 F600
G17 G3 X-27.413 Y47.5 I0 J0.318
G1 Y50
G2 X-14.238 Y50 I6.587 J0
G1 Y5
G2 X-27.413 Y5 I-6.588 J0
G1 Y47.5
G3 X-27.73 Y47.818 I-0.317 J0
G1 X-28.048
G18 G3 X-28.365 Z-2.683 I0 K0.318
G0 Z2
X-43.287 Y47.853
G1 Z-0.5 F333.3
Z-2.183
X-43.295 Z-2.253
X-43.319 Z-2.32
X-43.356 Z-2.38
X-43.407 Z-2.431
X-43.467 Z-2.469
X-43.534 Y47.852 Z-2.492
X-43.605 Z-2.5
X-43.922 Y47.85 F600
G17 G3 X-44.238 Y47.531 I0.002 J-0.317
G1 Y47.5
Y7.5
G2 X-57.413 Y7.5 I-6.588 J0
G1 Y47.5
G2 X-44.238 Y47.531 I6.587 J0
G3 X-43.919 Y47.215 I0.317 J0.002
G1 X-43.602 Y47.217
X-43.531 Z-2.492
X-43.464 Y47.218 Z-2.469
X-43.404 Z-2.431
X-43.353 Z-2.38
X-43.316 Z-2.32
X-43.292 Z-2.253
X-43.284 Z-2.183
G0 Z2
X-43.366 Y47.182
G1 Z-1 F333.3
Z-2.683
G18 G2 X-43.048 Z-3 I0.318 K0
G1 X-42.73 F600
G17 G3 X-42.413 Y47.5 I0 J0.318
G2 X-29.238 Y47.5 I6.587 J0
G1 Y7.5
G2 X-42.413 Y7.5 I-6.587 J0
G1 Y47.5
G3 X-42.73 Y47.818 I-0.318 J0
G1 X-43.048
G18 G3 X-43.366 Z-2.683 I0 K0.318
G0 Z2
X-43.287 Y47.853
G1 Z-1 F333.3
Z-2.683
X-43.295 Z-2.753
X-43.319 Z-2.82
X-43.356 Z-2.88
X-43.407 Z-2.931
X-43.467 Z-2.969
X-43.534 Y47.852 Z-2.992
X-43.605 Z-3
X-43.922 Y47.85 F600
G17 G3 X-44.238 Y47.531 I0.002 J-0.317
G1 Y47.5
Y7.5
G2 X-57.413 Y7.5 I-6.588 J0
G1 Y47.5
G2 X-44.238 Y47.531 I6.587 J0
G3 X-43.919 Y47.215 I0.317 J0.002
G1 X-43.602 Y47.217
X-43.531 Z-2.992
X-43.464 Y47.218 Z-2.969
X-43.404 Z-2.931
X-43.353 Z-2.88
X-43.316 Z-2.82
X-43.292 Z-2.753
X-43.284 Z-2.683
G0 Z2
X-43.366 Y47.182
G1 Z-1.5 F333.3
Z-2.883
G18 G2 X-43.048 Z-3.2 I0.318 K0
G1 X-42.73 F600
G17 G3 X-42.413 Y47.5 I0 J0.318
G2 X-29.238 Y47.5 I6.587 J0
G1 Y7.5
G2 X-42.413 Y7.5 I-6.587 J0
G1 Y47.5
G3 X-42.73 Y47.818 I-0.318 J0
G1 X-43.048
G18 G3 X-43.366 Z-2.883 I0 K0.318
G0 Z2
X-43.287 Y47.853
G1 Z-1.5 F333.3
Z-2.883
X-43.295 Z-2.953
X-43.319 Z-3.02
X-43.356 Z-3.08
X-43.407 Z-3.131
X-43.467 Z-3.169
X-43.534 Y47.852 Z-3.192
X-43.605 Z-3.2
X-43.922 Y47.85 F600
G17 G3 X-44.238 Y47.531 I0.002 J-0.317
G1 Y47.5
Y7.5
G2 X-57.413 Y7.5 I-6.588 J0
G1 Y47.5
G2 X-44.238 Y47.531 I6.587 J0
G3 X-43.919 Y47.215 I0.317 J0.002
G1 X-43.602 Y47.217
X-43.531 Z-3.192
X-43.464 Y47.218 Z-3.169
X-43.404 Z-3.131
X-43.353 Z-3.08
X-43.316 Z-3.02
X-43.292 Z-2.953
X-43.284 Z-2.883
G0 Z2
X-28.365 Y47.182
G1 Z-1.5 F333.3
Z-2.883
G18 G2 X-28.048 Z-3.2 I0.317 K0
G1 X-27.73 F600
G17 G3 X-27.413 Y47.5 I0 J0.318
G1 Y50
G2 X-14.238 Y50 I6.587 J0
G1 Y5
G2 X-27.413 Y5 I-6.588 J0
G1 Y47.5
G3 X-27.73 Y47.818 I-0.317 J0
G1 X-28.048
G18 G3 X-28.365 Z-2.883 I0 K0.318
G0 Z2
X-13.366 Y49.682
G1 Z-1.5 F333.3
Z-2.883
G2 X-13.048 Z-3.2 I0.318 K0
G1 X-12.731 F600
G17 G3 X-12.413 Y50 I0 J0.318
G2 X0.762 Y50 I6.588 J0
G1 Y5
Y4.964
G2 X-5.825 Y-1.588 I-6.587 J0.036
X-12.413 Y5 I0 J6.588
G1 Y50
G3 X-12.731 Y50.318 I-0.318 J0
G1 X-13.048
G18 G3 X-13.366 Z-2.883 I0 K0.318
G0 Z5
G17
G28 G91 Z0
G90
G28 G91 X0 Y0
G90
M5
M30
