(1DOF)
(T1  D=3.175 CR=0 - ZMIN=-3.2 - flat end mill)
G90 G94
G17
G21
G28 G91 Z0
G90

(Drill1)
S20000 M3
G54
M8
G0 X20.5 Y-50
Z15
Z5
G1 Z-3.2 F50
G0 Z5
X5.5 Y-30
G1 Z-3.2 F50
G0 Z5
X-9.5 Y-50
G1 Z-3.2 F50
G0 Z5
X-24.5 Y-30
G1 Z-3.2 F50
G0 Z5
X-39.5 Y-50
G1 Z-3.2 F50
G0 Z5
X-54.5 Y30
G1 Z-3.2 F50
G0 Z5
X-39.5 Y50
G1 Z-3.2 F50
G0 Z5
X-24.5 Y30
G1 Z-3.2 F50
G0 Z5
X-9.5 Y50
G1 Z-3.2 F50
G0 Z5
X5.5 Y30
G1 Z-3.2 F50
G0 Z5
X20.5 Y50
G1 Z-3.2 F50
G0 Z5
X35.5 Y30
G1 Z-3.2 F50
G0 Z5
Z15
M9
G28 G91 Z0
G90
G28 G91 X0 Y0
G90
M5
M30
