(1DOF)
(T1  D=3.175 CR=0 - ZMIN=-3.2 - flat end mill)
G90 G94
G17
G21
G28 G91 Z0
G90

(Drill1 2)
S20000 M3
G54
M8
G0 X24.175 Y50
Z5
Z2
G1 Z-3.2 F50
G0 Z2
X9.175
G1 Z-3.2 F50
G0 Z2
X-5.825
G1 Z-3.2 F50
G0 Z2
X-20.825
G1 Z-3.2 F50
G0 Z2
X-35.825 Y37.5
G1 Z-3.2 F50
G0 Z2
Y47.5
G1 Z-3.2 F50
G0 Z2
X-50.825
G1 Z-3.2 F50
G0 Z2
Y37.5
G1 Z-3.2 F50
G0 Z2
Y7.5
G1 Z-3.2 F50
G0 Z2
Y17.5
G1 Z-3.2 F50
G0 Z2
X-35.825
G1 Z-3.2 F50
G0 Z2
Y7.5
G1 Z-3.2 F50
G0 Z2
X-20.825 Y5
G1 Z-3.2 F50
G0 Z2
X-5.825
G1 Z-3.2 F50
G0 Z2
X9.175
G1 Z-3.2 F50
G0 Z2
X24.175
G1 Z-3.2 F50
G0 Z2
Z5
M9
G28 G91 Z0
G90
G28 G91 X0 Y0
G90
M5
M30
