(1DOF)
(T1  D=3.175 CR=0 - ZMIN=-3.2 - flat end mill)
G90 G94
G17
G21
G28 G91 Z0
G90

(Drill1 2)
S20000 M3
G54
M8
G0 X24.175 Y-52.586
Z15
Z5
G1 Z-3.2 F50
G0 Z5
X9.175
G1 Z-3.2 F50
G0 Z5
X-5.825
G1 Z-3.2 F50
G0 Z5
X-20.825
G1 Z-3.2 F50
G0 Z5
X-35.825 Y-65.086
G1 Z-3.2 F50
G0 Z5
Y-55.086
G1 Z-3.2 F50
G0 Z5
X-50.825
G1 Z-3.2 F50
G0 Z5
Y-65.086
G1 Z-3.2 F50
G0 Z5
Y-95.086
G1 Z-3.2 F50
G0 Z5
Y-85.086
G1 Z-3.2 F50
G0 Z5
X-35.825
G1 Z-3.2 F50
G0 Z5
Y-95.086
G1 Z-3.2 F50
G0 Z5
X-20.825 Y-97.586
G1 Z-3.2 F50
G0 Z5
X-5.825
G1 Z-3.2 F50
G0 Z5
X9.175
G1 Z-3.2 F50
G0 Z5
X24.175
G1 Z-3.2 F50
G0 Z5
Z15
M9
G28 G91 Z0
G90
G28 G91 X0 Y0
G90
M5
M30
