%
(1001)
(T1  D=1.587 CR=0 - ZMIN=-3.2 - flat end mill)
G90 G94
G17
G21
G28 G91 Z0
G90

(2D Contour2)
M9
T1 M6
S20000 M3
G54
G0 X0.081 Y-51.535
Z4
Z2
G1 Z-0.841 F333.3
X0.074 Y-51.533 Z-0.89
X0.052 Y-51.527 Z-0.935
X0.018 Y-51.518 Z-0.97
X-0.024 Y-51.506 Z-0.992
X-0.072 Y-51.493 Z-1
X-0.225 Y-51.45 F1000
X-0.274 Y-51.444
X-0.323 Y-51.454
X-0.366 Y-51.478
X-0.4 Y-51.515
X-0.42 Y-51.56
G2 X-11.794 Y-50 I-5.58 J1.56
G1 Y50
G2 X-0.206 I5.794
G1 Y-50
G2 X-0.42 Y-51.56 I-5.794
G1 X-0.426 Y-51.609
X-0.416 Y-51.658
X-0.392 Y-51.701
X-0.355 Y-51.735
X-0.31 Y-51.756
X-0.157 Y-51.798
X-0.11 Y-51.812 Z-0.992
X-0.067 Y-51.824 Z-0.97
X-0.034 Y-51.833 Z-0.935
X-0.012 Y-51.839 Z-0.89
X-0.004 Y-51.841 Z-0.841
G0 Z2
X-0.09 Y51.499
G1 Z-0.841 F333.3
X-0.083 Y51.497 Z-0.89
X-0.061 Y51.491 Z-0.935
X-0.027 Y51.482 Z-0.97
X0.016 Y51.47 Z-0.992
X0.063 Y51.457 Z-1
X0.216 Y51.415 F1000
X0.265 Y51.41
X0.314 Y51.42
X0.357 Y51.445
X0.391 Y51.482
X0.411 Y51.527
G2 X11.794 Y50 I5.589 J-1.527
G1 Y-50
G2 X0.206 I-5.794
G1 Y50
G2 X0.411 Y51.527 I5.794
G1 X0.416 Y51.576
X0.406 Y51.625
X0.382 Y51.668
X0.345 Y51.701
X0.3 Y51.722
X0.147 Y51.764
X0.099 Y51.777 Z-0.992
X0.057 Y51.788 Z-0.97
X0.023 Y51.797 Z-0.935
X0.001 Y51.803 Z-0.89
X-0.007 Y51.805 Z-0.841
G0 Z2
X0.09 Y-51.499
G1 Z1 F333.3
Z-1.841
X0.083 Y-51.497 Z-1.89
X0.061 Y-51.491 Z-1.935
X0.027 Y-51.482 Z-1.97
X-0.016 Y-51.47 Z-1.992
X-0.063 Y-51.457 Z-2
X-0.216 Y-51.415 F1000
X-0.265 Y-51.41
X-0.314 Y-51.42
X-0.357 Y-51.445
X-0.391 Y-51.482
X-0.411 Y-51.527
G2 X-11.794 Y-50 I-5.589 J1.527
G1 Y50
G2 X-0.206 I5.794
G1 Y-50
G2 X-0.411 Y-51.527 I-5.794
G1 X-0.416 Y-51.576
X-0.406 Y-51.625
X-0.382 Y-51.668
X-0.345 Y-51.701
X-0.3 Y-51.722
X-0.147 Y-51.764
X-0.099 Y-51.777 Z-1.992
X-0.057 Y-51.788 Z-1.97
X-0.023 Y-51.797 Z-1.935
X-0.001 Y-51.803 Z-1.89
X0.007 Y-51.805 Z-1.841
G0 Z2
X-0.09 Y51.499
G1 Z1 F333.3
Z-1.841
X-0.083 Y51.497 Z-1.89
X-0.061 Y51.491 Z-1.935
X-0.027 Y51.482 Z-1.97
X0.016 Y51.47 Z-1.992
X0.063 Y51.457 Z-2
X0.216 Y51.415 F1000
X0.265 Y51.41
X0.314 Y51.42
X0.357 Y51.445
X0.391 Y51.482
X0.411 Y51.527
G2 X11.794 Y50 I5.589 J-1.527
G1 Y-50
G2 X0.206 I-5.794
G1 Y50
G2 X0.411 Y51.527 I5.794
G1 X0.416 Y51.576
X0.406 Y51.625
X0.382 Y51.668
X0.345 Y51.701
X0.3 Y51.722
X0.147 Y51.764
X0.099 Y51.777 Z-1.992
X0.057 Y51.788 Z-1.97
X0.023 Y51.797 Z-1.935
X0.001 Y51.803 Z-1.89
X-0.007 Y51.805 Z-1.841
G0 Z2
X0.09 Y-51.499
G1 Z0 F333.3
Z-2.841
X0.083 Y-51.497 Z-2.89
X0.061 Y-51.491 Z-2.935
X0.027 Y-51.482 Z-2.97
X-0.016 Y-51.47 Z-2.992
X-0.063 Y-51.457 Z-3
X-0.216 Y-51.415 F1000
X-0.265 Y-51.41
X-0.314 Y-51.42
X-0.357 Y-51.445
X-0.391 Y-51.482
X-0.411 Y-51.527
G2 X-11.794 Y-50 I-5.589 J1.527
G1 Y50
G2 X-0.206 I5.794
G1 Y-50
G2 X-0.411 Y-51.527 I-5.794
G1 X-0.416 Y-51.576
X-0.406 Y-51.625
X-0.382 Y-51.668
X-0.345 Y-51.701
X-0.3 Y-51.722
X-0.147 Y-51.764
X-0.099 Y-51.777 Z-2.992
X-0.057 Y-51.788 Z-2.97
X-0.023 Y-51.797 Z-2.935
X-0.001 Y-51.803 Z-2.89
X0.007 Y-51.805 Z-2.841
G0 Z2
X-0.09 Y51.499
G1 Z0 F333.3
Z-2.841
X-0.083 Y51.497 Z-2.89
X-0.061 Y51.491 Z-2.935
X-0.027 Y51.482 Z-2.97
X0.016 Y51.47 Z-2.992
X0.063 Y51.457 Z-3
X0.216 Y51.415 F1000
X0.265 Y51.41
X0.314 Y51.42
X0.357 Y51.445
X0.391 Y51.482
X0.411 Y51.527
G2 X11.794 Y50 I5.589 J-1.527
G1 Y-50
G2 X0.206 I-5.794
G1 Y50
G2 X0.411 Y51.527 I5.794
G1 X0.416 Y51.576
X0.406 Y51.625
X0.382 Y51.668
X0.345 Y51.701
X0.3 Y51.722
X0.147 Y51.764
X0.099 Y51.777 Z-2.992
X0.057 Y51.788 Z-2.97
X0.023 Y51.797 Z-2.935
X0.001 Y51.803 Z-2.89
X-0.007 Y51.805 Z-2.841
G0 Z2
X0.09 Y-51.499
G1 Z-1 F333.3
Z-3.041
X0.083 Y-51.497 Z-3.09
X0.061 Y-51.491 Z-3.135
X0.027 Y-51.482 Z-3.17
X-0.016 Y-51.47 Z-3.192
X-0.063 Y-51.457 Z-3.2
X-0.216 Y-51.415 F1000
X-0.265 Y-51.41
X-0.314 Y-51.42
X-0.357 Y-51.445
X-0.391 Y-51.482
X-0.411 Y-51.527
G2 X-11.794 Y-50 I-5.589 J1.527
G1 Y50
G2 X-0.206 I5.794
G1 Y-50
G2 X-0.411 Y-51.527 I-5.794
G1 X-0.416 Y-51.576
X-0.406 Y-51.625
X-0.382 Y-51.668
X-0.345 Y-51.701
X-0.3 Y-51.722
X-0.147 Y-51.764
X-0.099 Y-51.777 Z-3.192
X-0.057 Y-51.788 Z-3.17
X-0.023 Y-51.797 Z-3.135
X-0.001 Y-51.803 Z-3.09
X0.007 Y-51.805 Z-3.041
G0 Z2
X-0.09 Y51.499
G1 Z-1 F333.3
Z-3.041
X-0.083 Y51.497 Z-3.09
X-0.061 Y51.491 Z-3.135
X-0.027 Y51.482 Z-3.17
X0.016 Y51.47 Z-3.192
X0.063 Y51.457 Z-3.2
X0.216 Y51.415 F1000
X0.265 Y51.41
X0.314 Y51.42
X0.357 Y51.445
X0.391 Y51.482
X0.411 Y51.527
G2 X11.794 Y50 I5.589 J-1.527
G1 Y-50
G2 X0.206 I-5.794
G1 Y50
G2 X0.411 Y51.527 I5.794
G1 X0.416 Y51.576
X0.406 Y51.625
X0.382 Y51.668
X0.345 Y51.701
X0.3 Y51.722
X0.147 Y51.764
X0.099 Y51.777 Z-3.192
X0.057 Y51.788 Z-3.17
X0.023 Y51.797 Z-3.135
X0.001 Y51.803 Z-3.09
X-0.007 Y51.805 Z-3.041
G0 Z4
G28 G91 Z0
G90
G28 G91 X0 Y0
G90
M30
%
