%
(1001)
(T1  D=1.587 CR=0 - ZMIN=-3.2 - flat end mill)
G90 G94
G17
G21
G28 G91 Z0
G90

(Circular2)
M9
T1 M6
S20000 M3
G54
G0 X5.897 Y-49.865
Z4
Z-0.615
G1 Z-2.456 F1000
Y-49.873 Z-2.505
Y-49.895 Z-2.55
Y-49.93 Z-2.585
Y-49.975 Z-2.607
Y-50.024 Z-2.615
Y-50.103
X5.905 Y-50.143
X5.927 Y-50.176
X5.961 Y-50.198
X6 Y-50.206
G3 Y-49.794 J0.206
Y-50.206 J-0.206
G1 X6.039 Y-50.198
X6.073 Y-50.176
X6.095 Y-50.143
X6.103 Y-50.103
Y-50.024
Y-49.975 Z-2.607
Y-49.93 Z-2.585
Y-49.895 Z-2.55
Y-49.873 Z-2.505
Y-49.865 Z-2.456
G0 Z2
X5.897
Z-1.2
G1 Z-3.041 F1000
Y-49.873 Z-3.09
Y-49.895 Z-3.135
Y-49.93 Z-3.17
Y-49.975 Z-3.192
Y-50.024 Z-3.2
Y-50.103
X5.905 Y-50.143
X5.927 Y-50.176
X5.961 Y-50.198
X6 Y-50.206
G3 Y-49.794 J0.206
Y-50.206 J-0.206
G1 X6.039 Y-50.198
X6.073 Y-50.176
X6.095 Y-50.143
X6.103 Y-50.103
Y-50.024
Y-49.975 Z-3.192
Y-49.93 Z-3.17
Y-49.895 Z-3.135
Y-49.873 Z-3.09
Y-49.865 Z-3.041
G0 Z2
X-6.103
Z-0.615
G1 Z-2.456 F1000
Y-49.873 Z-2.505
Y-49.895 Z-2.55
Y-49.93 Z-2.585
Y-49.975 Z-2.607
Y-50.024 Z-2.615
Y-50.103
X-6.095 Y-50.143
X-6.073 Y-50.176
X-6.039 Y-50.198
X-6 Y-50.206
G3 Y-49.794 J0.206
Y-50.206 J-0.206
G1 X-5.961 Y-50.198
X-5.927 Y-50.176
X-5.905 Y-50.143
X-5.897 Y-50.103
Y-50.024
Y-49.975 Z-2.607
Y-49.93 Z-2.585
Y-49.895 Z-2.55
Y-49.873 Z-2.505
Y-49.865 Z-2.456
G0 Z2
X-6.103
Z-1.2
G1 Z-3.041 F1000
Y-49.873 Z-3.09
Y-49.895 Z-3.135
Y-49.93 Z-3.17
Y-49.975 Z-3.192
Y-50.024 Z-3.2
Y-50.103
X-6.095 Y-50.143
X-6.073 Y-50.176
X-6.039 Y-50.198
X-6 Y-50.206
G3 Y-49.794 J0.206
Y-50.206 J-0.206
G1 X-5.961 Y-50.198
X-5.927 Y-50.176
X-5.905 Y-50.143
X-5.897 Y-50.103
Y-50.024
Y-49.975 Z-3.192
Y-49.93 Z-3.17
Y-49.895 Z-3.135
Y-49.873 Z-3.09
Y-49.865 Z-3.041
G0 Z2
X-6.103 Y50.135
Z-0.615
G1 Z-2.456 F1000
Y50.127 Z-2.505
Y50.105 Z-2.55
Y50.07 Z-2.585
Y50.025 Z-2.607
Y49.976 Z-2.615
Y49.897
X-6.095 Y49.857
X-6.073 Y49.824
X-6.039 Y49.802
X-6 Y49.794
G3 Y50.206 J0.206
Y49.794 J-0.206
G1 X-5.961 Y49.802
X-5.927 Y49.824
X-5.905 Y49.857
X-5.897 Y49.897
Y49.976
Y50.025 Z-2.607
Y50.07 Z-2.585
Y50.105 Z-2.55
Y50.127 Z-2.505
Y50.135 Z-2.456
G0 Z2
X-6.103
Z-1.2
G1 Z-3.041 F1000
Y50.127 Z-3.09
Y50.105 Z-3.135
Y50.07 Z-3.17
Y50.025 Z-3.192
Y49.976 Z-3.2
Y49.897
X-6.095 Y49.857
X-6.073 Y49.824
X-6.039 Y49.802
X-6 Y49.794
G3 Y50.206 J0.206
Y49.794 J-0.206
G1 X-5.961 Y49.802
X-5.927 Y49.824
X-5.905 Y49.857
X-5.897 Y49.897
Y49.976
Y50.025 Z-3.192
Y50.07 Z-3.17
Y50.105 Z-3.135
Y50.127 Z-3.09
Y50.135 Z-3.041
G0 Z2
X5.897
Z-0.615
G1 Z-2.456 F1000
Y50.127 Z-2.505
Y50.105 Z-2.55
Y50.07 Z-2.585
Y50.025 Z-2.607
Y49.976 Z-2.615
Y49.897
X5.905 Y49.857
X5.927 Y49.824
X5.961 Y49.802
X6 Y49.794
G3 Y50.206 J0.206
Y49.794 J-0.206
G1 X6.039 Y49.802
X6.073 Y49.824
X6.095 Y49.857
X6.103 Y49.897
Y49.976
Y50.025 Z-2.607
Y50.07 Z-2.585
Y50.105 Z-2.55
Y50.127 Z-2.505
Y50.135 Z-2.456
G0 Z2
X5.897
Z-1.2
G1 Z-3.041 F1000
Y50.127 Z-3.09
Y50.105 Z-3.135
Y50.07 Z-3.17
Y50.025 Z-3.192
Y49.976 Z-3.2
Y49.897
X5.905 Y49.857
X5.927 Y49.824
X5.961 Y49.802
X6 Y49.794
G3 Y50.206 J0.206
Y49.794 J-0.206
G1 X6.039 Y49.802
X6.073 Y49.824
X6.095 Y49.857
X6.103 Y49.897
Y49.976
Y50.025 Z-3.192
Y50.07 Z-3.17
Y50.105 Z-3.135
Y50.127 Z-3.09
Y50.135 Z-3.041
G0 Z4
G28 G91 Z0
G90
G28 G91 X0 Y0
G90
M30
%
