(1001)
(T1  D=1.587 CR=0 - ZMIN=-2.23 - flat end mill)
G90 G94
G17
G21
G28 G91 Z0
G90

(2D Pocket1)
M9
S20000 M3
G54
G0 X-0.517 Y47.384
Z8
Z3
G1 Z-0.041 F1000
Y47.376 Z-0.09
Y47.354 Z-0.135
Y47.319 Z-0.17
Y47.275 Z-0.192
Y47.225 Z-0.2
Y45.233
Y5.803
G3 X-0.312 Y5.505 I0.319
X0.103 Y5.79 I0.11 J0.285
G1 X0.094 Y25.326
X-0.211 Y45.233
G3 X-0.447 Y45.526 I-0.305 J-0.005
G1 X-1.363 Y45.739
G3 X-1.738 Y45.442 I-0.069 J-0.297
G1 Y4.582
G3 X-1.418 Y4.262 I0.319
G1 X-0.31
G3 X-0.005 Y4.585 J0.305
G1 X-1.127 Y24.206
X-1.433 Y45.442
G3 X-1.739 Y45.743 I-0.305 J-0.004
G1 X-2.655 Y45.739
G3 X-2.959 Y45.434 I0.001 J-0.305
G1 Y3.36
G3 X-2.64 Y3.041 I0.319
G1 X-0.313
G3 X-0.01 Y3.383 J0.305
G1 X-2.348 Y22.983
X-2.654 Y45.434
G3 X-2.956 Y45.735 I-0.305 J-0.004
G1 X-3.872 Y45.743
G3 X-4.18 Y45.437 I-0.003 J-0.305
G1 Y2.139
G3 X-3.861 Y1.82 I0.319
G1 X-0.317
X0.476
X0.525 Z-0.192
X0.57 Z-0.17
X0.605 Z-0.135
X0.627 Z-0.09
X0.635 Z-0.041
G0 Z3
X-11.483 Y-47.283
G1 Z-0.041 F1000
Y-47.275 Z-0.09
Y-47.252 Z-0.135
Y-47.217 Z-0.17
Y-47.173 Z-0.192
Y-47.124 Z-0.2
Y-45.233
Y-5.803
G3 X-11.688 Y-5.505 I-0.319
X-12.103 Y-5.79 I-0.11 J-0.285
G1 X-12.094 Y-25.326
X-11.789 Y-45.233
G3 X-11.553 Y-45.526 I0.305 J0.005
G1 X-10.637 Y-45.739
G3 X-10.262 Y-45.442 I0.069 J0.297
G1 Y-4.582
G3 X-10.582 Y-4.262 I-0.319
G1 X-11.69
G3 X-11.995 Y-4.585 J-0.305
G1 X-10.873 Y-24.206
X-10.567 Y-45.442
G3 X-10.261 Y-45.743 I0.305 J0.004
G1 X-9.345 Y-45.739
G3 X-9.041 Y-45.434 I-0.001 J0.305
G1 Y-3.36
G3 X-9.36 Y-3.041 I-0.319
G1 X-11.687
G3 X-11.99 Y-3.383 J-0.305
G1 X-9.652 Y-22.983
X-9.346 Y-45.434
G3 X-9.044 Y-45.735 I0.305 J0.004
G1 X-8.128 Y-45.743
G3 X-7.82 Y-45.437 I0.003 J0.305
G1 Y-2.139
G3 X-8.139 Y-1.82 I-0.319
G1 X-11.683
G3 X-11.983 Y-2.18 J-0.305
G1 X-8.435 Y-21.715
X-8.43 Y-21.766
X-8.125 Y-45.437
G3 X-7.822 Y-45.739 I0.305 J0.004
G1 X-6.901 Y-45.745
G3 X-6.594 Y-45.44 I0.002 J0.305
G1 Y-1
G2 X-6 Y-0.406 I0.594
G3 X-5.594 Y0 J0.406
G2 X-5 Y0.594 I0.594
G1 X-1
X-0.313
G3 X-0.114 Y0.816 J0.2
G1 X-5.007 Y45.462
G3 X-5.406 Y45.44 I-0.199 J-0.022
G1 Y1
G2 X-6 Y0.406 I-0.594
G3 X-6.406 Y0 J-0.406
G2 X-7 Y-0.594 I-0.594
G1 X-11
X-11.687
G3 X-12.441 Y-1.338 Z-0.205 J-0.754 F333.3
G1 X-12.991 Y-45.224 Z-0.39
G3 X-12.242 Y-45.987 Z-0.395 I0.754 J-0.009
X-11.483 Y-45.233 Z-0.4 I0.005 J0.754
G1 Y-5.803 F1000
G3 X-11.688 Y-5.505 I-0.319
X-12.103 Y-5.79 I-0.11 J-0.285
G1 X-12.094 Y-25.326
X-11.789 Y-45.233
G3 X-11.553 Y-45.526 I0.305 J0.005
G1 X-10.637 Y-45.739
G3 X-10.262 Y-45.442 I0.069 J0.297
G1 Y-4.582
G3 X-10.582 Y-4.262 I-0.319
G1 X-11.69
G3 X-11.995 Y-4.585 J-0.305
G1 X-10.873 Y-24.206
X-10.567 Y-45.442
G3 X-10.261 Y-45.743 I0.305 J0.004
G1 X-9.345 Y-45.739
G3 X-9.041 Y-45.434 I-0.001 J0.305
G1 Y-3.36
G3 X-9.36 Y-3.041 I-0.319
G1 X-11.687
G3 X-11.99 Y-3.383 J-0.305
G1 X-9.652 Y-22.983
X-9.346 Y-45.434
G3 X-9.044 Y-45.735 I0.305 J0.004
G1 X-8.128 Y-45.743
G3 X-7.82 Y-45.437 I0.003 J0.305
G1 Y-2.139
G3 X-8.139 Y-1.82 I-0.319
G1 X-11.683
X-12.476
X-12.525 Z-0.392
X-12.57 Z-0.37
X-12.605 Z-0.335
X-12.627 Z-0.29
X-12.635 Z-0.241
G0 Z3
X-0.517 Y47.384
G1 Z-0.241 F1000
Y47.376 Z-0.29
Y47.354 Z-0.335
Y47.319 Z-0.37
Y47.275 Z-0.392
Y47.225 Z-0.4
Y45.233
Y5.803
G3 X-0.312 Y5.505 I0.319
X0.103 Y5.79 I0.11 J0.285
G1 X0.094 Y25.326
X-0.211 Y45.233
G3 X-0.447 Y45.526 I-0.305 J-0.005
G1 X-1.363 Y45.739
G3 X-1.738 Y45.442 I-0.069 J-0.297
G1 Y4.582
G3 X-1.418 Y4.262 I0.319
G1 X-0.31
G3 X-0.005 Y4.585 J0.305
G1 X-1.127 Y24.206
X-1.433 Y45.442
G3 X-1.739 Y45.743 I-0.305 J-0.004
G1 X-2.655 Y45.739
G3 X-2.959 Y45.434 I0.001 J-0.305
G1 Y3.36
G3 X-2.64 Y3.041 I0.319
G1 X-0.313
G3 X-0.01 Y3.383 J0.305
G1 X-2.348 Y22.983
X-2.654 Y45.434
G3 X-2.956 Y45.735 I-0.305 J-0.004
G1 X-3.872 Y45.743
G3 X-4.18 Y45.437 I-0.003 J-0.305
G1 Y2.139
G3 X-3.861 Y1.82 I0.319
G1 X-0.317
G3 X-0.017 Y2.18 J0.305
G1 X-3.565 Y21.715
X-3.57 Y21.766
X-3.875 Y45.437
G3 X-4.178 Y45.739 I-0.305 J-0.004
G1 X-5.099 Y45.745
G3 X-5.406 Y45.44 I-0.002 J-0.305
G1 Y1
G2 X-6 Y0.406 I-0.594
G3 X-6.406 Y0 J-0.406
G2 X-7 Y-0.594 I-0.594
G1 X-11
X-11.687
G3 X-11.886 Y-0.816 J-0.2
G1 X-6.993 Y-45.462
G3 X-6.594 Y-45.44 I0.199 J0.022
G1 Y-1
G2 X-6 Y-0.406 I0.594
G3 X-5.594 Y0 J0.406
G2 X-5 Y0.594 I0.594
G1 X-1
X-0.313
X-0.288 Y0.596
X0.496 Y0.72
X0.544 Y0.728 Z-0.392
X0.588 Y0.734 Z-0.37
X0.623 Y0.74 Z-0.335
X0.645 Y0.743 Z-0.29
X0.653 Y0.745 Z-0.241
G0 Z8
X0.517 Y-47.283
Z3
G1 Z-0.041 F1000
Y-47.275 Z-0.09
Y-47.252 Z-0.135
Y-47.217 Z-0.17
Y-47.173 Z-0.192
Y-47.124 Z-0.2
Y-45.233
Y-5.803
G3 X0.312 Y-5.505 I-0.319
X-0.103 Y-5.79 I-0.11 J-0.285
G1 X-0.094 Y-25.326
X0.211 Y-45.233
G3 X0.447 Y-45.526 I0.305 J0.005
G1 X1.363 Y-45.739
G3 X1.738 Y-45.442 I0.069 J0.297
G1 Y-4.582
G3 X1.418 Y-4.262 I-0.319
G1 X0.31
G3 X0.005 Y-4.585 J-0.305
G1 X1.127 Y-24.206
X1.433 Y-45.442
G3 X1.739 Y-45.743 I0.305 J0.004
G1 X2.655 Y-45.739
G3 X2.959 Y-45.434 I-0.001 J0.305
G1 Y-3.36
G3 X2.64 Y-3.041 I-0.319
G1 X0.313
G3 X0.01 Y-3.383 J-0.305
G1 X2.348 Y-22.983
X2.654 Y-45.434
G3 X2.956 Y-45.735 I0.305 J0.004
G1 X3.872 Y-45.743
G3 X4.18 Y-45.437 I0.003 J0.305
G1 Y-2.139
G3 X3.861 Y-1.82 I-0.319
G1 X0.317
X-0.476
X-0.525 Z-0.192
X-0.57 Z-0.17
X-0.605 Z-0.135
X-0.627 Z-0.09
X-0.635 Z-0.041
G0 Z3
X11.483 Y47.384
G1 Z-0.041 F1000
Y47.376 Z-0.09
Y47.354 Z-0.135
Y47.319 Z-0.17
Y47.275 Z-0.192
Y47.225 Z-0.2
Y45.233
Y5.803
G3 X11.688 Y5.505 I0.319
X12.103 Y5.79 I0.11 J0.285
G1 X12.094 Y25.326
X11.789 Y45.233
G3 X11.553 Y45.526 I-0.305 J-0.005
G1 X10.637 Y45.739
G3 X10.262 Y45.442 I-0.069 J-0.297
G1 Y4.582
G3 X10.582 Y4.262 I0.319
G1 X11.69
G3 X11.995 Y4.585 J0.305
G1 X10.873 Y24.206
X10.567 Y45.442
G3 X10.261 Y45.743 I-0.305 J-0.004
G1 X9.345 Y45.739
G3 X9.041 Y45.434 I0.001 J-0.305
G1 Y3.36
G3 X9.36 Y3.041 I0.319
G1 X11.687
G3 X11.99 Y3.383 J0.305
G1 X9.652 Y22.983
X9.346 Y45.434
G3 X9.044 Y45.735 I-0.305 J-0.004
G1 X8.128 Y45.743
G3 X7.82 Y45.437 I-0.003 J-0.305
G1 Y2.139
G3 X8.139 Y1.82 I0.319
G1 X11.683
G3 X11.983 Y2.18 J0.305
G1 X8.435 Y21.715
X8.43 Y21.766
X8.125 Y45.437
G3 X7.822 Y45.739 I-0.305 J-0.004
G1 X6.901 Y45.745
G3 X6.594 Y45.44 I-0.002 J-0.305
G1 Y1
G2 X6 Y0.406 I-0.594
G3 X5.594 Y0 J-0.406
G2 X5 Y-0.594 I-0.594
G1 X1
X0.313
G3 X0.114 Y-0.816 J-0.2
G1 X5.007 Y-45.462
G3 X5.406 Y-45.44 I0.199 J0.022
G1 Y-1
G2 X6 Y-0.406 I0.594
G3 X6.406 Y0 J0.406
G2 X7 Y0.594 I0.594
G1 X11
X11.687
G3 X12.441 Y1.338 Z-0.205 J0.754 F333.3
G1 X12.991 Y45.224 Z-0.39
G3 X12.242 Y45.987 Z-0.395 I-0.754 J0.009
X11.483 Y45.233 Z-0.4 I-0.005 J-0.754
G1 Y5.803 F1000
G3 X11.688 Y5.505 I0.319
X12.103 Y5.79 I0.11 J0.285
G1 X12.094 Y25.326
X11.789 Y45.233
G3 X11.553 Y45.526 I-0.305 J-0.005
G1 X10.637 Y45.739
G3 X10.262 Y45.442 I-0.069 J-0.297
G1 Y4.582
G3 X10.582 Y4.262 I0.319
G1 X11.69
G3 X11.995 Y4.585 J0.305
G1 X10.873 Y24.206
X10.567 Y45.442
G3 X10.261 Y45.743 I-0.305 J-0.004
G1 X9.345 Y45.739
G3 X9.041 Y45.434 I0.001 J-0.305
G1 Y3.36
G3 X9.36 Y3.041 I0.319
G1 X11.687
G3 X11.99 Y3.383 J0.305
G1 X9.652 Y22.983
X9.346 Y45.434
G3 X9.044 Y45.735 I-0.305 J-0.004
G1 X8.128 Y45.743
G3 X7.82 Y45.437 I-0.003 J-0.305
G1 Y2.139
G3 X8.139 Y1.82 I0.319
G1 X11.683
X12.476
X12.525 Z-0.392
X12.57 Z-0.37
X12.605 Z-0.335
X12.627 Z-0.29
X12.635 Z-0.241
G0 Z3
X0.517 Y-47.283
G1 Z-0.241 F1000
Y-47.275 Z-0.29
Y-47.252 Z-0.335
Y-47.217 Z-0.37
Y-47.173 Z-0.392
Y-47.124 Z-0.4
Y-45.233
Y-5.803
G3 X0.312 Y-5.505 I-0.319
X-0.103 Y-5.79 I-0.11 J-0.285
G1 X-0.094 Y-25.326
X0.211 Y-45.233
G3 X0.447 Y-45.526 I0.305 J0.005
G1 X1.363 Y-45.739
G3 X1.738 Y-45.442 I0.069 J0.297
G1 Y-4.582
G3 X1.418 Y-4.262 I-0.319
G1 X0.31
G3 X0.005 Y-4.585 J-0.305
G1 X1.127 Y-24.206
X1.433 Y-45.442
G3 X1.739 Y-45.743 I0.305 J0.004
G1 X2.655 Y-45.739
G3 X2.959 Y-45.434 I-0.001 J0.305
G1 Y-3.36
G3 X2.64 Y-3.041 I-0.319
G1 X0.313
G3 X0.01 Y-3.383 J-0.305
G1 X2.348 Y-22.983
X2.654 Y-45.434
G3 X2.956 Y-45.735 I0.305 J0.004
G1 X3.872 Y-45.743
G3 X4.18 Y-45.437 I0.003 J0.305
G1 Y-2.139
G3 X3.861 Y-1.82 I-0.319
G1 X0.317
G3 X0.017 Y-2.18 J-0.305
G1 X3.565 Y-21.715
X3.57 Y-21.766
X3.875 Y-45.437
G3 X4.178 Y-45.739 I0.305 J0.004
G1 X5.099 Y-45.745
G3 X5.406 Y-45.44 I0.002 J0.305
G1 Y-1
G2 X6 Y-0.406 I0.594
G3 X6.406 Y0 J0.406
G2 X7 Y0.594 I0.594
G1 X11
X11.687
G3 X11.886 Y0.816 J0.2
G1 X6.993 Y45.462
G3 X6.594 Y45.44 I-0.199 J-0.022
G1 Y1
G2 X6 Y0.406 I-0.594
G3 X5.594 Y0 J-0.406
G2 X5 Y-0.594 I-0.594
G1 X1
X0.313
X0.288 Y-0.596
X-0.496 Y-0.72
X-0.544 Y-0.728 Z-0.392
X-0.588 Y-0.734 Z-0.37
X-0.623 Y-0.74 Z-0.335
X-0.645 Y-0.743 Z-0.29
X-0.653 Y-0.745 Z-0.241
G0 Z8
X-11.72 Y55.118
Z3
G1 Z-0.841 F1000
X-11.712 Z-0.89
X-11.69 Z-0.935
X-11.655 Z-0.97
X-11.61 Z-0.992
X-11.561 Z-1
X-8.405
X-3.596
G3 Y55.728 J0.305
G1 X-6
X-8.405 Y55.423
X-8.458 Y55.412
X-8.507 Y55.391
X-10.273 Y54.473
G3 X-10.132 Y53.897 I0.141 J-0.271
G1 X-1.876
G3 Y54.507 J0.305
G1 X-6.004
X-10.132 Y54.202
X-10.187 Y54.193
X-10.239 Y54.174
X-10.286 Y54.147
X-10.328 Y54.111
X-11.222 Y53.194
G3 X-11.004 Y52.676 I0.219 J-0.213
G1 X-1
G3 Y53.286 J0.305
G1 X-6.002
X-11.004 Y52.981
G3 X-11.251 Y52.826 I0.019 J-0.305
G1 X-11.768 Y51.91
G3 X-11.502 Y51.454 I0.266 J-0.15
G1 X-0.498
G3 Y52.065 J0.305
G1 X-6
X-11.502 Y51.76
G3 X-11.785 Y51.513 I0.017 J-0.305
G1 X-11.962 Y50.597
G3 X-11.662 Y50.233 I0.3 J-0.058
G1 X-0.333
G3 Y50.844 J0.305
G1 X-5.998
X-11.662 Y50.539
G3 X-11.951 Y50.249 I0.016 J-0.305
G1 X-11.995 Y49.332
G3 X-11.69 Y49.012 I0.305 J-0.015
G1 X-0.313
G3 Y49.623 J0.305
G1 X-6.002
X-11.69 Y49.317
G3 X-11.979 Y49.015 I0.016 J-0.305
G1 X-11.987 Y48.099
G3 X-11.682 Y47.791 I0.305 J-0.003
G1 X-0.317
G3 Y48.402 J0.305
G1 X-5.999
X-11.682 Y48.096
G3 X-11.971 Y47.798 I0.016 J-0.305
G1 X-11.991 Y46.882
G3 X-11.686 Y46.57 I0.305 J-0.007
G1 X-0.308
G3 Y47.18 J0.305
G1 X-5.997
X-11.686 Y46.875
G3 X-11.975 Y46.577 I0.016 J-0.305
G1 X-11.995 Y45.656
G3 X-11.69 Y45.344 I0.305 J-0.007
G1 X-1
X-0.313
G3 X0.152 Y46.691 Z-1.063 J0.754 F333.3
G1 X-8.87 Y53.771 Z-1.452
G2 X-8.405 Y55.118 Z-1.515 I0.465 J0.593
G1 X-3.596 F1000
G3 Y55.728 J0.305
G1 X-6
X-8.405 Y55.423
X-8.458 Y55.412
X-8.507 Y55.391
X-10.273 Y54.473
G3 X-10.132 Y53.897 I0.141 J-0.271
G1 X-1.876
G3 Y54.507 J0.305
G1 X-6.004
X-10.132 Y54.202
X-10.187 Y54.193
X-10.239 Y54.174
X-10.286 Y54.147
X-10.328 Y54.111
X-11.222 Y53.194
G3 X-11.004 Y52.676 I0.219 J-0.213
G1 X-1
G3 Y53.286 J0.305
G1 X-6.002
X-11.004 Y52.981
G3 X-11.251 Y52.826 I0.019 J-0.305
G1 X-11.768 Y51.91
G3 X-11.502 Y51.454 I0.266 J-0.15
G1 X-0.498
G3 Y52.065 J0.305
G1 X-6
X-11.502 Y51.76
G3 X-11.785 Y51.513 I0.017 J-0.305
G1 X-11.962 Y50.597
G3 X-11.662 Y50.233 I0.3 J-0.058
G1 X-0.333
G3 Y50.844 J0.305
G1 X-5.998
X-11.662 Y50.539
G3 X-11.951 Y50.249 I0.016 J-0.305
G1 X-11.995 Y49.332
G3 X-11.69 Y49.012 I0.305 J-0.015
G1 X-0.313
G3 Y49.623 J0.305
G1 X-6.002
X-11.69 Y49.317
G3 X-11.979 Y49.015 I0.016 J-0.305
G1 X-11.987 Y48.099
G3 X-11.682 Y47.791 I0.305 J-0.003
G1 X-0.317
G3 Y48.402 J0.305
G1 X-5.999
X-11.682 Y48.096
G3 X-11.971 Y47.798 I0.016 J-0.305
G1 X-11.991 Y46.882
G3 X-11.686 Y46.57 I0.305 J-0.007
G1 X-0.308
G3 Y47.18 J0.305
G1 X-5.997
X-11.686 Y46.875
G3 X-11.975 Y46.577 I0.016 J-0.305
G1 X-11.995 Y45.656
G3 X-11.69 Y45.344 I0.305 J-0.007
G1 X-1
X-0.313
G3 X0.152 Y46.691 Z-1.578 J0.754 F333.3
G1 X-8.87 Y53.771 Z-1.967
G2 X-8.405 Y55.118 Z-2.03 I0.465 J0.593
G1 X-3.596 F1000
G3 Y55.728 J0.305
G1 X-6
X-8.405 Y55.423
X-8.458 Y55.412
X-8.507 Y55.391
X-10.273 Y54.473
G3 X-10.132 Y53.897 I0.141 J-0.271
G1 X-1.876
G3 Y54.507 J0.305
G1 X-6.004
X-10.132 Y54.202
X-10.187 Y54.193
X-10.239 Y54.174
X-10.286 Y54.147
X-10.328 Y54.111
X-11.222 Y53.194
G3 X-11.004 Y52.676 I0.219 J-0.213
G1 X-1
G3 Y53.286 J0.305
G1 X-6.002
X-11.004 Y52.981
G3 X-11.251 Y52.826 I0.019 J-0.305
G1 X-11.768 Y51.91
G3 X-11.502 Y51.454 I0.266 J-0.15
G1 X-0.498
G3 Y52.065 J0.305
G1 X-6
X-11.502 Y51.76
G3 X-11.785 Y51.513 I0.017 J-0.305
G1 X-11.962 Y50.597
G3 X-11.662 Y50.233 I0.3 J-0.058
G1 X-0.333
G3 Y50.844 J0.305
G1 X-5.998
X-11.662 Y50.539
G3 X-11.951 Y50.249 I0.016 J-0.305
G1 X-11.995 Y49.332
G3 X-11.69 Y49.012 I0.305 J-0.015
G1 X-0.313
G3 Y49.623 J0.305
G1 X-6.002
X-11.69 Y49.317
G3 X-11.979 Y49.015 I0.016 J-0.305
G1 X-11.987 Y48.099
G3 X-11.682 Y47.791 I0.305 J-0.003
G1 X-0.317
G3 Y48.402 J0.305
G1 X-5.999
X-11.682 Y48.096
G3 X-11.971 Y47.798 I0.016 J-0.305
G1 X-11.991 Y46.882
G3 X-11.686 Y46.57 I0.305 J-0.007
G1 X-0.308
G3 Y47.18 J0.305
G1 X-5.997
X-11.686 Y46.875
G3 X-11.975 Y46.577 I0.016 J-0.305
G1 X-11.995 Y45.656
G3 X-11.69 Y45.344 I0.305 J-0.007
G1 X-1
X-0.313
G3 X0.152 Y46.691 Z-2.055 J0.754 F333.3
G1 X-8.87 Y53.771 Z-2.205
G2 X-8.405 Y55.118 Z-2.23 I0.465 J0.593
G1 X-3.596 F1000
G3 Y55.728 J0.305
G1 X-6
X-8.405 Y55.423
X-8.458 Y55.412
X-8.507 Y55.391
X-10.273 Y54.473
G3 X-10.132 Y53.897 I0.141 J-0.271
G1 X-1.876
G3 Y54.507 J0.305
G1 X-6.004
X-10.132 Y54.202
X-10.187 Y54.193
X-10.239 Y54.174
X-10.286 Y54.147
X-10.328 Y54.111
X-11.222 Y53.194
G3 X-11.004 Y52.676 I0.219 J-0.213
G1 X-1
G3 Y53.286 J0.305
G1 X-6.002
X-11.004 Y52.981
G3 X-11.251 Y52.826 I0.019 J-0.305
G1 X-11.768 Y51.91
G3 X-11.502 Y51.454 I0.266 J-0.15
G1 X-0.498
G3 Y52.065 J0.305
G1 X-6
X-11.502 Y51.76
G3 X-11.785 Y51.513 I0.017 J-0.305
G1 X-11.962 Y50.597
G3 X-11.662 Y50.233 I0.3 J-0.058
G1 X-0.333
G3 Y50.844 J0.305
G1 X-5.998
X-11.662 Y50.539
G3 X-11.951 Y50.249 I0.016 J-0.305
G1 X-11.995 Y49.332
G3 X-11.69 Y49.012 I0.305 J-0.015
G1 X-0.313
G3 Y49.623 J0.305
G1 X-6.002
X-11.69 Y49.317
G3 X-11.979 Y49.015 I0.016 J-0.305
G1 X-11.987 Y48.099
G3 X-11.682 Y47.791 I0.305 J-0.003
G1 X-0.317
G3 Y48.402 J0.305
G1 X-5.999
X-11.682 Y48.096
G3 X-11.971 Y47.798 I0.016 J-0.305
G1 X-11.991 Y46.882
G3 X-11.686 Y46.57 I0.305 J-0.007
G1 X-0.308
G3 Y47.18 J0.305
G1 X-5.997
X-11.686 Y46.875
G3 X-11.975 Y46.577 I0.016 J-0.305
G1 X-11.995 Y45.656
G3 X-11.69 Y45.344 I0.305 J-0.007
G1 X-1
X-0.313
X-0.288 Y45.346
X0.496 Y45.47
X0.544 Y45.478 Z-2.222
X0.588 Y45.484 Z-2.2
X0.623 Y45.49 Z-2.165
X0.645 Y45.493 Z-2.12
X0.653 Y45.495 Z-2.071
G0 Z8
X0.28 Y55.118
Z3
G1 Z-0.841 F1000
X0.288 Z-0.89
X0.31 Z-0.935
X0.345 Z-0.97
X0.39 Z-0.992
X0.439 Z-1
X3.595
X8.404
G3 Y55.728 J0.305
G1 X6
X3.595 Y55.423
X3.542 Y55.412
X3.493 Y55.391
X1.727 Y54.473
G3 X1.868 Y53.897 I0.141 J-0.271
G1 X10.124
G3 Y54.507 J0.305
G1 X5.996
X1.868 Y54.202
X1.813 Y54.193
X1.761 Y54.174
X1.714 Y54.147
X1.672 Y54.111
X0.778 Y53.194
G3 X0.996 Y52.676 I0.219 J-0.213
G1 X11
G3 Y53.286 J0.305
G1 X5.998
X0.996 Y52.981
G3 X0.749 Y52.826 I0.019 J-0.305
G1 X0.232 Y51.91
G3 X0.498 Y51.454 I0.266 J-0.15
G1 X11.502
G3 Y52.065 J0.305
G1 X6
X0.498 Y51.76
G3 X0.215 Y51.513 I0.017 J-0.305
G1 X0.038 Y50.597
G3 X0.338 Y50.233 I0.3 J-0.058
G1 X11.667
G3 Y50.844 J0.305
G1 X6.002
X0.338 Y50.539
G3 X0.049 Y50.249 I0.016 J-0.305
G1 X0.005 Y49.332
G3 X0.31 Y49.012 I0.305 J-0.015
G1 X11.687
G3 Y49.623 J0.305
G1 X5.998
X0.31 Y49.317
G3 X0.021 Y49.015 I0.016 J-0.305
G1 X0.013 Y48.099
G3 X0.318 Y47.791 I0.305 J-0.003
G1 X11.683
G3 Y48.402 J0.305
G1 X6.001
X0.318 Y48.096
G3 X0.029 Y47.798 I0.016 J-0.305
G1 X0.009 Y46.882
G3 X0.314 Y46.57 I0.305 J-0.007
G1 X11.692
G3 Y47.18 J0.305
G1 X6.003
X0.314 Y46.875
G3 X0.025 Y46.577 I0.016 J-0.305
G1 X0.005 Y45.656
G3 X0.31 Y45.344 I0.305 J-0.007
G1 X11
X11.687
G3 X12.152 Y46.691 Z-1.063 J0.754 F333.3
G1 X3.13 Y53.771 Z-1.452
G2 X3.595 Y55.118 Z-1.515 I0.465 J0.593
G1 X8.404 F1000
G3 Y55.728 J0.305
G1 X6
X3.595 Y55.423
X3.542 Y55.412
X3.493 Y55.391
X1.727 Y54.473
G3 X1.868 Y53.897 I0.141 J-0.271
G1 X10.124
G3 Y54.507 J0.305
G1 X5.996
X1.868 Y54.202
X1.813 Y54.193
X1.761 Y54.174
X1.714 Y54.147
X1.672 Y54.111
X0.778 Y53.194
G3 X0.996 Y52.676 I0.219 J-0.213
G1 X11
G3 Y53.286 J0.305
G1 X5.998
X0.996 Y52.981
G3 X0.749 Y52.826 I0.019 J-0.305
G1 X0.232 Y51.91
G3 X0.498 Y51.454 I0.266 J-0.15
G1 X11.502
G3 Y52.065 J0.305
G1 X6
X0.498 Y51.76
G3 X0.215 Y51.513 I0.017 J-0.305
G1 X0.038 Y50.597
G3 X0.338 Y50.233 I0.3 J-0.058
G1 X11.667
G3 Y50.844 J0.305
G1 X6.002
X0.338 Y50.539
G3 X0.049 Y50.249 I0.016 J-0.305
G1 X0.005 Y49.332
G3 X0.31 Y49.012 I0.305 J-0.015
G1 X11.687
G3 Y49.623 J0.305
G1 X5.998
X0.31 Y49.317
G3 X0.021 Y49.015 I0.016 J-0.305
G1 X0.013 Y48.099
G3 X0.318 Y47.791 I0.305 J-0.003
G1 X11.683
G3 Y48.402 J0.305
G1 X6.001
X0.318 Y48.096
G3 X0.029 Y47.798 I0.016 J-0.305
G1 X0.009 Y46.882
G3 X0.314 Y46.57 I0.305 J-0.007
G1 X11.692
G3 Y47.18 J0.305
G1 X6.003
X0.314 Y46.875
G3 X0.025 Y46.577 I0.016 J-0.305
G1 X0.005 Y45.656
G3 X0.31 Y45.344 I0.305 J-0.007
G1 X11
X11.687
G3 X12.152 Y46.691 Z-1.578 J0.754 F333.3
G1 X3.13 Y53.771 Z-1.967
G2 X3.595 Y55.118 Z-2.03 I0.465 J0.593
G1 X8.404 F1000
G3 Y55.728 J0.305
G1 X6
X3.595 Y55.423
X3.542 Y55.412
X3.493 Y55.391
X1.727 Y54.473
G3 X1.868 Y53.897 I0.141 J-0.271
G1 X10.124
G3 Y54.507 J0.305
G1 X5.996
X1.868 Y54.202
X1.813 Y54.193
X1.761 Y54.174
X1.714 Y54.147
X1.672 Y54.111
X0.778 Y53.194
G3 X0.996 Y52.676 I0.219 J-0.213
G1 X11
G3 Y53.286 J0.305
G1 X5.998
X0.996 Y52.981
G3 X0.749 Y52.826 I0.019 J-0.305
G1 X0.232 Y51.91
G3 X0.498 Y51.454 I0.266 J-0.15
G1 X11.502
G3 Y52.065 J0.305
G1 X6
X0.498 Y51.76
G3 X0.215 Y51.513 I0.017 J-0.305
G1 X0.038 Y50.597
G3 X0.338 Y50.233 I0.3 J-0.058
G1 X11.667
G3 Y50.844 J0.305
G1 X6.002
X0.338 Y50.539
G3 X0.049 Y50.249 I0.016 J-0.305
G1 X0.005 Y49.332
G3 X0.31 Y49.012 I0.305 J-0.015
G1 X11.687
G3 Y49.623 J0.305
G1 X5.998
X0.31 Y49.317
G3 X0.021 Y49.015 I0.016 J-0.305
G1 X0.013 Y48.099
G3 X0.318 Y47.791 I0.305 J-0.003
G1 X11.683
G3 Y48.402 J0.305
G1 X6.001
X0.318 Y48.096
G3 X0.029 Y47.798 I0.016 J-0.305
G1 X0.009 Y46.882
G3 X0.314 Y46.57 I0.305 J-0.007
G1 X11.692
G3 Y47.18 J0.305
G1 X6.003
X0.314 Y46.875
G3 X0.025 Y46.577 I0.016 J-0.305
G1 X0.005 Y45.656
G3 X0.31 Y45.344 I0.305 J-0.007
G1 X11
X11.687
G3 X12.152 Y46.691 Z-2.055 J0.754 F333.3
G1 X3.13 Y53.771 Z-2.205
G2 X3.595 Y55.118 Z-2.23 I0.465 J0.593
G1 X8.404 F1000
G3 Y55.728 J0.305
G1 X6
X3.595 Y55.423
X3.542 Y55.412
X3.493 Y55.391
X1.727 Y54.473
G3 X1.868 Y53.897 I0.141 J-0.271
G1 X10.124
G3 Y54.507 J0.305
G1 X5.996
X1.868 Y54.202
X1.813 Y54.193
X1.761 Y54.174
X1.714 Y54.147
X1.672 Y54.111
X0.778 Y53.194
G3 X0.996 Y52.676 I0.219 J-0.213
G1 X11
G3 Y53.286 J0.305
G1 X5.998
X0.996 Y52.981
G3 X0.749 Y52.826 I0.019 J-0.305
G1 X0.232 Y51.91
G3 X0.498 Y51.454 I0.266 J-0.15
G1 X11.502
G3 Y52.065 J0.305
G1 X6
X0.498 Y51.76
G3 X0.215 Y51.513 I0.017 J-0.305
G1 X0.038 Y50.597
G3 X0.338 Y50.233 I0.3 J-0.058
G1 X11.667
G3 Y50.844 J0.305
G1 X6.002
X0.338 Y50.539
G3 X0.049 Y50.249 I0.016 J-0.305
G1 X0.005 Y49.332
G3 X0.31 Y49.012 I0.305 J-0.015
G1 X11.687
G3 Y49.623 J0.305
G1 X5.998
X0.31 Y49.317
G3 X0.021 Y49.015 I0.016 J-0.305
G1 X0.013 Y48.099
G3 X0.318 Y47.791 I0.305 J-0.003
G1 X11.683
G3 Y48.402 J0.305
G1 X6.001
X0.318 Y48.096
G3 X0.029 Y47.798 I0.016 J-0.305
G1 X0.009 Y46.882
G3 X0.314 Y46.57 I0.305 J-0.007
G1 X11.692
G3 Y47.18 J0.305
G1 X6.003
X0.314 Y46.875
G3 X0.025 Y46.577 I0.016 J-0.305
G1 X0.005 Y45.656
G3 X0.31 Y45.344 I0.305 J-0.007
G1 X11
X11.687
X11.712 Y45.346
X12.496 Y45.47
X12.544 Y45.478 Z-2.222
X12.588 Y45.484 Z-2.2
X12.623 Y45.49 Z-2.165
X12.645 Y45.493 Z-2.12
X12.653 Y45.495 Z-2.071
G0 Z8
X-0.327 Y-55.118
Z3
G1 Z-0.841 F1000
X-0.334 Z-0.89
X-0.357 Z-0.935
X-0.392 Z-0.97
X-0.436 Z-0.992
X-0.485 Z-1
X-3.595
X-8.404
G3 Y-55.728 J-0.305
G1 X-6
X-3.595 Y-55.423
X-3.542 Y-55.412
X-3.493 Y-55.391
X-1.727 Y-54.473
G3 X-1.868 Y-53.897 I-0.141 J0.271
G1 X-10.124
G3 Y-54.507 J-0.305
G1 X-5.996
X-1.868 Y-54.202
X-1.814 Y-54.193
X-1.762 Y-54.175
X-1.715 Y-54.147
X-1.673 Y-54.112
X-0.79 Y-53.218
G3 X-1.008 Y-52.698 I-0.217 J0.214
G1 X-10.989 Y-52.721
G3 X-10.987 Y-53.331 I0.001 J-0.305
G1 X-5.997 Y-53.32
X-1.007 Y-53.003
G3 X-0.761 Y-52.849 I-0.019 J0.305
G1 X-0.244 Y-51.933
G3 X-0.51 Y-51.477 I-0.266 J0.15
G1 X-11 Y-51.499
X-11.482 Y-51.498
G3 X-11.789 Y-51.802 I-0.001 J-0.305
X-11.483 Y-52.108 I0.305
G1 X-5.995 Y-52.099
X-0.509 Y-51.783
G3 X-0.228 Y-51.54 I-0.018 J0.305
G1 X-0.038 Y-50.624
G3 X-0.338 Y-50.257 I-0.299 J0.062
G1 X-11 Y-50.278
X-11.663 Y-50.276
G3 X-11.969 Y-50.581 I-0.001 J-0.305
X-11.664 Y-50.886 I0.305
G1 X-5.999 Y-50.879
X-0.337 Y-50.562
G3 X-0.049 Y-50.272 I-0.017 J0.305
G1 X-0.004 Y-49.357
G3 X-0.31 Y-49.037 I-0.305 J0.015
G1 X-11 Y-49.057
X-11.687 Y-49.055
G3 X-11.993 Y-49.36 I-0.001 J-0.305
X-11.688 Y-49.665 I0.305
G1 X-5.997 Y-49.658
X-0.309 Y-49.342
G3 X-0.021 Y-49.04 I-0.017 J0.305
G1 X-0.012 Y-48.125
G3 X-0.318 Y-47.817 I-0.305 J0.003
G1 X-11 Y-47.836
X-11.687 Y-47.834
G3 X-11.993 Y-48.139 I-0.001 J-0.305
X-11.688 Y-48.445 I0.305
G1 X-6.001 Y-48.438
X-0.317 Y-48.122
G3 X-0.029 Y-47.824 I-0.017 J0.305
G1 X-0.009 Y-46.882
G3 X-0.314 Y-46.57 I-0.305 J0.007
G1 X-11.692
G3 Y-47.18 J-0.305
G1 X-6.003
X-0.314 Y-46.875
G3 X-0.025 Y-46.577 I-0.016 J0.305
G1 X-0.005 Y-45.656
G3 X-0.31 Y-45.344 I-0.305 J0.007
G1 X-11
X-11.687
G3 X-12.152 Y-46.691 Z-1.063 J-0.754 F333.3
G1 X-3.13 Y-53.771 Z-1.452
G2 X-3.595 Y-55.118 Z-1.515 I-0.465 J-0.593
G1 X-8.404 F1000
G3 Y-55.728 J-0.305
G1 X-6
X-3.595 Y-55.423
X-3.542 Y-55.412
X-3.493 Y-55.391
X-1.727 Y-54.473
G3 X-1.868 Y-53.897 I-0.141 J0.271
G1 X-10.124
G3 Y-54.507 J-0.305
G1 X-5.996
X-1.868 Y-54.202
X-1.814 Y-54.193
X-1.762 Y-54.175
X-1.715 Y-54.147
X-1.673 Y-54.112
X-0.79 Y-53.218
G3 X-1.008 Y-52.698 I-0.217 J0.214
G1 X-10.989 Y-52.721
G3 X-10.987 Y-53.331 I0.001 J-0.305
G1 X-5.997 Y-53.32
X-1.007 Y-53.003
G3 X-0.761 Y-52.849 I-0.019 J0.305
G1 X-0.244 Y-51.933
G3 X-0.51 Y-51.477 I-0.266 J0.15
G1 X-11 Y-51.499
X-11.482 Y-51.498
G3 X-11.789 Y-51.802 I-0.001 J-0.305
X-11.483 Y-52.108 I0.305
G1 X-5.995 Y-52.099
X-0.509 Y-51.783
G3 X-0.228 Y-51.54 I-0.018 J0.305
G1 X-0.038 Y-50.624
G3 X-0.338 Y-50.257 I-0.299 J0.062
G1 X-11 Y-50.278
X-11.663 Y-50.276
G3 X-11.969 Y-50.581 I-0.001 J-0.305
X-11.664 Y-50.886 I0.305
G1 X-5.999 Y-50.879
X-0.337 Y-50.562
G3 X-0.049 Y-50.272 I-0.017 J0.305
G1 X-0.004 Y-49.357
G3 X-0.31 Y-49.037 I-0.305 J0.015
G1 X-11 Y-49.057
X-11.687 Y-49.055
G3 X-11.993 Y-49.36 I-0.001 J-0.305
X-11.688 Y-49.665 I0.305
G1 X-5.997 Y-49.658
X-0.309 Y-49.342
G3 X-0.021 Y-49.04 I-0.017 J0.305
G1 X-0.012 Y-48.125
G3 X-0.318 Y-47.817 I-0.305 J0.003
G1 X-11 Y-47.836
X-11.687 Y-47.834
G3 X-11.993 Y-48.139 I-0.001 J-0.305
X-11.688 Y-48.445 I0.305
G1 X-6.001 Y-48.438
X-0.317 Y-48.122
G3 X-0.029 Y-47.824 I-0.017 J0.305
G1 X-0.009 Y-46.882
G3 X-0.314 Y-46.57 I-0.305 J0.007
G1 X-11.692
G3 Y-47.18 J-0.305
G1 X-6.003
X-0.314 Y-46.875
G3 X-0.025 Y-46.577 I-0.016 J0.305
G1 X-0.005 Y-45.656
G3 X-0.31 Y-45.344 I-0.305 J0.007
G1 X-11
X-11.687
G3 X-12.152 Y-46.691 Z-1.578 J-0.754 F333.3
G1 X-3.13 Y-53.771 Z-1.967
G2 X-3.595 Y-55.118 Z-2.03 I-0.465 J-0.593
G1 X-8.404 F1000
G3 Y-55.728 J-0.305
G1 X-6
X-3.595 Y-55.423
X-3.542 Y-55.412
X-3.493 Y-55.391
X-1.727 Y-54.473
G3 X-1.868 Y-53.897 I-0.141 J0.271
G1 X-10.124
G3 Y-54.507 J-0.305
G1 X-5.996
X-1.868 Y-54.202
X-1.814 Y-54.193
X-1.762 Y-54.175
X-1.715 Y-54.147
X-1.673 Y-54.112
X-0.79 Y-53.218
G3 X-1.008 Y-52.698 I-0.217 J0.214
G1 X-10.989 Y-52.721
G3 X-10.987 Y-53.331 I0.001 J-0.305
G1 X-5.997 Y-53.32
X-1.007 Y-53.003
G3 X-0.761 Y-52.849 I-0.019 J0.305
G1 X-0.244 Y-51.933
G3 X-0.51 Y-51.477 I-0.266 J0.15
G1 X-11 Y-51.499
X-11.482 Y-51.498
G3 X-11.789 Y-51.802 I-0.001 J-0.305
X-11.483 Y-52.108 I0.305
G1 X-5.995 Y-52.099
X-0.509 Y-51.783
G3 X-0.228 Y-51.54 I-0.018 J0.305
G1 X-0.038 Y-50.624
G3 X-0.338 Y-50.257 I-0.299 J0.062
G1 X-11 Y-50.278
X-11.663 Y-50.276
G3 X-11.969 Y-50.581 I-0.001 J-0.305
X-11.664 Y-50.886 I0.305
G1 X-5.999 Y-50.879
X-0.337 Y-50.562
G3 X-0.049 Y-50.272 I-0.017 J0.305
G1 X-0.004 Y-49.357
G3 X-0.31 Y-49.037 I-0.305 J0.015
G1 X-11 Y-49.057
X-11.687 Y-49.055
G3 X-11.993 Y-49.36 I-0.001 J-0.305
X-11.688 Y-49.665 I0.305
G1 X-5.997 Y-49.658
X-0.309 Y-49.342
G3 X-0.021 Y-49.04 I-0.017 J0.305
G1 X-0.012 Y-48.125
G3 X-0.318 Y-47.817 I-0.305 J0.003
G1 X-11 Y-47.836
X-11.687 Y-47.834
G3 X-11.993 Y-48.139 I-0.001 J-0.305
X-11.688 Y-48.445 I0.305
G1 X-6.001 Y-48.438
X-0.317 Y-48.122
G3 X-0.029 Y-47.824 I-0.017 J0.305
G1 X-0.009 Y-46.882
G3 X-0.314 Y-46.57 I-0.305 J0.007
G1 X-11.692
G3 Y-47.18 J-0.305
G1 X-6.003
X-0.314 Y-46.875
G3 X-0.025 Y-46.577 I-0.016 J0.305
G1 X-0.005 Y-45.656
G3 X-0.31 Y-45.344 I-0.305 J0.007
G1 X-11
X-11.687
G3 X-12.152 Y-46.691 Z-2.055 J-0.754 F333.3
G1 X-3.13 Y-53.771 Z-2.205
G2 X-3.595 Y-55.118 Z-2.23 I-0.465 J-0.593
G1 X-8.404 F1000
G3 Y-55.728 J-0.305
G1 X-6
X-3.595 Y-55.423
X-3.542 Y-55.412
X-3.493 Y-55.391
X-1.727 Y-54.473
G3 X-1.868 Y-53.897 I-0.141 J0.271
G1 X-10.124
G3 Y-54.507 J-0.305
G1 X-5.996
X-1.868 Y-54.202
X-1.814 Y-54.193
X-1.762 Y-54.175
X-1.715 Y-54.147
X-1.673 Y-54.112
X-0.79 Y-53.218
G3 X-1.008 Y-52.698 I-0.217 J0.214
G1 X-10.989 Y-52.721
G3 X-10.987 Y-53.331 I0.001 J-0.305
G1 X-5.997 Y-53.32
X-1.007 Y-53.003
G3 X-0.761 Y-52.849 I-0.019 J0.305
G1 X-0.244 Y-51.933
G3 X-0.51 Y-51.477 I-0.266 J0.15
G1 X-11 Y-51.499
X-11.482 Y-51.498
G3 X-11.789 Y-51.802 I-0.001 J-0.305
X-11.483 Y-52.108 I0.305
G1 X-5.995 Y-52.099
X-0.509 Y-51.783
G3 X-0.228 Y-51.54 I-0.018 J0.305
G1 X-0.038 Y-50.624
G3 X-0.338 Y-50.257 I-0.299 J0.062
G1 X-11 Y-50.278
X-11.663 Y-50.276
G3 X-11.969 Y-50.581 I-0.001 J-0.305
X-11.664 Y-50.886 I0.305
G1 X-5.999 Y-50.879
X-0.337 Y-50.562
G3 X-0.049 Y-50.272 I-0.017 J0.305
G1 X-0.004 Y-49.357
G3 X-0.31 Y-49.037 I-0.305 J0.015
G1 X-11 Y-49.057
X-11.687 Y-49.055
G3 X-11.993 Y-49.36 I-0.001 J-0.305
X-11.688 Y-49.665 I0.305
G1 X-5.997 Y-49.658
X-0.309 Y-49.342
G3 X-0.021 Y-49.04 I-0.017 J0.305
G1 X-0.012 Y-48.125
G3 X-0.318 Y-47.817 I-0.305 J0.003
G1 X-11 Y-47.836
X-11.687 Y-47.834
G3 X-11.993 Y-48.139 I-0.001 J-0.305
X-11.688 Y-48.445 I0.305
G1 X-6.001 Y-48.438
X-0.317 Y-48.122
G3 X-0.029 Y-47.824 I-0.017 J0.305
G1 X-0.009 Y-46.882
G3 X-0.314 Y-46.57 I-0.305 J0.007
G1 X-11.692
G3 Y-47.18 J-0.305
G1 X-6.003
X-0.314 Y-46.875
G3 X-0.025 Y-46.577 I-0.016 J0.305
G1 X-0.005 Y-45.656
G3 X-0.31 Y-45.344 I-0.305 J0.007
G1 X-11
X-11.687
X-11.712 Y-45.346
X-12.496 Y-45.47
X-12.544 Y-45.478 Z-2.222
X-12.588 Y-45.484 Z-2.2
X-12.623 Y-45.49 Z-2.165
X-12.645 Y-45.493 Z-2.12
X-12.653 Y-45.495 Z-2.071
G0 Z8
X11.673 Y-55.118
Z3
G1 Z-0.841 F1000
X11.666 Z-0.89
X11.643 Z-0.935
X11.608 Z-0.97
X11.564 Z-0.992
X11.515 Z-1
X8.405
X3.596
G3 Y-55.728 J-0.305
G1 X6
X8.405 Y-55.423
X8.458 Y-55.412
X8.507 Y-55.391
X10.273 Y-54.473
G3 X10.132 Y-53.897 I-0.141 J0.271
G1 X1.876
G3 Y-54.507 J-0.305
G1 X6.004
X10.132 Y-54.202
X10.186 Y-54.193
X10.238 Y-54.175
X10.285 Y-54.147
X10.327 Y-54.112
X11.21 Y-53.218
G3 X10.992 Y-52.698 I-0.217 J0.214
G1 X1.011 Y-52.721
G3 X1.013 Y-53.331 I0.001 J-0.305
G1 X6.003 Y-53.32
X10.993 Y-53.003
G3 X11.239 Y-52.849 I-0.019 J0.305
G1 X11.756 Y-51.933
G3 X11.49 Y-51.477 I-0.266 J0.15
G1 X1 Y-51.499
X0.518 Y-51.498
G3 X0.211 Y-51.802 I-0.001 J-0.305
X0.517 Y-52.108 I0.305
G1 X6.005 Y-52.099
X11.491 Y-51.783
G3 X11.772 Y-51.54 I-0.018 J0.305
G1 X11.962 Y-50.624
G3 X11.662 Y-50.257 I-0.299 J0.062
G1 X1 Y-50.278
X0.337 Y-50.276
G3 X0.031 Y-50.581 I-0.001 J-0.305
X0.336 Y-50.886 I0.305
G1 X6.001 Y-50.879
X11.663 Y-50.562
G3 X11.951 Y-50.272 I-0.017 J0.305
G1 X11.996 Y-49.357
G3 X11.69 Y-49.037 I-0.305 J0.015
G1 X1 Y-49.057
X0.313 Y-49.055
G3 X0.007 Y-49.36 I-0.001 J-0.305
X0.312 Y-49.665 I0.305
G1 X6.003 Y-49.658
X11.691 Y-49.342
G3 X11.979 Y-49.04 I-0.017 J0.305
G1 X11.988 Y-48.125
G3 X11.682 Y-47.817 I-0.305 J0.003
G1 X1 Y-47.836
X0.313 Y-47.834
G3 X0.007 Y-48.139 I-0.001 J-0.305
X0.312 Y-48.445 I0.305
G1 X5.999 Y-48.438
X11.683 Y-48.122
G3 X11.971 Y-47.824 I-0.017 J0.305
G1 X11.991 Y-46.882
G3 X11.686 Y-46.57 I-0.305 J0.007
G1 X0.308
G3 Y-47.18 J-0.305
G1 X5.997
X11.686 Y-46.875
G3 X11.975 Y-46.577 I-0.016 J0.305
G1 X11.995 Y-45.656
G3 X11.69 Y-45.344 I-0.305 J0.007
G1 X1
X0.313
G3 X-0.152 Y-46.691 Z-1.063 J-0.754 F333.3
G1 X8.87 Y-53.771 Z-1.452
G2 X8.405 Y-55.118 Z-1.515 I-0.465 J-0.593
G1 X3.596 F1000
G3 Y-55.728 J-0.305
G1 X6
X8.405 Y-55.423
X8.458 Y-55.412
X8.507 Y-55.391
X10.273 Y-54.473
G3 X10.132 Y-53.897 I-0.141 J0.271
G1 X1.876
G3 Y-54.507 J-0.305
G1 X6.004
X10.132 Y-54.202
X10.186 Y-54.193
X10.238 Y-54.175
X10.285 Y-54.147
X10.327 Y-54.112
X11.21 Y-53.218
G3 X10.992 Y-52.698 I-0.217 J0.214
G1 X1.011 Y-52.721
G3 X1.013 Y-53.331 I0.001 J-0.305
G1 X6.003 Y-53.32
X10.993 Y-53.003
G3 X11.239 Y-52.849 I-0.019 J0.305
G1 X11.756 Y-51.933
G3 X11.49 Y-51.477 I-0.266 J0.15
G1 X1 Y-51.499
X0.518 Y-51.498
G3 X0.211 Y-51.802 I-0.001 J-0.305
X0.517 Y-52.108 I0.305
G1 X6.005 Y-52.099
X11.491 Y-51.783
G3 X11.772 Y-51.54 I-0.018 J0.305
G1 X11.962 Y-50.624
G3 X11.662 Y-50.257 I-0.299 J0.062
G1 X1 Y-50.278
X0.337 Y-50.276
G3 X0.031 Y-50.581 I-0.001 J-0.305
X0.336 Y-50.886 I0.305
G1 X6.001 Y-50.879
X11.663 Y-50.562
G3 X11.951 Y-50.272 I-0.017 J0.305
G1 X11.996 Y-49.357
G3 X11.69 Y-49.037 I-0.305 J0.015
G1 X1 Y-49.057
X0.313 Y-49.055
G3 X0.007 Y-49.36 I-0.001 J-0.305
X0.312 Y-49.665 I0.305
G1 X6.003 Y-49.658
X11.691 Y-49.342
G3 X11.979 Y-49.04 I-0.017 J0.305
G1 X11.988 Y-48.125
G3 X11.682 Y-47.817 I-0.305 J0.003
G1 X1 Y-47.836
X0.313 Y-47.834
G3 X0.007 Y-48.139 I-0.001 J-0.305
X0.312 Y-48.445 I0.305
G1 X5.999 Y-48.438
X11.683 Y-48.122
G3 X11.971 Y-47.824 I-0.017 J0.305
G1 X11.991 Y-46.882
G3 X11.686 Y-46.57 I-0.305 J0.007
G1 X0.308
G3 Y-47.18 J-0.305
G1 X5.997
X11.686 Y-46.875
G3 X11.975 Y-46.577 I-0.016 J0.305
G1 X11.995 Y-45.656
G3 X11.69 Y-45.344 I-0.305 J0.007
G1 X1
X0.313
G3 X-0.152 Y-46.691 Z-1.578 J-0.754 F333.3
G1 X8.87 Y-53.771 Z-1.967
G2 X8.405 Y-55.118 Z-2.03 I-0.465 J-0.593
G1 X3.596 F1000
G3 Y-55.728 J-0.305
G1 X6
X8.405 Y-55.423
X8.458 Y-55.412
X8.507 Y-55.391
X10.273 Y-54.473
G3 X10.132 Y-53.897 I-0.141 J0.271
G1 X1.876
G3 Y-54.507 J-0.305
G1 X6.004
X10.132 Y-54.202
X10.186 Y-54.193
X10.238 Y-54.175
X10.285 Y-54.147
X10.327 Y-54.112
X11.21 Y-53.218
G3 X10.992 Y-52.698 I-0.217 J0.214
G1 X1.011 Y-52.721
G3 X1.013 Y-53.331 I0.001 J-0.305
G1 X6.003 Y-53.32
X10.993 Y-53.003
G3 X11.239 Y-52.849 I-0.019 J0.305
G1 X11.756 Y-51.933
G3 X11.49 Y-51.477 I-0.266 J0.15
G1 X1 Y-51.499
X0.518 Y-51.498
G3 X0.211 Y-51.802 I-0.001 J-0.305
X0.517 Y-52.108 I0.305
G1 X6.005 Y-52.099
X11.491 Y-51.783
G3 X11.772 Y-51.54 I-0.018 J0.305
G1 X11.962 Y-50.624
G3 X11.662 Y-50.257 I-0.299 J0.062
G1 X1 Y-50.278
X0.337 Y-50.276
G3 X0.031 Y-50.581 I-0.001 J-0.305
X0.336 Y-50.886 I0.305
G1 X6.001 Y-50.879
X11.663 Y-50.562
G3 X11.951 Y-50.272 I-0.017 J0.305
G1 X11.996 Y-49.357
G3 X11.69 Y-49.037 I-0.305 J0.015
G1 X1 Y-49.057
X0.313 Y-49.055
G3 X0.007 Y-49.36 I-0.001 J-0.305
X0.312 Y-49.665 I0.305
G1 X6.003 Y-49.658
X11.691 Y-49.342
G3 X11.979 Y-49.04 I-0.017 J0.305
G1 X11.988 Y-48.125
G3 X11.682 Y-47.817 I-0.305 J0.003
G1 X1 Y-47.836
X0.313 Y-47.834
G3 X0.007 Y-48.139 I-0.001 J-0.305
X0.312 Y-48.445 I0.305
G1 X5.999 Y-48.438
X11.683 Y-48.122
G3 X11.971 Y-47.824 I-0.017 J0.305
G1 X11.991 Y-46.882
G3 X11.686 Y-46.57 I-0.305 J0.007
G1 X0.308
G3 Y-47.18 J-0.305
G1 X5.997
X11.686 Y-46.875
G3 X11.975 Y-46.577 I-0.016 J0.305
G1 X11.995 Y-45.656
G3 X11.69 Y-45.344 I-0.305 J0.007
G1 X1
X0.313
G3 X-0.152 Y-46.691 Z-2.055 J-0.754 F333.3
G1 X8.87 Y-53.771 Z-2.205
G2 X8.405 Y-55.118 Z-2.23 I-0.465 J-0.593
G1 X3.596 F1000
G3 Y-55.728 J-0.305
G1 X6
X8.405 Y-55.423
X8.458 Y-55.412
X8.507 Y-55.391
X10.273 Y-54.473
G3 X10.132 Y-53.897 I-0.141 J0.271
G1 X1.876
G3 Y-54.507 J-0.305
G1 X6.004
X10.132 Y-54.202
X10.186 Y-54.193
X10.238 Y-54.175
X10.285 Y-54.147
X10.327 Y-54.112
X11.21 Y-53.218
G3 X10.992 Y-52.698 I-0.217 J0.214
G1 X1.011 Y-52.721
G3 X1.013 Y-53.331 I0.001 J-0.305
G1 X6.003 Y-53.32
X10.993 Y-53.003
G3 X11.239 Y-52.849 I-0.019 J0.305
G1 X11.756 Y-51.933
G3 X11.49 Y-51.477 I-0.266 J0.15
G1 X1 Y-51.499
X0.518 Y-51.498
G3 X0.211 Y-51.802 I-0.001 J-0.305
X0.517 Y-52.108 I0.305
G1 X6.005 Y-52.099
X11.491 Y-51.783
G3 X11.772 Y-51.54 I-0.018 J0.305
G1 X11.962 Y-50.624
G3 X11.662 Y-50.257 I-0.299 J0.062
G1 X1 Y-50.278
X0.337 Y-50.276
G3 X0.031 Y-50.581 I-0.001 J-0.305
X0.336 Y-50.886 I0.305
G1 X6.001 Y-50.879
X11.663 Y-50.562
G3 X11.951 Y-50.272 I-0.017 J0.305
G1 X11.996 Y-49.357
G3 X11.69 Y-49.037 I-0.305 J0.015
G1 X1 Y-49.057
X0.313 Y-49.055
G3 X0.007 Y-49.36 I-0.001 J-0.305
X0.312 Y-49.665 I0.305
G1 X6.003 Y-49.658
X11.691 Y-49.342
G3 X11.979 Y-49.04 I-0.017 J0.305
G1 X11.988 Y-48.125
G3 X11.682 Y-47.817 I-0.305 J0.003
G1 X1 Y-47.836
X0.313 Y-47.834
G3 X0.007 Y-48.139 I-0.001 J-0.305
X0.312 Y-48.445 I0.305
G1 X5.999 Y-48.438
X11.683 Y-48.122
G3 X11.971 Y-47.824 I-0.017 J0.305
G1 X11.991 Y-46.882
G3 X11.686 Y-46.57 I-0.305 J0.007
G1 X0.308
G3 Y-47.18 J-0.305
G1 X5.997
X11.686 Y-46.875
G3 X11.975 Y-46.577 I-0.016 J0.305
G1 X11.995 Y-45.656
G3 X11.69 Y-45.344 I-0.305 J0.007
G1 X1
X0.313
X0.288 Y-45.346
X-0.496 Y-45.47
X-0.544 Y-45.478 Z-2.222
X-0.588 Y-45.484 Z-2.2
X-0.623 Y-45.49 Z-2.165
X-0.645 Y-45.493 Z-2.12
X-0.653 Y-45.495 Z-2.071
G0 Z8
G28 G91 Z0
G90
G28 G91 X0 Y0
G90
M30
