(Pockets)
(T1  D=1.587 CR=0 - ZMIN=-2.23 - flat end mill)
G90 G94
G17
G21
G28 G91 Z0
G90

(2D Pocket1)
M9
S20000 M3
G54
G0 X47.353 Y63.417
Z8
Z3
G1 Z-0.041 F1000
X47.345 Z-0.09
X47.323 Z-0.135
X47.288 Z-0.17
X47.243 Z-0.192
X47.194 Z-0.2
X45.233
X5.803
G3 X5.505 Y63.212 J-0.319
X5.79 Y62.797 I0.285 J-0.11
G1 X25.326 Y62.806
X45.233 Y63.111
G3 X45.526 Y63.347 I-0.005 J0.305
G1 X45.739 Y64.263
G3 X45.442 Y64.638 I-0.297 J0.069
G1 X4.582
G3 X4.262 Y64.318 J-0.319
G1 Y63.21
G3 X4.585 Y62.905 I0.305
G1 X24.206 Y64.027
X45.442 Y64.333
G3 X45.743 Y64.639 I-0.004 J0.305
G1 X45.739 Y65.555
G3 X45.434 Y65.859 I-0.305 J-0.001
G1 X3.36
G3 X3.041 Y65.54 J-0.319
G1 Y63.213
G3 X3.383 Y62.91 I0.305
G1 X22.983 Y65.248
X45.434 Y65.554
G3 X45.735 Y65.856 I-0.004 J0.305
G1 X45.743 Y66.772
G3 X45.437 Y67.08 I-0.305 J0.003
G1 X2.139
G3 X1.82 Y66.761 J-0.319
G1 Y63.217
Y62.424
Y62.375 Z-0.192
Y62.33 Z-0.17
Y62.295 Z-0.135
Y62.273 Z-0.09
Y62.265 Z-0.041
G0 Z3
X-47.369 Y74.383
G1 Z-0.041 F1000
X-47.361 Z-0.09
X-47.338 Z-0.135
X-47.303 Z-0.17
X-47.259 Z-0.192
X-47.21 Z-0.2
X-45.233
X-5.803
G3 X-5.505 Y74.588 J0.319
X-5.79 Y75.003 I-0.285 J0.11
G1 X-25.326 Y74.994
X-45.233 Y74.689
G3 X-45.526 Y74.453 I0.005 J-0.305
G1 X-45.739 Y73.537
G3 X-45.442 Y73.162 I0.297 J-0.069
G1 X-4.582
G3 X-4.262 Y73.482 J0.319
G1 Y74.59
G3 X-4.585 Y74.895 I-0.305
G1 X-24.206 Y73.773
X-45.442 Y73.467
G3 X-45.743 Y73.161 I0.004 J-0.305
G1 X-45.739 Y72.245
G3 X-45.434 Y71.941 I0.305 J0.001
G1 X-3.36
G3 X-3.041 Y72.26 J0.319
G1 Y74.587
G3 X-3.383 Y74.89 I-0.305
G1 X-22.983 Y72.552
X-45.434 Y72.246
G3 X-45.735 Y71.944 I0.004 J-0.305
G1 X-45.743 Y71.028
G3 X-45.437 Y70.72 I0.305 J-0.003
G1 X-2.139
G3 X-1.82 Y71.039 J0.319
G1 Y74.583
G3 X-2.18 Y74.883 I-0.305
G1 X-21.715 Y71.335
X-21.766 Y71.33
X-45.437 Y71.025
G3 X-45.739 Y70.722 I0.004 J-0.305
G1 X-45.745 Y69.801
G3 X-45.44 Y69.494 I0.305 J-0.002
G1 X-1
G2 X-0.406 Y68.9 J-0.594
G3 X0 Y68.494 I0.406
G2 X0.594 Y67.9 J-0.594
G1 Y63.9
Y63.213
G3 X0.816 Y63.014 I0.2
G1 X45.462 Y67.907
G3 X45.44 Y68.306 I-0.022 J0.199
G1 X1
G2 X0.406 Y68.9 J0.594
G3 X0 Y69.306 I-0.406
G2 X-0.594 Y69.9 J0.594
G1 Y73.9
Y74.587
G3 X-1.338 Y75.341 Z-0.205 I-0.754 F333.3
G1 X-45.224 Y75.891 Z-0.39
G3 X-45.987 Y75.142 Z-0.395 I-0.009 J-0.754
X-45.233 Y74.383 Z-0.4 I0.754 J-0.005
G1 X-5.803 F1000
G3 X-5.505 Y74.588 J0.319
X-5.79 Y75.003 I-0.285 J0.11
G1 X-25.326 Y74.994
X-45.233 Y74.689
G3 X-45.526 Y74.453 I0.005 J-0.305
G1 X-45.739 Y73.537
G3 X-45.442 Y73.162 I0.297 J-0.069
G1 X-4.582
G3 X-4.262 Y73.482 J0.319
G1 Y74.59
G3 X-4.585 Y74.895 I-0.305
G1 X-24.206 Y73.773
X-45.442 Y73.467
G3 X-45.743 Y73.161 I0.004 J-0.305
G1 X-45.739 Y72.245
G3 X-45.434 Y71.941 I0.305 J0.001
G1 X-3.36
G3 X-3.041 Y72.26 J0.319
G1 Y74.587
G3 X-3.383 Y74.89 I-0.305
G1 X-22.983 Y72.552
X-45.434 Y72.246
G3 X-45.735 Y71.944 I0.004 J-0.305
G1 X-45.743 Y71.028
G3 X-45.437 Y70.72 I0.305 J-0.003
G1 X-2.139
G3 X-1.82 Y71.039 J0.319
G1 Y74.583
Y75.376
Y75.425 Z-0.392
Y75.47 Z-0.37
Y75.505 Z-0.335
Y75.527 Z-0.29
Y75.535 Z-0.241
G0 Z3
X47.353 Y63.417
G1 Z-0.241 F1000
X47.345 Z-0.29
X47.323 Z-0.335
X47.288 Z-0.37
X47.243 Z-0.392
X47.194 Z-0.4
X45.233
X5.803
G3 X5.505 Y63.212 J-0.319
X5.79 Y62.797 I0.285 J-0.11
G1 X25.326 Y62.806
X45.233 Y63.111
G3 X45.526 Y63.347 I-0.005 J0.305
G1 X45.739 Y64.263
G3 X45.442 Y64.638 I-0.297 J0.069
G1 X4.582
G3 X4.262 Y64.318 J-0.319
G1 Y63.21
G3 X4.585 Y62.905 I0.305
G1 X24.206 Y64.027
X45.442 Y64.333
G3 X45.743 Y64.639 I-0.004 J0.305
G1 X45.739 Y65.555
G3 X45.434 Y65.859 I-0.305 J-0.001
G1 X3.36
G3 X3.041 Y65.54 J-0.319
G1 Y63.213
G3 X3.383 Y62.91 I0.305
G1 X22.983 Y65.248
X45.434 Y65.554
G3 X45.735 Y65.856 I-0.004 J0.305
G1 X45.743 Y66.772
G3 X45.437 Y67.08 I-0.305 J0.003
G1 X2.139
G3 X1.82 Y66.761 J-0.319
G1 Y63.217
G3 X2.18 Y62.917 I0.305
G1 X21.715 Y66.465
X21.766 Y66.47
X45.437 Y66.775
G3 X45.739 Y67.078 I-0.004 J0.305
G1 X45.745 Y67.999
G3 X45.44 Y68.306 I-0.305 J0.002
G1 X1
G2 X0.406 Y68.9 J0.594
G3 X0 Y69.306 I-0.406
G2 X-0.594 Y69.9 J0.594
G1 Y73.9
Y74.587
G3 X-0.816 Y74.786 I-0.2
G1 X-45.462 Y69.893
G3 X-45.44 Y69.494 I0.022 J-0.199
G1 X-1
G2 X-0.406 Y68.9 J-0.594
G3 X0 Y68.494 I0.406
G2 X0.594 Y67.9 J-0.594
G1 Y63.9
Y63.213
X0.596 Y63.188
X0.72 Y62.404
X0.728 Y62.356 Z-0.392
X0.734 Y62.312 Z-0.37
X0.74 Y62.277 Z-0.335
X0.743 Y62.255 Z-0.29
X0.745 Y62.247 Z-0.241
G0 Z8
X47.353 Y75.417
Z3
G1 Z-0.041 F1000
X47.345 Z-0.09
X47.323 Z-0.135
X47.288 Z-0.17
X47.243 Z-0.192
X47.194 Z-0.2
X45.233
X5.803
G3 X5.505 Y75.212 J-0.319
X5.79 Y74.797 I0.285 J-0.11
G1 X25.326 Y74.806
X45.233 Y75.111
G3 X45.526 Y75.347 I-0.005 J0.305
G1 X45.739 Y76.263
G3 X45.442 Y76.638 I-0.297 J0.069
G1 X4.582
G3 X4.262 Y76.318 J-0.319
G1 Y75.21
G3 X4.585 Y74.905 I0.305
G1 X24.206 Y76.027
X45.442 Y76.333
G3 X45.743 Y76.639 I-0.004 J0.305
G1 X45.739 Y77.555
G3 X45.434 Y77.859 I-0.305 J-0.001
G1 X3.36
G3 X3.041 Y77.54 J-0.319
G1 Y75.213
G3 X3.383 Y74.91 I0.305
G1 X22.983 Y77.248
X45.434 Y77.554
G3 X45.735 Y77.856 I-0.004 J0.305
G1 X45.743 Y78.772
G3 X45.437 Y79.08 I-0.305 J0.003
G1 X2.139
G3 X1.82 Y78.761 J-0.319
G1 Y75.217
Y74.424
Y74.375 Z-0.192
Y74.33 Z-0.17
Y74.295 Z-0.135
Y74.273 Z-0.09
Y74.265 Z-0.041
G0 Z3
X-47.369 Y86.383
G1 Z-0.041 F1000
X-47.361 Z-0.09
X-47.338 Z-0.135
X-47.303 Z-0.17
X-47.259 Z-0.192
X-47.21 Z-0.2
X-45.233
X-5.803
G3 X-5.505 Y86.588 J0.319
X-5.79 Y87.003 I-0.285 J0.11
G1 X-25.326 Y86.994
X-45.233 Y86.689
G3 X-45.526 Y86.453 I0.005 J-0.305
G1 X-45.739 Y85.537
G3 X-45.442 Y85.162 I0.297 J-0.069
G1 X-4.582
G3 X-4.262 Y85.482 J0.319
G1 Y86.59
G3 X-4.585 Y86.895 I-0.305
G1 X-24.206 Y85.773
X-45.442 Y85.467
G3 X-45.743 Y85.161 I0.004 J-0.305
G1 X-45.739 Y84.245
G3 X-45.434 Y83.941 I0.305 J0.001
G1 X-3.36
G3 X-3.041 Y84.26 J0.319
G1 Y86.587
G3 X-3.383 Y86.89 I-0.305
G1 X-22.983 Y84.552
X-45.434 Y84.246
G3 X-45.735 Y83.944 I0.004 J-0.305
G1 X-45.743 Y83.028
G3 X-45.437 Y82.72 I0.305 J-0.003
G1 X-2.139
G3 X-1.82 Y83.039 J0.319
G1 Y86.583
G3 X-2.18 Y86.883 I-0.305
G1 X-21.715 Y83.335
X-21.766 Y83.33
X-45.437 Y83.025
G3 X-45.739 Y82.722 I0.004 J-0.305
G1 X-45.745 Y81.801
G3 X-45.44 Y81.494 I0.305 J-0.002
G1 X-1
G2 X-0.406 Y80.9 J-0.594
G3 X0 Y80.494 I0.406
G2 X0.594 Y79.9 J-0.594
G1 Y75.9
Y75.213
G3 X0.816 Y75.014 I0.2
G1 X45.462 Y79.907
G3 X45.44 Y80.306 I-0.022 J0.199
G1 X1
G2 X0.406 Y80.9 J0.594
G3 X0 Y81.306 I-0.406
G2 X-0.594 Y81.9 J0.594
G1 Y85.9
Y86.587
G3 X-1.338 Y87.341 Z-0.205 I-0.754 F333.3
G1 X-45.224 Y87.891 Z-0.39
G3 X-45.987 Y87.142 Z-0.395 I-0.009 J-0.754
X-45.233 Y86.383 Z-0.4 I0.754 J-0.005
G1 X-5.803 F1000
G3 X-5.505 Y86.588 J0.319
X-5.79 Y87.003 I-0.285 J0.11
G1 X-25.326 Y86.994
X-45.233 Y86.689
G3 X-45.526 Y86.453 I0.005 J-0.305
G1 X-45.739 Y85.537
G3 X-45.442 Y85.162 I0.297 J-0.069
G1 X-4.582
G3 X-4.262 Y85.482 J0.319
G1 Y86.59
G3 X-4.585 Y86.895 I-0.305
G1 X-24.206 Y85.773
X-45.442 Y85.467
G3 X-45.743 Y85.161 I0.004 J-0.305
G1 X-45.739 Y84.245
G3 X-45.434 Y83.941 I0.305 J0.001
G1 X-3.36
G3 X-3.041 Y84.26 J0.319
G1 Y86.587
G3 X-3.383 Y86.89 I-0.305
G1 X-22.983 Y84.552
X-45.434 Y84.246
G3 X-45.735 Y83.944 I0.004 J-0.305
G1 X-45.743 Y83.028
G3 X-45.437 Y82.72 I0.305 J-0.003
G1 X-2.139
G3 X-1.82 Y83.039 J0.319
G1 Y86.583
Y87.376
Y87.425 Z-0.392
Y87.47 Z-0.37
Y87.505 Z-0.335
Y87.527 Z-0.29
Y87.535 Z-0.241
G0 Z3
X47.353 Y75.417
G1 Z-0.241 F1000
X47.345 Z-0.29
X47.323 Z-0.335
X47.288 Z-0.37
X47.243 Z-0.392
X47.194 Z-0.4
X45.233
X5.803
G3 X5.505 Y75.212 J-0.319
X5.79 Y74.797 I0.285 J-0.11
G1 X25.326 Y74.806
X45.233 Y75.111
G3 X45.526 Y75.347 I-0.005 J0.305
G1 X45.739 Y76.263
G3 X45.442 Y76.638 I-0.297 J0.069
G1 X4.582
G3 X4.262 Y76.318 J-0.319
G1 Y75.21
G3 X4.585 Y74.905 I0.305
G1 X24.206 Y76.027
X45.442 Y76.333
G3 X45.743 Y76.639 I-0.004 J0.305
G1 X45.739 Y77.555
G3 X45.434 Y77.859 I-0.305 J-0.001
G1 X3.36
G3 X3.041 Y77.54 J-0.319
G1 Y75.213
G3 X3.383 Y74.91 I0.305
G1 X22.983 Y77.248
X45.434 Y77.554
G3 X45.735 Y77.856 I-0.004 J0.305
G1 X45.743 Y78.772
G3 X45.437 Y79.08 I-0.305 J0.003
G1 X2.139
G3 X1.82 Y78.761 J-0.319
G1 Y75.217
G3 X2.18 Y74.917 I0.305
G1 X21.715 Y78.465
X21.766 Y78.47
X45.437 Y78.775
G3 X45.739 Y79.078 I-0.004 J0.305
G1 X45.745 Y79.999
G3 X45.44 Y80.306 I-0.305 J0.002
G1 X1
G2 X0.406 Y80.9 J0.594
G3 X0 Y81.306 I-0.406
G2 X-0.594 Y81.9 J0.594
G1 Y85.9
Y86.587
G3 X-0.816 Y86.786 I-0.2
G1 X-45.462 Y81.893
G3 X-45.44 Y81.494 I0.022 J-0.199
G1 X-1
G2 X-0.406 Y80.9 J-0.594
G3 X0 Y80.494 I0.406
G2 X0.594 Y79.9 J-0.594
G1 Y75.9
Y75.213
X0.596 Y75.188
X0.72 Y74.404
X0.728 Y74.356 Z-0.392
X0.734 Y74.312 Z-0.37
X0.74 Y74.277 Z-0.335
X0.743 Y74.255 Z-0.29
X0.745 Y74.247 Z-0.241
G0 Z8
X-55.118 Y63.203
Z3
G1 Z-0.841 F1000
Y63.211 Z-0.89
Y63.234 Z-0.935
Y63.269 Z-0.97
Y63.313 Z-0.992
Y63.362 Z-1
Y66.495
Y71.304
G3 X-55.728 I-0.305
G1 Y68.9
X-55.423 Y66.495
X-55.412 Y66.442
X-55.391 Y66.393
X-54.473 Y64.627
G3 X-53.897 Y64.768 I0.271 J0.141
G1 Y73.024
G3 X-54.507 I-0.305
G1 Y68.896
X-54.202 Y64.768
X-54.193 Y64.713
X-54.174 Y64.661
X-54.147 Y64.614
X-54.111 Y64.572
X-53.194 Y63.678
G3 X-52.676 Y63.896 I0.213 J0.219
G1 Y73.9
G3 X-53.286 I-0.305
G1 Y68.898
X-52.981 Y63.896
G3 X-52.826 Y63.649 I0.305 J0.019
G1 X-51.91 Y63.132
G3 X-51.454 Y63.398 I0.15 J0.266
G1 Y74.402
G3 X-52.065 I-0.305
G1 Y68.9
X-51.76 Y63.398
G3 X-51.513 Y63.115 I0.305 J0.017
G1 X-50.597 Y62.938
G3 X-50.233 Y63.238 I0.058 J0.3
G1 Y74.567
G3 X-50.844 I-0.305
G1 Y68.902
X-50.539 Y63.238
G3 X-50.249 Y62.949 I0.305 J0.016
G1 X-49.332 Y62.905
G3 X-49.012 Y63.21 I0.015 J0.305
G1 Y74.587
G3 X-49.623 I-0.305
G1 Y68.898
X-49.317 Y63.21
G3 X-49.015 Y62.921 I0.305 J0.016
G1 X-48.099 Y62.913
G3 X-47.791 Y63.218 I0.003 J0.305
G1 Y74.583
G3 X-48.402 I-0.305
G1 Y68.901
X-48.096 Y63.218
G3 X-47.798 Y62.929 I0.305 J0.016
G1 X-46.882 Y62.909
G3 X-46.57 Y63.214 I0.007 J0.305
G1 Y74.592
G3 X-47.18 I-0.305
G1 Y68.903
X-46.875 Y63.214
G3 X-46.577 Y62.925 I0.305 J0.016
G1 X-45.656 Y62.905
G3 X-45.344 Y63.21 I0.007 J0.305
G1 Y73.9
Y74.587
G3 X-46.691 Y75.052 Z-1.063 I-0.754 F333.3
G1 X-53.771 Y66.03 Z-1.452
G2 X-55.118 Y66.495 Z-1.515 I-0.593 J0.465
G1 Y71.304 F1000
G3 X-55.728 I-0.305
G1 Y68.9
X-55.423 Y66.495
X-55.412 Y66.442
X-55.391 Y66.393
X-54.473 Y64.627
G3 X-53.897 Y64.768 I0.271 J0.141
G1 Y73.024
G3 X-54.507 I-0.305
G1 Y68.896
X-54.202 Y64.768
X-54.193 Y64.713
X-54.174 Y64.661
X-54.147 Y64.614
X-54.111 Y64.572
X-53.194 Y63.678
G3 X-52.676 Y63.896 I0.213 J0.219
G1 Y73.9
G3 X-53.286 I-0.305
G1 Y68.898
X-52.981 Y63.896
G3 X-52.826 Y63.649 I0.305 J0.019
G1 X-51.91 Y63.132
G3 X-51.454 Y63.398 I0.15 J0.266
G1 Y74.402
G3 X-52.065 I-0.305
G1 Y68.9
X-51.76 Y63.398
G3 X-51.513 Y63.115 I0.305 J0.017
G1 X-50.597 Y62.938
G3 X-50.233 Y63.238 I0.058 J0.3
G1 Y74.567
G3 X-50.844 I-0.305
G1 Y68.902
X-50.539 Y63.238
G3 X-50.249 Y62.949 I0.305 J0.016
G1 X-49.332 Y62.905
G3 X-49.012 Y63.21 I0.015 J0.305
G1 Y74.587
G3 X-49.623 I-0.305
G1 Y68.898
X-49.317 Y63.21
G3 X-49.015 Y62.921 I0.305 J0.016
G1 X-48.099 Y62.913
G3 X-47.791 Y63.218 I0.003 J0.305
G1 Y74.583
G3 X-48.402 I-0.305
G1 Y68.901
X-48.096 Y63.218
G3 X-47.798 Y62.929 I0.305 J0.016
G1 X-46.882 Y62.909
G3 X-46.57 Y63.214 I0.007 J0.305
G1 Y74.592
G3 X-47.18 I-0.305
G1 Y68.903
X-46.875 Y63.214
G3 X-46.577 Y62.925 I0.305 J0.016
G1 X-45.656 Y62.905
G3 X-45.344 Y63.21 I0.007 J0.305
G1 Y73.9
Y74.587
G3 X-46.691 Y75.052 Z-1.578 I-0.754 F333.3
G1 X-53.771 Y66.03 Z-1.967
G2 X-55.118 Y66.495 Z-2.03 I-0.593 J0.465
G1 Y71.304 F1000
G3 X-55.728 I-0.305
G1 Y68.9
X-55.423 Y66.495
X-55.412 Y66.442
X-55.391 Y66.393
X-54.473 Y64.627
G3 X-53.897 Y64.768 I0.271 J0.141
G1 Y73.024
G3 X-54.507 I-0.305
G1 Y68.896
X-54.202 Y64.768
X-54.193 Y64.713
X-54.174 Y64.661
X-54.147 Y64.614
X-54.111 Y64.572
X-53.194 Y63.678
G3 X-52.676 Y63.896 I0.213 J0.219
G1 Y73.9
G3 X-53.286 I-0.305
G1 Y68.898
X-52.981 Y63.896
G3 X-52.826 Y63.649 I0.305 J0.019
G1 X-51.91 Y63.132
G3 X-51.454 Y63.398 I0.15 J0.266
G1 Y74.402
G3 X-52.065 I-0.305
G1 Y68.9
X-51.76 Y63.398
G3 X-51.513 Y63.115 I0.305 J0.017
G1 X-50.597 Y62.938
G3 X-50.233 Y63.238 I0.058 J0.3
G1 Y74.567
G3 X-50.844 I-0.305
G1 Y68.902
X-50.539 Y63.238
G3 X-50.249 Y62.949 I0.305 J0.016
G1 X-49.332 Y62.905
G3 X-49.012 Y63.21 I0.015 J0.305
G1 Y74.587
G3 X-49.623 I-0.305
G1 Y68.898
X-49.317 Y63.21
G3 X-49.015 Y62.921 I0.305 J0.016
G1 X-48.099 Y62.913
G3 X-47.791 Y63.218 I0.003 J0.305
G1 Y74.583
G3 X-48.402 I-0.305
G1 Y68.901
X-48.096 Y63.218
G3 X-47.798 Y62.929 I0.305 J0.016
G1 X-46.882 Y62.909
G3 X-46.57 Y63.214 I0.007 J0.305
G1 Y74.592
G3 X-47.18 I-0.305
G1 Y68.903
X-46.875 Y63.214
G3 X-46.577 Y62.925 I0.305 J0.016
G1 X-45.656 Y62.905
G3 X-45.344 Y63.21 I0.007 J0.305
G1 Y73.9
Y74.587
G3 X-46.691 Y75.052 Z-2.055 I-0.754 F333.3
G1 X-53.771 Y66.03 Z-2.205
G2 X-55.118 Y66.495 Z-2.23 I-0.593 J0.465
G1 Y71.304 F1000
G3 X-55.728 I-0.305
G1 Y68.9
X-55.423 Y66.495
X-55.412 Y66.442
X-55.391 Y66.393
X-54.473 Y64.627
G3 X-53.897 Y64.768 I0.271 J0.141
G1 Y73.024
G3 X-54.507 I-0.305
G1 Y68.896
X-54.202 Y64.768
X-54.193 Y64.713
X-54.174 Y64.661
X-54.147 Y64.614
X-54.111 Y64.572
X-53.194 Y63.678
G3 X-52.676 Y63.896 I0.213 J0.219
G1 Y73.9
G3 X-53.286 I-0.305
G1 Y68.898
X-52.981 Y63.896
G3 X-52.826 Y63.649 I0.305 J0.019
G1 X-51.91 Y63.132
G3 X-51.454 Y63.398 I0.15 J0.266
G1 Y74.402
G3 X-52.065 I-0.305
G1 Y68.9
X-51.76 Y63.398
G3 X-51.513 Y63.115 I0.305 J0.017
G1 X-50.597 Y62.938
G3 X-50.233 Y63.238 I0.058 J0.3
G1 Y74.567
G3 X-50.844 I-0.305
G1 Y68.902
X-50.539 Y63.238
G3 X-50.249 Y62.949 I0.305 J0.016
G1 X-49.332 Y62.905
G3 X-49.012 Y63.21 I0.015 J0.305
G1 Y74.587
G3 X-49.623 I-0.305
G1 Y68.898
X-49.317 Y63.21
G3 X-49.015 Y62.921 I0.305 J0.016
G1 X-48.099 Y62.913
G3 X-47.791 Y63.218 I0.003 J0.305
G1 Y74.583
G3 X-48.402 I-0.305
G1 Y68.901
X-48.096 Y63.218
G3 X-47.798 Y62.929 I0.305 J0.016
G1 X-46.882 Y62.909
G3 X-46.57 Y63.214 I0.007 J0.305
G1 Y74.592
G3 X-47.18 I-0.305
G1 Y68.903
X-46.875 Y63.214
G3 X-46.577 Y62.925 I0.305 J0.016
G1 X-45.656 Y62.905
G3 X-45.344 Y63.21 I0.007 J0.305
G1 Y73.9
Y74.587
X-45.346 Y74.612
X-45.47 Y75.396
X-45.478 Y75.444 Z-2.222
X-45.484 Y75.488 Z-2.2
X-45.49 Y75.523 Z-2.165
X-45.493 Y75.545 Z-2.12
X-45.495 Y75.553 Z-2.071
G0 Z8
X-55.118 Y75.203
Z3
G1 Z-0.841 F1000
Y75.211 Z-0.89
Y75.234 Z-0.935
Y75.269 Z-0.97
Y75.313 Z-0.992
Y75.362 Z-1
Y78.495
Y83.304
G3 X-55.728 I-0.305
G1 Y80.9
X-55.423 Y78.495
X-55.412 Y78.442
X-55.391 Y78.393
X-54.473 Y76.627
G3 X-53.897 Y76.768 I0.271 J0.141
G1 Y85.024
G3 X-54.507 I-0.305
G1 Y80.896
X-54.202 Y76.768
X-54.193 Y76.713
X-54.174 Y76.661
X-54.147 Y76.614
X-54.111 Y76.572
X-53.194 Y75.678
G3 X-52.676 Y75.896 I0.213 J0.219
G1 Y85.9
G3 X-53.286 I-0.305
G1 Y80.898
X-52.981 Y75.896
G3 X-52.826 Y75.649 I0.305 J0.019
G1 X-51.91 Y75.132
G3 X-51.454 Y75.398 I0.15 J0.266
G1 Y86.402
G3 X-52.065 I-0.305
G1 Y80.9
X-51.76 Y75.398
G3 X-51.513 Y75.115 I0.305 J0.017
G1 X-50.597 Y74.938
G3 X-50.233 Y75.238 I0.058 J0.3
G1 Y86.567
G3 X-50.844 I-0.305
G1 Y80.902
X-50.539 Y75.238
G3 X-50.249 Y74.949 I0.305 J0.016
G1 X-49.332 Y74.905
G3 X-49.012 Y75.21 I0.015 J0.305
G1 Y86.587
G3 X-49.623 I-0.305
G1 Y80.898
X-49.317 Y75.21
G3 X-49.015 Y74.921 I0.305 J0.016
G1 X-48.099 Y74.913
G3 X-47.791 Y75.218 I0.003 J0.305
G1 Y86.583
G3 X-48.402 I-0.305
G1 Y80.901
X-48.096 Y75.218
G3 X-47.798 Y74.929 I0.305 J0.016
G1 X-46.882 Y74.909
G3 X-46.57 Y75.214 I0.007 J0.305
G1 Y86.592
G3 X-47.18 I-0.305
G1 Y80.903
X-46.875 Y75.214
G3 X-46.577 Y74.925 I0.305 J0.016
G1 X-45.656 Y74.905
G3 X-45.344 Y75.21 I0.007 J0.305
G1 Y85.9
Y86.587
G3 X-46.691 Y87.052 Z-1.063 I-0.754 F333.3
G1 X-53.771 Y78.03 Z-1.452
G2 X-55.118 Y78.495 Z-1.515 I-0.593 J0.465
G1 Y83.304 F1000
G3 X-55.728 I-0.305
G1 Y80.9
X-55.423 Y78.495
X-55.412 Y78.442
X-55.391 Y78.393
X-54.473 Y76.627
G3 X-53.897 Y76.768 I0.271 J0.141
G1 Y85.024
G3 X-54.507 I-0.305
G1 Y80.896
X-54.202 Y76.768
X-54.193 Y76.713
X-54.174 Y76.661
X-54.147 Y76.614
X-54.111 Y76.572
X-53.194 Y75.678
G3 X-52.676 Y75.896 I0.213 J0.219
G1 Y85.9
G3 X-53.286 I-0.305
G1 Y80.898
X-52.981 Y75.896
G3 X-52.826 Y75.649 I0.305 J0.019
G1 X-51.91 Y75.132
G3 X-51.454 Y75.398 I0.15 J0.266
G1 Y86.402
G3 X-52.065 I-0.305
G1 Y80.9
X-51.76 Y75.398
G3 X-51.513 Y75.115 I0.305 J0.017
G1 X-50.597 Y74.938
G3 X-50.233 Y75.238 I0.058 J0.3
G1 Y86.567
G3 X-50.844 I-0.305
G1 Y80.902
X-50.539 Y75.238
G3 X-50.249 Y74.949 I0.305 J0.016
G1 X-49.332 Y74.905
G3 X-49.012 Y75.21 I0.015 J0.305
G1 Y86.587
G3 X-49.623 I-0.305
G1 Y80.898
X-49.317 Y75.21
G3 X-49.015 Y74.921 I0.305 J0.016
G1 X-48.099 Y74.913
G3 X-47.791 Y75.218 I0.003 J0.305
G1 Y86.583
G3 X-48.402 I-0.305
G1 Y80.901
X-48.096 Y75.218
G3 X-47.798 Y74.929 I0.305 J0.016
G1 X-46.882 Y74.909
G3 X-46.57 Y75.214 I0.007 J0.305
G1 Y86.592
G3 X-47.18 I-0.305
G1 Y80.903
X-46.875 Y75.214
G3 X-46.577 Y74.925 I0.305 J0.016
G1 X-45.656 Y74.905
G3 X-45.344 Y75.21 I0.007 J0.305
G1 Y85.9
Y86.587
G3 X-46.691 Y87.052 Z-1.578 I-0.754 F333.3
G1 X-53.771 Y78.03 Z-1.967
G2 X-55.118 Y78.495 Z-2.03 I-0.593 J0.465
G1 Y83.304 F1000
G3 X-55.728 I-0.305
G1 Y80.9
X-55.423 Y78.495
X-55.412 Y78.442
X-55.391 Y78.393
X-54.473 Y76.627
G3 X-53.897 Y76.768 I0.271 J0.141
G1 Y85.024
G3 X-54.507 I-0.305
G1 Y80.896
X-54.202 Y76.768
X-54.193 Y76.713
X-54.174 Y76.661
X-54.147 Y76.614
X-54.111 Y76.572
X-53.194 Y75.678
G3 X-52.676 Y75.896 I0.213 J0.219
G1 Y85.9
G3 X-53.286 I-0.305
G1 Y80.898
X-52.981 Y75.896
G3 X-52.826 Y75.649 I0.305 J0.019
G1 X-51.91 Y75.132
G3 X-51.454 Y75.398 I0.15 J0.266
G1 Y86.402
G3 X-52.065 I-0.305
G1 Y80.9
X-51.76 Y75.398
G3 X-51.513 Y75.115 I0.305 J0.017
G1 X-50.597 Y74.938
G3 X-50.233 Y75.238 I0.058 J0.3
G1 Y86.567
G3 X-50.844 I-0.305
G1 Y80.902
X-50.539 Y75.238
G3 X-50.249 Y74.949 I0.305 J0.016
G1 X-49.332 Y74.905
G3 X-49.012 Y75.21 I0.015 J0.305
G1 Y86.587
G3 X-49.623 I-0.305
G1 Y80.898
X-49.317 Y75.21
G3 X-49.015 Y74.921 I0.305 J0.016
G1 X-48.099 Y74.913
G3 X-47.791 Y75.218 I0.003 J0.305
G1 Y86.583
G3 X-48.402 I-0.305
G1 Y80.901
X-48.096 Y75.218
G3 X-47.798 Y74.929 I0.305 J0.016
G1 X-46.882 Y74.909
G3 X-46.57 Y75.214 I0.007 J0.305
G1 Y86.592
G3 X-47.18 I-0.305
G1 Y80.903
X-46.875 Y75.214
G3 X-46.577 Y74.925 I0.305 J0.016
G1 X-45.656 Y74.905
G3 X-45.344 Y75.21 I0.007 J0.305
G1 Y85.9
Y86.587
G3 X-46.691 Y87.052 Z-2.055 I-0.754 F333.3
G1 X-53.771 Y78.03 Z-2.205
G2 X-55.118 Y78.495 Z-2.23 I-0.593 J0.465
G1 Y83.304 F1000
G3 X-55.728 I-0.305
G1 Y80.9
X-55.423 Y78.495
X-55.412 Y78.442
X-55.391 Y78.393
X-54.473 Y76.627
G3 X-53.897 Y76.768 I0.271 J0.141
G1 Y85.024
G3 X-54.507 I-0.305
G1 Y80.896
X-54.202 Y76.768
X-54.193 Y76.713
X-54.174 Y76.661
X-54.147 Y76.614
X-54.111 Y76.572
X-53.194 Y75.678
G3 X-52.676 Y75.896 I0.213 J0.219
G1 Y85.9
G3 X-53.286 I-0.305
G1 Y80.898
X-52.981 Y75.896
G3 X-52.826 Y75.649 I0.305 J0.019
G1 X-51.91 Y75.132
G3 X-51.454 Y75.398 I0.15 J0.266
G1 Y86.402
G3 X-52.065 I-0.305
G1 Y80.9
X-51.76 Y75.398
G3 X-51.513 Y75.115 I0.305 J0.017
G1 X-50.597 Y74.938
G3 X-50.233 Y75.238 I0.058 J0.3
G1 Y86.567
G3 X-50.844 I-0.305
G1 Y80.902
X-50.539 Y75.238
G3 X-50.249 Y74.949 I0.305 J0.016
G1 X-49.332 Y74.905
G3 X-49.012 Y75.21 I0.015 J0.305
G1 Y86.587
G3 X-49.623 I-0.305
G1 Y80.898
X-49.317 Y75.21
G3 X-49.015 Y74.921 I0.305 J0.016
G1 X-48.099 Y74.913
G3 X-47.791 Y75.218 I0.003 J0.305
G1 Y86.583
G3 X-48.402 I-0.305
G1 Y80.901
X-48.096 Y75.218
G3 X-47.798 Y74.929 I0.305 J0.016
G1 X-46.882 Y74.909
G3 X-46.57 Y75.214 I0.007 J0.305
G1 Y86.592
G3 X-47.18 I-0.305
G1 Y80.903
X-46.875 Y75.214
G3 X-46.577 Y74.925 I0.305 J0.016
G1 X-45.656 Y74.905
G3 X-45.344 Y75.21 I0.007 J0.305
G1 Y85.9
Y86.587
X-45.346 Y86.612
X-45.47 Y87.396
X-45.478 Y87.444 Z-2.222
X-45.484 Y87.488 Z-2.2
X-45.49 Y87.523 Z-2.165
X-45.493 Y87.545 Z-2.12
X-45.495 Y87.553 Z-2.071
G0 Z8
X55.118 Y74.62
Z3
G1 Z-0.841 F1000
Y74.612 Z-0.89
Y74.59 Z-0.935
Y74.555 Z-0.97
Y74.51 Z-0.992
Y74.461 Z-1
Y71.305
Y66.496
G3 X55.728 I0.305
G1 Y68.9
X55.423 Y71.305
X55.412 Y71.358
X55.391 Y71.407
X54.473 Y73.173
G3 X53.897 Y73.032 I-0.271 J-0.141
G1 Y64.776
G3 X54.507 I0.305
G1 Y68.904
X54.202 Y73.032
X54.193 Y73.086
X54.175 Y73.138
X54.147 Y73.185
X54.112 Y73.227
X53.218 Y74.11
G3 X52.698 Y73.892 I-0.214 J-0.217
G1 X52.721 Y63.911
G3 X53.331 Y63.913 I0.305 J0.001
G1 X53.32 Y68.903
X53.003 Y73.893
G3 X52.849 Y74.139 I-0.305 J-0.019
G1 X51.91 Y74.668
G3 X51.454 Y74.402 I-0.15 J-0.266
G1 Y63.398
G3 X52.065 I0.305
G1 Y68.9
X51.76 Y74.402
G3 X51.515 Y74.684 I-0.305 J-0.017
G1 X50.622 Y74.862
G3 X50.257 Y74.562 I-0.06 J-0.299
G1 X50.278 Y63.9
X50.276 Y63.237
G3 X50.581 Y62.931 I0.305 J-0.001
X50.886 Y63.236 J0.305
G1 X50.879 Y68.901
X50.562 Y74.563
G3 X50.272 Y74.851 I-0.305 J-0.017
G1 X49.332 Y74.895
G3 X49.012 Y74.59 I-0.014 J-0.305
G1 Y63.213
G3 X49.623 I0.305
G1 Y68.902
X49.317 Y74.59
G3 X49.016 Y74.879 I-0.305 J-0.016
G1 X48.125 Y74.888
G3 X47.817 Y74.582 I-0.003 J-0.305
G1 X47.836 Y63.9
X47.834 Y63.213
G3 X48.139 Y62.907 I0.305 J-0.001
X48.445 Y63.212 J0.305
G1 X48.438 Y68.899
X48.122 Y74.583
G3 X47.824 Y74.871 I-0.305 J-0.017
G1 X46.882 Y74.891
G3 X46.57 Y74.586 I-0.007 J-0.305
G1 Y63.208
G3 X47.18 I0.305
G1 Y68.897
X46.875 Y74.586
G3 X46.577 Y74.875 I-0.305 J-0.016
G1 X45.656 Y74.895
G3 X45.344 Y74.59 I-0.007 J-0.305
G1 Y63.9
Y63.213
G3 X46.691 Y62.748 Z-1.063 I0.754 F333.3
G1 X53.771 Y71.77 Z-1.452
G2 X55.118 Y71.305 Z-1.515 I0.593 J-0.465
G1 Y66.496 F1000
G3 X55.728 I0.305
G1 Y68.9
X55.423 Y71.305
X55.412 Y71.358
X55.391 Y71.407
X54.473 Y73.173
G3 X53.897 Y73.032 I-0.271 J-0.141
G1 Y64.776
G3 X54.507 I0.305
G1 Y68.904
X54.202 Y73.032
X54.193 Y73.086
X54.175 Y73.138
X54.147 Y73.185
X54.112 Y73.227
X53.218 Y74.11
G3 X52.698 Y73.892 I-0.214 J-0.217
G1 X52.721 Y63.911
G3 X53.331 Y63.913 I0.305 J0.001
G1 X53.32 Y68.903
X53.003 Y73.893
G3 X52.849 Y74.139 I-0.305 J-0.019
G1 X51.91 Y74.668
G3 X51.454 Y74.402 I-0.15 J-0.266
G1 Y63.398
G3 X52.065 I0.305
G1 Y68.9
X51.76 Y74.402
G3 X51.515 Y74.684 I-0.305 J-0.017
G1 X50.622 Y74.862
G3 X50.257 Y74.562 I-0.06 J-0.299
G1 X50.278 Y63.9
X50.276 Y63.237
G3 X50.581 Y62.931 I0.305 J-0.001
X50.886 Y63.236 J0.305
G1 X50.879 Y68.901
X50.562 Y74.563
G3 X50.272 Y74.851 I-0.305 J-0.017
G1 X49.332 Y74.895
G3 X49.012 Y74.59 I-0.014 J-0.305
G1 Y63.213
G3 X49.623 I0.305
G1 Y68.902
X49.317 Y74.59
G3 X49.016 Y74.879 I-0.305 J-0.016
G1 X48.125 Y74.888
G3 X47.817 Y74.582 I-0.003 J-0.305
G1 X47.836 Y63.9
X47.834 Y63.213
G3 X48.139 Y62.907 I0.305 J-0.001
X48.445 Y63.212 J0.305
G1 X48.438 Y68.899
X48.122 Y74.583
G3 X47.824 Y74.871 I-0.305 J-0.017
G1 X46.882 Y74.891
G3 X46.57 Y74.586 I-0.007 J-0.305
G1 Y63.208
G3 X47.18 I0.305
G1 Y68.897
X46.875 Y74.586
G3 X46.577 Y74.875 I-0.305 J-0.016
G1 X45.656 Y74.895
G3 X45.344 Y74.59 I-0.007 J-0.305
G1 Y63.9
Y63.213
G3 X46.691 Y62.748 Z-1.578 I0.754 F333.3
G1 X53.771 Y71.77 Z-1.967
G2 X55.118 Y71.305 Z-2.03 I0.593 J-0.465
G1 Y66.496 F1000
G3 X55.728 I0.305
G1 Y68.9
X55.423 Y71.305
X55.412 Y71.358
X55.391 Y71.407
X54.473 Y73.173
G3 X53.897 Y73.032 I-0.271 J-0.141
G1 Y64.776
G3 X54.507 I0.305
G1 Y68.904
X54.202 Y73.032
X54.193 Y73.086
X54.175 Y73.138
X54.147 Y73.185
X54.112 Y73.227
X53.218 Y74.11
G3 X52.698 Y73.892 I-0.214 J-0.217
G1 X52.721 Y63.911
G3 X53.331 Y63.913 I0.305 J0.001
G1 X53.32 Y68.903
X53.003 Y73.893
G3 X52.849 Y74.139 I-0.305 J-0.019
G1 X51.91 Y74.668
G3 X51.454 Y74.402 I-0.15 J-0.266
G1 Y63.398
G3 X52.065 I0.305
G1 Y68.9
X51.76 Y74.402
G3 X51.515 Y74.684 I-0.305 J-0.017
G1 X50.622 Y74.862
G3 X50.257 Y74.562 I-0.06 J-0.299
G1 X50.278 Y63.9
X50.276 Y63.237
G3 X50.581 Y62.931 I0.305 J-0.001
X50.886 Y63.236 J0.305
G1 X50.879 Y68.901
X50.562 Y74.563
G3 X50.272 Y74.851 I-0.305 J-0.017
G1 X49.332 Y74.895
G3 X49.012 Y74.59 I-0.014 J-0.305
G1 Y63.213
G3 X49.623 I0.305
G1 Y68.902
X49.317 Y74.59
G3 X49.016 Y74.879 I-0.305 J-0.016
G1 X48.125 Y74.888
G3 X47.817 Y74.582 I-0.003 J-0.305
G1 X47.836 Y63.9
X47.834 Y63.213
G3 X48.139 Y62.907 I0.305 J-0.001
X48.445 Y63.212 J0.305
G1 X48.438 Y68.899
X48.122 Y74.583
G3 X47.824 Y74.871 I-0.305 J-0.017
G1 X46.882 Y74.891
G3 X46.57 Y74.586 I-0.007 J-0.305
G1 Y63.208
G3 X47.18 I0.305
G1 Y68.897
X46.875 Y74.586
G3 X46.577 Y74.875 I-0.305 J-0.016
G1 X45.656 Y74.895
G3 X45.344 Y74.59 I-0.007 J-0.305
G1 Y63.9
Y63.213
G3 X46.691 Y62.748 Z-2.055 I0.754 F333.3
G1 X53.771 Y71.77 Z-2.205
G2 X55.118 Y71.305 Z-2.23 I0.593 J-0.465
G1 Y66.496 F1000
G3 X55.728 I0.305
G1 Y68.9
X55.423 Y71.305
X55.412 Y71.358
X55.391 Y71.407
X54.473 Y73.173
G3 X53.897 Y73.032 I-0.271 J-0.141
G1 Y64.776
G3 X54.507 I0.305
G1 Y68.904
X54.202 Y73.032
X54.193 Y73.086
X54.175 Y73.138
X54.147 Y73.185
X54.112 Y73.227
X53.218 Y74.11
G3 X52.698 Y73.892 I-0.214 J-0.217
G1 X52.721 Y63.911
G3 X53.331 Y63.913 I0.305 J0.001
G1 X53.32 Y68.903
X53.003 Y73.893
G3 X52.849 Y74.139 I-0.305 J-0.019
G1 X51.91 Y74.668
G3 X51.454 Y74.402 I-0.15 J-0.266
G1 Y63.398
G3 X52.065 I0.305
G1 Y68.9
X51.76 Y74.402
G3 X51.515 Y74.684 I-0.305 J-0.017
G1 X50.622 Y74.862
G3 X50.257 Y74.562 I-0.06 J-0.299
G1 X50.278 Y63.9
X50.276 Y63.237
G3 X50.581 Y62.931 I0.305 J-0.001
X50.886 Y63.236 J0.305
G1 X50.879 Y68.901
X50.562 Y74.563
G3 X50.272 Y74.851 I-0.305 J-0.017
G1 X49.332 Y74.895
G3 X49.012 Y74.59 I-0.014 J-0.305
G1 Y63.213
G3 X49.623 I0.305
G1 Y68.902
X49.317 Y74.59
G3 X49.016 Y74.879 I-0.305 J-0.016
G1 X48.125 Y74.888
G3 X47.817 Y74.582 I-0.003 J-0.305
G1 X47.836 Y63.9
X47.834 Y63.213
G3 X48.139 Y62.907 I0.305 J-0.001
X48.445 Y63.212 J0.305
G1 X48.438 Y68.899
X48.122 Y74.583
G3 X47.824 Y74.871 I-0.305 J-0.017
G1 X46.882 Y74.891
G3 X46.57 Y74.586 I-0.007 J-0.305
G1 Y63.208
G3 X47.18 I0.305
G1 Y68.897
X46.875 Y74.586
G3 X46.577 Y74.875 I-0.305 J-0.016
G1 X45.656 Y74.895
G3 X45.344 Y74.59 I-0.007 J-0.305
G1 Y63.9
Y63.213
X45.346 Y63.188
X45.47 Y62.404
X45.478 Y62.356 Z-2.222
X45.484 Y62.312 Z-2.2
X45.49 Y62.277 Z-2.165
X45.493 Y62.255 Z-2.12
X45.495 Y62.247 Z-2.071
G0 Z8
X55.118 Y86.62
Z3
G1 Z-0.841 F1000
Y86.612 Z-0.89
Y86.589 Z-0.935
Y86.554 Z-0.97
Y86.51 Z-0.992
Y86.461 Z-1
Y83.304
Y78.495
G3 X55.728 I0.305
G1 Y80.9
X55.423 Y83.304
X55.412 Y83.357
X55.391 Y83.407
X54.473 Y85.173
G3 X53.897 Y85.032 I-0.271 J-0.141
G1 Y76.776
G3 X54.507 I0.305
G1 Y80.904
X54.202 Y85.032
X54.193 Y85.086
X54.174 Y85.138
X54.147 Y85.186
X54.111 Y85.228
X53.194 Y86.122
G3 X52.676 Y85.903 I-0.213 J-0.219
G1 Y75.9
G3 X53.286 I0.305
G1 Y80.902
X52.981 Y85.903
G3 X52.826 Y86.151 I-0.305 J-0.019
G1 X51.91 Y86.667
G3 X51.454 Y86.401 I-0.15 J-0.266
G1 Y75.397
G3 X52.065 I0.305
G1 Y80.899
X51.76 Y86.401
G3 X51.513 Y86.684 I-0.305 J-0.017
G1 X50.597 Y86.862
G3 X50.233 Y86.562 I-0.058 J-0.3
G1 Y75.233
G3 X50.844 Y75.232 I0.305
G1 Y80.897
X50.539 Y86.562
G3 X50.249 Y86.85 I-0.305 J-0.016
G1 X49.332 Y86.895
G3 X49.012 Y86.59 I-0.015 J-0.305
G1 Y75.212
G3 X49.623 I0.305
G1 Y80.901
X49.317 Y86.59
G3 X49.019 Y86.879 I-0.305 J-0.016
G1 X48.103 Y86.899
G3 X47.791 Y86.594 I-0.007 J-0.305
G1 Y75.216
G3 X48.402 I0.305
G1 Y80.905
X48.096 Y86.594
G3 X47.794 Y86.883 I-0.305 J-0.016
G1 X46.878 Y86.891
G3 X46.57 Y86.585 I-0.003 J-0.305
G1 Y75.208
G3 X47.18 I0.305
G1 Y80.897
X46.875 Y86.585
G3 X46.577 Y86.874 I-0.305 J-0.016
G1 X45.656 Y86.895
G3 X45.344 Y86.589 I-0.007 J-0.305
G1 Y75.9
Y75.213
G3 X46.691 Y74.748 Z-1.063 I0.754 F333.3
G1 X53.771 Y83.77 Z-1.452
G2 X55.118 Y83.304 Z-1.515 I0.593 J-0.465
G1 Y78.495 F1000
G3 X55.728 I0.305
G1 Y80.9
X55.423 Y83.304
X55.412 Y83.357
X55.391 Y83.407
X54.473 Y85.173
G3 X53.897 Y85.032 I-0.271 J-0.141
G1 Y76.776
G3 X54.507 I0.305
G1 Y80.904
X54.202 Y85.032
X54.193 Y85.086
X54.174 Y85.138
X54.147 Y85.186
X54.111 Y85.228
X53.194 Y86.122
G3 X52.676 Y85.903 I-0.213 J-0.219
G1 Y75.9
G3 X53.286 I0.305
G1 Y80.902
X52.981 Y85.903
G3 X52.826 Y86.151 I-0.305 J-0.019
G1 X51.91 Y86.667
G3 X51.454 Y86.401 I-0.15 J-0.266
G1 Y75.397
G3 X52.065 I0.305
G1 Y80.899
X51.76 Y86.401
G3 X51.513 Y86.684 I-0.305 J-0.017
G1 X50.597 Y86.862
G3 X50.233 Y86.562 I-0.058 J-0.3
G1 Y75.233
G3 X50.844 Y75.232 I0.305
G1 Y80.897
X50.539 Y86.562
G3 X50.249 Y86.85 I-0.305 J-0.016
G1 X49.332 Y86.895
G3 X49.012 Y86.59 I-0.015 J-0.305
G1 Y75.212
G3 X49.623 I0.305
G1 Y80.901
X49.317 Y86.59
G3 X49.019 Y86.879 I-0.305 J-0.016
G1 X48.103 Y86.899
G3 X47.791 Y86.594 I-0.007 J-0.305
G1 Y75.216
G3 X48.402 I0.305
G1 Y80.905
X48.096 Y86.594
G3 X47.794 Y86.883 I-0.305 J-0.016
G1 X46.878 Y86.891
G3 X46.57 Y86.585 I-0.003 J-0.305
G1 Y75.208
G3 X47.18 I0.305
G1 Y80.897
X46.875 Y86.585
G3 X46.577 Y86.874 I-0.305 J-0.016
G1 X45.656 Y86.895
G3 X45.344 Y86.589 I-0.007 J-0.305
G1 Y75.9
Y75.213
G3 X46.691 Y74.748 Z-1.578 I0.754 F333.3
G1 X53.771 Y83.77 Z-1.967
G2 X55.118 Y83.304 Z-2.03 I0.593 J-0.465
G1 Y78.495 F1000
G3 X55.728 I0.305
G1 Y80.9
X55.423 Y83.304
X55.412 Y83.357
X55.391 Y83.407
X54.473 Y85.173
G3 X53.897 Y85.032 I-0.271 J-0.141
G1 Y76.776
G3 X54.507 I0.305
G1 Y80.904
X54.202 Y85.032
X54.193 Y85.086
X54.174 Y85.138
X54.147 Y85.186
X54.111 Y85.228
X53.194 Y86.122
G3 X52.676 Y85.903 I-0.213 J-0.219
G1 Y75.9
G3 X53.286 I0.305
G1 Y80.902
X52.981 Y85.903
G3 X52.826 Y86.151 I-0.305 J-0.019
G1 X51.91 Y86.667
G3 X51.454 Y86.401 I-0.15 J-0.266
G1 Y75.397
G3 X52.065 I0.305
G1 Y80.899
X51.76 Y86.401
G3 X51.513 Y86.684 I-0.305 J-0.017
G1 X50.597 Y86.862
G3 X50.233 Y86.562 I-0.058 J-0.3
G1 Y75.233
G3 X50.844 Y75.232 I0.305
G1 Y80.897
X50.539 Y86.562
G3 X50.249 Y86.85 I-0.305 J-0.016
G1 X49.332 Y86.895
G3 X49.012 Y86.59 I-0.015 J-0.305
G1 Y75.212
G3 X49.623 I0.305
G1 Y80.901
X49.317 Y86.59
G3 X49.019 Y86.879 I-0.305 J-0.016
G1 X48.103 Y86.899
G3 X47.791 Y86.594 I-0.007 J-0.305
G1 Y75.216
G3 X48.402 I0.305
G1 Y80.905
X48.096 Y86.594
G3 X47.794 Y86.883 I-0.305 J-0.016
G1 X46.878 Y86.891
G3 X46.57 Y86.585 I-0.003 J-0.305
G1 Y75.208
G3 X47.18 I0.305
G1 Y80.897
X46.875 Y86.585
G3 X46.577 Y86.874 I-0.305 J-0.016
G1 X45.656 Y86.895
G3 X45.344 Y86.589 I-0.007 J-0.305
G1 Y75.9
Y75.213
G3 X46.691 Y74.748 Z-2.055 I0.754 F333.3
G1 X53.771 Y83.77 Z-2.205
G2 X55.118 Y83.304 Z-2.23 I0.593 J-0.465
G1 Y78.495 F1000
G3 X55.728 I0.305
G1 Y80.9
X55.423 Y83.304
X55.412 Y83.357
X55.391 Y83.407
X54.473 Y85.173
G3 X53.897 Y85.032 I-0.271 J-0.141
G1 Y76.776
G3 X54.507 I0.305
G1 Y80.904
X54.202 Y85.032
X54.193 Y85.086
X54.174 Y85.138
X54.147 Y85.186
X54.111 Y85.228
X53.194 Y86.122
G3 X52.676 Y85.903 I-0.213 J-0.219
G1 Y75.9
G3 X53.286 I0.305
G1 Y80.902
X52.981 Y85.903
G3 X52.826 Y86.151 I-0.305 J-0.019
G1 X51.91 Y86.667
G3 X51.454 Y86.401 I-0.15 J-0.266
G1 Y75.397
G3 X52.065 I0.305
G1 Y80.899
X51.76 Y86.401
G3 X51.513 Y86.684 I-0.305 J-0.017
G1 X50.597 Y86.862
G3 X50.233 Y86.562 I-0.058 J-0.3
G1 Y75.233
G3 X50.844 Y75.232 I0.305
G1 Y80.897
X50.539 Y86.562
G3 X50.249 Y86.85 I-0.305 J-0.016
G1 X49.332 Y86.895
G3 X49.012 Y86.59 I-0.015 J-0.305
G1 Y75.212
G3 X49.623 I0.305
G1 Y80.901
X49.317 Y86.59
G3 X49.019 Y86.879 I-0.305 J-0.016
G1 X48.103 Y86.899
G3 X47.791 Y86.594 I-0.007 J-0.305
G1 Y75.216
G3 X48.402 I0.305
G1 Y80.905
X48.096 Y86.594
G3 X47.794 Y86.883 I-0.305 J-0.016
G1 X46.878 Y86.891
G3 X46.57 Y86.585 I-0.003 J-0.305
G1 Y75.208
G3 X47.18 I0.305
G1 Y80.897
X46.875 Y86.585
G3 X46.577 Y86.874 I-0.305 J-0.016
G1 X45.656 Y86.895
G3 X45.344 Y86.589 I-0.007 J-0.305
G1 Y75.9
Y75.213
X45.346 Y75.188
X45.47 Y74.404
X45.478 Y74.356 Z-2.222
X45.484 Y74.312 Z-2.2
X45.49 Y74.277 Z-2.165
X45.493 Y74.255 Z-2.12
X45.495 Y74.247 Z-2.071
G0 Z8
G28 G91 Z0
G90
G28 G91 X0 Y0
G90
M30
