(1DOF)
(T1  D=3.175 CR=0 - ZMIN=-3.2 - flat end mill)
G90 G94
G17
G21
G28 G91 Z0
G90

(2D Contour2)
S5000 M3
G54
M8
G0 X-1.96 Y15.318
Z8
Z2
G1 Z-0.683 F333.3
G18 G3 X-2.277 Z-1 I-0.317 K0
G1 X-2.595 F1000
G17 G3 X-2.912 Y15 I0 J-0.318
G1 Y-23.413
X5.5
G2 X5.5 Y-36.588 I0 J-6.587
G1 X-2.912
Y-50
G2 X-16.087 Y-50 I-6.588 J0
G1 Y-36.588
X-24.5
G2 X-24.5 Y-23.413 I0 J6.588
G1 X-16.087
Y50
G2 X-2.912 Y50 I6.587 J0
G1 Y15
G3 X-2.595 Y14.682 I0.317 J0
G1 X-2.277
G18 G2 X-1.96 Z-0.683 I0 K0.317
G0 Z3
X-2.038 Y29.647
Z2
G1 Z-0.683 F333.3
X-2.03 Z-0.753
X-2.007 Z-0.82
X-1.969 Z-0.88
X-1.919 Z-0.931
X-1.859 Z-0.969
X-1.792 Y29.648 Z-0.992
X-1.721 Z-1
X-1.403 Y29.65 F1000
G17 G3 X-1.087 Y29.969 I-0.002 J0.317
G2 X5.5 Y36.588 I6.587 J0.031
G1 X13.913
Y50
G2 X27.087 Y50 I6.587 J0
G1 Y36.588
X35.5
G2 X35.5 Y23.413 I0 J-6.588
G1 X27.087
Y-50
G2 X13.913 Y-50 I-6.587 J0
G1 Y23.413
X5.5
G2 X-1.087 Y29.969 I0 J6.587
G3 X-1.406 Y30.285 I-0.317 J-0.002
G1 X-1.724 Y30.283
X-1.795 Z-0.992
X-1.862 Y30.282 Z-0.969
X-1.922 Z-0.931
X-1.972 Z-0.88
X-2.01 Z-0.82
X-2.033 Z-0.753
X-2.041 Z-0.683
G0 Z3
X-16.962 Y30.353
Z2
G1 Z-0.683 F333.3
X-16.97 Z-0.753
X-16.993 Z-0.82
X-17.031 Z-0.88
X-17.081 Z-0.931
X-17.141 Z-0.969
X-17.208 Y30.352 Z-0.992
X-17.279 Z-1
X-17.597 Y30.35 F1000
G3 X-17.913 Y30.031 I0.002 J-0.317
G2 X-24.5 Y23.413 I-6.587 J-0.031
G1 X-32.912
Y-50
G2 X-46.088 Y-50 I-6.588 J0
G1 Y23.413
X-54.5
G2 X-54.5 Y36.588 I0 J6.587
G1 X-46.088
Y50
G2 X-32.912 Y50 I6.588 J0
G1 Y36.588
X-24.5
G2 X-17.913 Y30.031 I0 J-6.588
G3 X-17.594 Y29.715 I0.317 J0.002
G1 X-17.276 Y29.717
X-17.205 Z-0.992
X-17.138 Y29.718 Z-0.969
X-17.078 Z-0.931
X-17.028 Z-0.88
X-16.99 Z-0.82
X-16.967 Z-0.753
X-16.959 Z-0.683
G0 Z3
X-17.04 Y44.682
Z2
G1 Z1 F333.3
Z-1.683
G18 G2 X-16.722 Z-2 I0.318 K0
G1 X-16.405 F1000
G17 G3 X-16.087 Y45 I0 J0.318
G1 Y50
G2 X-2.912 Y50 I6.587 J0
G1 Y-23.413
X5.5
G2 X5.5 Y-36.588 I0 J-6.587
G1 X-2.912
Y-50
G2 X-16.087 Y-50 I-6.588 J0
G1 Y-36.588
X-24.5
G2 X-24.5 Y-23.413 I0 J6.588
G1 X-16.087
Y45
G3 X-16.405 Y45.318 I-0.318 J0
G1 X-16.722
G18 G3 X-17.04 Z-1.683 I0 K0.317
G0 Z3
X-31.96 Y50.318
Z2
G1 Z1 F333.3
Z-1.683
G3 X-32.278 Z-2 I-0.318 K0
G1 X-32.595 F1000
G17 G3 X-32.912 Y50 I0 J-0.318
G1 Y36.588
X-24.5
G2 X-24.5 Y23.413 I0 J-6.588
G1 X-32.912
Y-50
G2 X-46.088 Y-50 I-6.588 J0
G1 Y23.413
X-54.5
G2 X-54.5 Y36.588 I0 J6.587
G1 X-46.088
Y50
G2 X-32.912 Y50 I6.588 J0
G3 X-32.595 Y49.682 I0.317 J0
G1 X-32.278
G18 G2 X-31.96 Z-1.683 I0 K0.317
G0 Z3
Y50.318
Z2
G1 Z0 F333.3
Z-2.683
G3 X-32.278 Z-3 I-0.318 K0
G1 X-32.595 F1000
G17 G3 X-32.912 Y50 I0 J-0.318
G1 Y36.588
X-24.5
G2 X-24.5 Y23.413 I0 J-6.588
G1 X-32.912
Y-50
G2 X-46.088 Y-50 I-6.588 J0
G1 Y23.413
X-54.5
G2 X-54.5 Y36.588 I0 J6.587
G1 X-46.088
Y50
G2 X-32.912 Y50 I6.588 J0
G3 X-32.595 Y49.682 I0.317 J0
G1 X-32.278
G18 G2 X-31.96 Z-2.683 I0 K0.318
G0 Z3
X42.96 Y43.682
Z2
G1 Z-0.683 F333.3
G2 X43.278 Z-1 I0.318 K0
G1 X43.595 F1000
G17 G3 X43.912 Y44 I0 J0.318
G2 X45.5 Y45.588 I1.588 J0
G1 X55.5
G2 X57.088 Y44 I0 J-1.588
G1 Y-23.413
X59.5
G2 X61.088 Y-25 I0 J-1.587
G1 Y-35
G2 X59.5 Y-36.588 I-1.588 J0
G1 X57.088
Y-44
G2 X55.5 Y-45.588 I-1.588 J0
G1 X45.5
G2 X43.912 Y-44 I0 J1.588
G1 Y-36.588
X41.5
G2 X39.912 Y-35 I0 J1.588
G1 Y-25
G2 X41.5 Y-23.413 I1.588 J0
G1 X43.912
Y44
G3 X43.595 Y44.318 I-0.317 J0
G1 X43.278
G18 G3 X42.96 Z-0.683 I0 K0.317
G0 Z3
Y43.682
Z2
G1 Z1 F333.3
Z-1.683
G2 X43.278 Z-2 I0.318 K0
G1 X43.595 F1000
G17 G3 X43.912 Y44 I0 J0.318
G2 X45.5 Y45.588 I1.588 J0
G1 X55.5
G2 X57.088 Y44 I0 J-1.588
G1 Y-23.413
X59.5
G2 X61.088 Y-25 I0 J-1.587
G1 Y-35
G2 X59.5 Y-36.588 I-1.588 J0
G1 X57.088
Y-44
G2 X55.5 Y-45.588 I-1.588 J0
G1 X45.5
G2 X43.912 Y-44 I0 J1.588
G1 Y-36.588
X41.5
G2 X39.912 Y-35 I0 J1.588
G1 Y-25
G2 X41.5 Y-23.413 I1.588 J0
G1 X43.912
Y44
G3 X43.595 Y44.318 I-0.317 J0
G1 X43.278
G18 G3 X42.96 Z-1.683 I0 K0.317
G0 Z3
X43.038 Y30.353
Z2
G1 Z1 F333.3
Z-1.683
X43.03 Z-1.753
X43.007 Z-1.82
X42.969 Z-1.88
X42.919 Z-1.931
X42.859 Z-1.969
X42.792 Y30.352 Z-1.992
X42.721 Z-2
X42.403 Y30.35 F1000
G17 G3 X42.087 Y30.031 I0.002 J-0.317
G2 X35.5 Y23.413 I-6.587 J-0.031
G1 X27.087
Y-50
G2 X13.913 Y-50 I-6.587 J0
G1 Y23.413
X5.5
G2 X5.5 Y36.588 I0 J6.587
G1 X13.913
Y50
G2 X27.087 Y50 I6.587 J0
G1 Y36.588
X35.5
G2 X42.087 Y30.031 I0 J-6.588
G3 X42.406 Y29.715 I0.317 J0.002
G1 X42.724 Y29.717
X42.795 Z-1.992
X42.862 Y29.718 Z-1.969
X42.922 Z-1.931
X42.972 Z-1.88
X43.01 Z-1.82
X43.033 Z-1.753
X43.041 Z-1.683
G0 Z3
X42.96 Y29.647
Z2
G1 Z0 F333.3
Z-2.683
G18 G2 X43.278 Z-3 I0.318 K0
G1 X43.595 F1000
G17 G3 X43.912 Y29.964 I0 J0.318
G1 Y44
G2 X45.5 Y45.588 I1.588 J0
G1 X55.5
G2 X57.088 Y44 I0 J-1.588
G1 Y-23.413
X59.5
G2 X61.088 Y-25 I0 J-1.587
G1 Y-35
G2 X59.5 Y-36.588 I-1.588 J0
G1 X57.088
Y-44
G2 X55.5 Y-45.588 I-1.588 J0
G1 X45.5
G2 X43.912 Y-44 I0 J1.588
G1 Y-36.588
X41.5
G2 X39.912 Y-35 I0 J1.588
G1 Y-25
G2 X41.5 Y-23.413 I1.588 J0
G1 X43.912
Y29.964
G3 X43.595 Y30.282 I-0.317 J0
G1 X43.278
G18 G3 X42.96 Z-2.683 I0 K0.318
G0 Z3
X43.038 Y30.353
Z2
G1 Z0 F333.3
Z-2.683
X43.03 Z-2.753
X43.007 Z-2.82
X42.969 Z-2.88
X42.919 Z-2.931
X42.859 Z-2.969
X42.792 Y30.352 Z-2.992
X42.721 Z-3
X42.403 Y30.35 F1000
G17 G3 X42.087 Y30.031 I0.002 J-0.317
G2 X35.5 Y23.413 I-6.587 J-0.031
G1 X27.087
Y-50
G2 X13.913 Y-50 I-6.587 J0
G1 Y23.413
X5.5
G2 X5.5 Y36.588 I0 J6.587
G1 X13.913
Y50
G2 X27.087 Y50 I6.587 J0
G1 Y36.588
X35.5
G2 X42.087 Y30.031 I0 J-6.588
G3 X42.406 Y29.715 I0.317 J0.002
G1 X42.724 Y29.717
X42.795 Z-2.992
X42.862 Y29.718 Z-2.969
X42.922 Z-2.931
X42.972 Z-2.88
X43.01 Z-2.82
X43.033 Z-2.753
X43.041 Z-2.683
G0 Z3
X42.96 Y29.647
Z2
G1 Z-1 F333.3
Z-2.883
G18 G2 X43.278 Z-3.2 I0.318 K0
G1 X43.595 F1000
G17 G3 X43.912 Y29.964 I0 J0.318
G1 Y44
G2 X45.5 Y45.588 I1.588 J0
G1 X55.5
G2 X57.088 Y44 I0 J-1.588
G1 Y-23.413
X59.5
G2 X61.088 Y-25 I0 J-1.587
G1 Y-35
G2 X59.5 Y-36.588 I-1.588 J0
G1 X57.088
Y-44
G2 X55.5 Y-45.588 I-1.588 J0
G1 X45.5
G2 X43.912 Y-44 I0 J1.588
G1 Y-36.588
X41.5
G2 X39.912 Y-35 I0 J1.588
G1 Y-25
G2 X41.5 Y-23.413 I1.588 J0
G1 X43.912
Y29.964
G3 X43.595 Y30.282 I-0.317 J0
G1 X43.278
G18 G3 X42.96 Z-2.883 I0 K0.318
G0 Z3
X-1.96 Y15.318
Z2
G1 Z0 F333.3
Z-2.683
G3 X-2.277 Z-3 I-0.317 K0
G1 X-2.595 F1000
G17 G3 X-2.912 Y15 I0 J-0.318
G1 Y-23.413
X5.5
G2 X5.5 Y-36.588 I0 J-6.587
G1 X-2.912
Y-50
G2 X-16.087 Y-50 I-6.588 J0
G1 Y-36.588
X-24.5
G2 X-24.5 Y-23.413 I0 J6.588
G1 X-16.087
Y50
G2 X-2.912 Y50 I6.587 J0
G1 Y15
G3 X-2.595 Y14.682 I0.317 J0
G1 X-2.277
G18 G2 X-1.96 Z-2.683 I0 K0.318
G0 Z3
Y15.318
Z2
G1 Z-1 F333.3
Z-2.883
G3 X-2.277 Z-3.2 I-0.317 K0
G1 X-2.595 F1000
G17 G3 X-2.912 Y15 I0 J-0.318
G1 Y-23.413
X5.5
G2 X5.5 Y-36.588 I0 J-6.587
G1 X-2.912
Y-50
G2 X-16.087 Y-50 I-6.588 J0
G1 Y-36.588
X-24.5
G2 X-24.5 Y-23.413 I0 J6.588
G1 X-16.087
Y50
G2 X-2.912 Y50 I6.587 J0
G1 Y15
G3 X-2.595 Y14.682 I0.317 J0
G1 X-2.277
G18 G2 X-1.96 Z-2.883 I0 K0.318
G0 Z3
X-2.038 Y29.647
Z2
G1 Z-1 F333.3
Z-2.883
X-2.03 Z-2.953
X-2.007 Z-3.02
X-1.969 Z-3.08
X-1.919 Z-3.131
X-1.859 Z-3.169
X-1.792 Y29.648 Z-3.192
X-1.721 Z-3.2
X-1.403 Y29.65 F1000
G17 G3 X-1.087 Y29.969 I-0.002 J0.317
G2 X5.5 Y36.588 I6.587 J0.031
G1 X13.913
Y50
G2 X27.087 Y50 I6.587 J0
G1 Y36.588
X35.5
G2 X35.5 Y23.413 I0 J-6.588
G1 X27.087
Y-50
G2 X13.913 Y-50 I-6.587 J0
G1 Y23.413
X5.5
G2 X-1.087 Y29.969 I0 J6.587
G3 X-1.406 Y30.285 I-0.317 J-0.002
G1 X-1.724 Y30.283
X-1.795 Z-3.192
X-1.862 Y30.282 Z-3.169
X-1.922 Z-3.131
X-1.972 Z-3.08
X-2.01 Z-3.02
X-2.033 Z-2.953
X-2.041 Z-2.883
G0 Z3
X-16.962 Y30.353
Z2
G1 Z-1 F333.3
Z-2.883
X-16.97 Z-2.953
X-16.993 Z-3.02
X-17.031 Z-3.08
X-17.081 Z-3.131
X-17.141 Z-3.169
X-17.208 Y30.352 Z-3.192
X-17.279 Z-3.2
X-17.597 Y30.35 F1000
G3 X-17.913 Y30.031 I0.002 J-0.317
G2 X-24.5 Y23.413 I-6.587 J-0.031
G1 X-32.912
Y-50
G2 X-46.088 Y-50 I-6.588 J0
G1 Y23.413
X-54.5
G2 X-54.5 Y36.588 I0 J6.587
G1 X-46.088
Y50
G2 X-32.912 Y50 I6.588 J0
G1 Y36.588
X-24.5
G2 X-17.913 Y30.031 I0 J-6.588
G3 X-17.594 Y29.715 I0.317 J0.002
G1 X-17.276 Y29.717
X-17.205 Z-3.192
X-17.138 Y29.718 Z-3.169
X-17.078 Z-3.131
X-17.028 Z-3.08
X-16.99 Z-3.02
X-16.967 Z-2.953
X-16.959 Z-2.883
G0 Z8
M9
G28 G91 Z0
G90
G28 G91 X0 Y0
G90
M5
M30
