(1001)
(T1  D=3.175 CR=0 - ZMIN=-3.19 - flat end mill)
G90 G94
G17
G21
G28 G91 Z0
G90

(2D Contour1)
M9
S5000 M3
G54
M8
G0 X7.54 Y-5.625
Z5
Z2
G1 Z1.5 F333.3
Z-0.183
G18 G3 X7.222 Z-0.5 I-0.318
G1 X6.905 F1000
G17 G3 X6.588 Y-5.943 J-0.318
G1 Y-105
G2 X-6.588 I-6.588
G1 Y-5
G2 X6.588 I6.588
G1 Y-5.943
G3 X6.905 Y-6.26 I0.318
G1 X7.222
G18 G2 X7.54 Z-0.183 K0.317
G0 Z2
Y-5.625
G1 Z1 F333.3
Z-0.683
G3 X7.222 Z-1 I-0.318
G1 X6.905 F1000
G17 G3 X6.588 Y-5.943 J-0.318
G1 Y-105
G2 X-6.588 I-6.588
G1 Y-5
G2 X6.588 I6.588
G1 Y-5.943
G3 X6.905 Y-6.26 I0.318
G1 X7.222
G18 G2 X7.54 Z-0.683 K0.317
G0 Z2
Y-5.625
G1 Z0.5 F333.3
Z-1.183
G3 X7.222 Z-1.5 I-0.318
G1 X6.905 F1000
G17 G3 X6.588 Y-5.943 J-0.318
G1 Y-105
G2 X-6.588 I-6.588
G1 Y-5
G2 X6.588 I6.588
G1 Y-5.943
G3 X6.905 Y-6.26 I0.318
G1 X7.222
G18 G2 X7.54 Z-1.183 K0.317
G0 Z2
Y-5.625
G1 Z0 F333.3
Z-1.683
G3 X7.222 Z-2 I-0.318
G1 X6.905 F1000
G17 G3 X6.588 Y-5.943 J-0.318
G1 Y-105
G2 X-6.588 I-6.588
G1 Y-5
G2 X6.588 I6.588
G1 Y-5.943
G3 X6.905 Y-6.26 I0.318
G1 X7.222
G18 G2 X7.54 Z-1.683 K0.317
G0 Z2
Y-5.625
G1 Z-0.5 F333.3
Z-2.183
G3 X7.222 Z-2.5 I-0.318
G1 X6.905 F1000
G17 G3 X6.588 Y-5.943 J-0.318
G1 Y-105
G2 X-6.588 I-6.588
G1 Y-5
G2 X6.588 I6.588
G1 Y-5.943
G3 X6.905 Y-6.26 I0.318
G1 X7.222
G18 G2 X7.54 Z-2.183 K0.318
G0 Z2
Y-5.625
G1 Z-1 F333.3
Z-2.673
G3 X7.222 Z-2.99 I-0.318
G1 X6.905 F1000
G17 G3 X6.588 Y-5.943 J-0.318
G1 Y-105
G2 X-6.588 I-6.588
G1 Y-5
G2 X6.588 I6.588
G1 Y-5.943
G3 X6.905 Y-6.26 I0.318
G1 X7.222
G18 G2 X7.54 Z-2.673 K0.318
G0 Z2
Y-5.625
G1 Z-1.49 F333.3
Z-2.873
G3 X7.222 Z-3.19 I-0.318
G1 X6.905 F1000
G17 G3 X6.588 Y-5.943 J-0.318
G1 Y-105
G2 X-6.588 I-6.588
G1 Y-5
G2 X6.588 I6.588
G1 Y-5.943
G3 X6.905 Y-6.26 I0.318
G1 X7.222
G18 G2 X7.54 Z-2.873 K0.318
G0 Z5
G17
M9
G28 G91 Z0
G90
G28 G91 X0 Y0
G90
M30