(ActiveLeg)
(T1  D=1 CR=0 - ZMIN=-4.4 - flat end mill)
G90 G94
G17
G21
(When using Fusion 360 for Personal Use, the feedrate of)
(rapid moves is reduced to match the feedrate of cutting)
(moves, which can increase machining time. Unrestricted rapid)
(moves are available with a Fusion 360 Subscription.)

(Holes)
S20000 M3
G54
G0 X35.351 Y22.368
Z3
G1 Z1 F300
Z-0.6 F20
G3 X34.401 Y22.368 I-0.475 J0 F300
X35.351 Y22.368 I0.475 J0
G1 Z-1.2 F20
G3 X34.401 Y22.368 I-0.475 J0 F300
X35.351 Y22.368 I0.475 J0
G1 Z-1.8 F20
G3 X34.401 Y22.368 I-0.475 J0 F300
X35.351 Y22.368 I0.475 J0
G1 Z-2.4 F20
G3 X34.401 Y22.368 I-0.475 J0 F300
X35.351 Y22.368 I0.475 J0
G1 Z-3 F20
G3 X34.401 Y22.368 I-0.475 J0 F300
X35.351 Y22.368 I0.475 J0
G1 Z-3.6 F20
G3 X34.401 Y22.368 I-0.475 J0 F300
X35.351 Y22.368 I0.475 J0
G1 Z-4.2 F20
G3 X34.401 Y22.368 I-0.475 J0 F300
X35.351 Y22.368 I0.475 J0
G1 Z-4.4 F20
G3 X34.401 Y22.368 I-0.475 J0 F300
X35.351 Y22.368 I0.475 J0
G1 Z2
X25.392 Y23.277
Z1
Z-0.6 F20
G3 X24.442 Y23.277 I-0.475 J0 F300
X25.392 Y23.277 I0.475 J0
G1 Z-1.2 F20
G3 X24.442 Y23.277 I-0.475 J0 F300
X25.392 Y23.277 I0.475 J0
G1 Z-1.8 F20
G3 X24.442 Y23.277 I-0.475 J0 F300
X25.392 Y23.277 I0.475 J0
G1 Z-2.4 F20
G3 X24.442 Y23.277 I-0.475 J0 F300
X25.392 Y23.277 I0.475 J0
G1 Z-3 F20
G3 X24.442 Y23.277 I-0.475 J0 F300
X25.392 Y23.277 I0.475 J0
G1 Z-3.6 F20
G3 X24.442 Y23.277 I-0.475 J0 F300
X25.392 Y23.277 I0.475 J0
G1 Z-4.2 F20
G3 X24.442 Y23.277 I-0.475 J0 F300
X25.392 Y23.277 I0.475 J0
G1 Z-4.4 F20
G3 X24.442 Y23.277 I-0.475 J0 F300
X25.392 Y23.277 I0.475 J0
G1 Z2
X15.519 Y20.095
Z1
Z-0.6 F20
G3 X13.57 Y20.095 I-0.975 J0 F300
X15.519 Y20.095 I0.975 J0
G1 Z-1.2 F20
G3 X13.57 Y20.095 I-0.975 J0 F300
X15.519 Y20.095 I0.975 J0
G1 Z-1.8 F20
G3 X13.57 Y20.095 I-0.975 J0 F300
X15.519 Y20.095 I0.975 J0
G1 Z-2.4 F20
G3 X13.57 Y20.095 I-0.975 J0 F300
X15.519 Y20.095 I0.975 J0
G1 Z-3 F20
G3 X13.57 Y20.095 I-0.975 J0 F300
X15.519 Y20.095 I0.975 J0
G1 Z-3.6 F20
G3 X13.57 Y20.095 I-0.975 J0 F300
X15.519 Y20.095 I0.975 J0
G1 Z-4.2 F20
G3 X13.57 Y20.095 I-0.975 J0 F300
X15.519 Y20.095 I0.975 J0
G1 Z-4.4 F20
G3 X13.57 Y20.095 I-0.975 J0 F300
X15.519 Y20.095 I0.975 J0
G1 Z2
Y10.095
Z1
Z-0.6 F20
G3 X14.545 Y11.07 I-0.975 J0 F300
X14.545 Y9.12 I0 J-0.975
X15.519 Y10.095 I0 J0.975
G1 Z-1.2 F20
G3 X14.545 Y11.07 I-0.975 J0 F300
X14.545 Y9.12 I0 J-0.975
X15.519 Y10.095 I0 J0.975
G1 Z-1.8 F20
G3 X14.545 Y11.07 I-0.975 J0 F300
X14.545 Y9.12 I0 J-0.975
X15.519 Y10.095 I0 J0.975
G1 Z-2.4 F20
G3 X14.545 Y11.07 I-0.975 J0 F300
X14.545 Y9.12 I0 J-0.975
X15.519 Y10.095 I0 J0.975
G1 Z-3 F20
G3 X14.545 Y11.07 I-0.975 J0 F300
X14.545 Y9.12 I0 J-0.975
X15.519 Y10.095 I0 J0.975
G1 Z-3.6 F20
G3 X14.545 Y11.07 I-0.975 J0 F300
X14.545 Y9.12 I0 J-0.975
X15.519 Y10.095 I0 J0.975
G1 Z-4.2 F20
G3 X14.545 Y11.07 I-0.975 J0 F300
X14.545 Y9.12 I0 J-0.975
X15.519 Y10.095 I0 J0.975
G1 Z-4.4 F20
G3 X14.545 Y11.07 I-0.975 J0 F300
X14.545 Y9.12 I0 J-0.975
X15.519 Y10.095 I0 J0.975
G1 Z2
X5.475 Y5.095
Z1
Z-0.6 F20
G3 X4.525 Y5.095 I-0.475 J0 F300
X5.475 Y5.095 I0.475 J0
G1 Z-1.2 F20
G3 X4.525 Y5.095 I-0.475 J0 F300
X5.475 Y5.095 I0.475 J0
G1 Z-1.8 F20
G3 X4.525 Y5.095 I-0.475 J0 F300
X5.475 Y5.095 I0.475 J0
G1 Z-2.4 F20
G3 X4.525 Y5.095 I-0.475 J0 F300
X5.475 Y5.095 I0.475 J0
G1 Z-3 F20
G3 X4.525 Y5.095 I-0.475 J0 F300
X5.475 Y5.095 I0.475 J0
G1 Z-3.6 F20
G3 X4.525 Y5.095 I-0.475 J0 F300
X5.475 Y5.095 I0.475 J0
G1 Z-4.2 F20
G3 X4.525 Y5.095 I-0.475 J0 F300
X5.475 Y5.095 I0.475 J0
G1 Z-4.4 F20
G3 X4.525 Y5.095 I-0.475 J0 F300
X5.475 Y5.095 I0.475 J0
G1 Z2
Y25.095
Z1
Z-0.6 F20
G3 X4.525 Y25.095 I-0.475 J0 F300
X5.475 Y25.095 I0.475 J0
G1 Z-1.2 F20
G3 X4.525 Y25.095 I-0.475 J0 F300
X5.475 Y25.095 I0.475 J0
G1 Z-1.8 F20
G3 X4.525 Y25.095 I-0.475 J0 F300
X5.475 Y25.095 I0.475 J0
G1 Z-2.4 F20
G3 X4.525 Y25.095 I-0.475 J0 F300
X5.475 Y25.095 I0.475 J0
G1 Z-3 F20
G3 X4.525 Y25.095 I-0.475 J0 F300
X5.475 Y25.095 I0.475 J0
G1 Z-3.6 F20
G3 X4.525 Y25.095 I-0.475 J0 F300
X5.475 Y25.095 I0.475 J0
G1 Z-4.2 F20
G3 X4.525 Y25.095 I-0.475 J0 F300
X5.475 Y25.095 I0.475 J0
G1 Z-4.4 F20
G3 X4.525 Y25.095 I-0.475 J0 F300
X5.475 Y25.095 I0.475 J0
G1 Z2
X98.832 Y29.256
Z1
Z-0.6 F20
G3 X97.732 Y29.256 I-0.55 J0 F300
X98.832 Y29.256 I0.55 J0
G1 Z-1.2 F20
G3 X97.732 Y29.256 I-0.55 J0 F300
X98.832 Y29.256 I0.55 J0
G1 Z-1.8 F20
G3 X97.732 Y29.256 I-0.55 J0 F300
X98.832 Y29.256 I0.55 J0
G1 Z-2.4 F20
G3 X97.732 Y29.256 I-0.55 J0 F300
X98.832 Y29.256 I0.55 J0
G1 Z-3 F20
G3 X97.732 Y29.256 I-0.55 J0 F300
X98.832 Y29.256 I0.55 J0
G1 Z-3.6 F20
G3 X97.732 Y29.256 I-0.55 J0 F300
X98.832 Y29.256 I0.55 J0
G1 Z-4.2 F20
G3 X97.732 Y29.256 I-0.55 J0 F300
X98.832 Y29.256 I0.55 J0
G1 Z-4.4 F20
G3 X97.732 Y29.256 I-0.55 J0 F300
X98.832 Y29.256 I0.55 J0
G1 Z2
X103.299 Y29.444
Z1
Z-0.6 F20
G3 X102.265 Y29.068 I-0.517 J-0.188 F300
X103.299 Y29.444 I0.517 J0.188
G1 Z-1.2 F20
G3 X102.265 Y29.068 I-0.517 J-0.188 F300
X103.299 Y29.444 I0.517 J0.188
G1 Z-1.8 F20
G3 X102.265 Y29.068 I-0.517 J-0.188 F300
X103.299 Y29.444 I0.517 J0.188
G1 Z-2.4 F20
G3 X102.265 Y29.068 I-0.517 J-0.188 F300
X103.299 Y29.444 I0.517 J0.188
G1 Z-3 F20
G3 X102.265 Y29.068 I-0.517 J-0.188 F300
X103.299 Y29.444 I0.517 J0.188
G1 Z-3.6 F20
G3 X102.265 Y29.068 I-0.517 J-0.188 F300
X103.299 Y29.444 I0.517 J0.188
G1 Z-4.2 F20
G3 X102.265 Y29.068 I-0.517 J-0.188 F300
X103.299 Y29.444 I0.517 J0.188
G1 Z-4.4 F20
G3 X102.265 Y29.068 I-0.517 J-0.188 F300
X103.299 Y29.444 I0.517 J0.188
G1 Z2
X107.832 Y29.256
Z1
Z-0.6 F20
G3 X106.732 Y29.256 I-0.55 J0 F300
X107.832 Y29.256 I0.55 J0
G1 Z-1.2 F20
G3 X106.732 Y29.256 I-0.55 J0 F300
X107.832 Y29.256 I0.55 J0
G1 Z-1.8 F20
G3 X106.732 Y29.256 I-0.55 J0 F300
X107.832 Y29.256 I0.55 J0
G1 Z-2.4 F20
G3 X106.732 Y29.256 I-0.55 J0 F300
X107.832 Y29.256 I0.55 J0
G1 Z-3 F20
G3 X106.732 Y29.256 I-0.55 J0 F300
X107.832 Y29.256 I0.55 J0
G1 Z-3.6 F20
G3 X106.732 Y29.256 I-0.55 J0 F300
X107.832 Y29.256 I0.55 J0
G1 Z-4.2 F20
G3 X106.732 Y29.256 I-0.55 J0 F300
X107.832 Y29.256 I0.55 J0
G1 Z-4.4 F20
G3 X106.732 Y29.256 I-0.55 J0 F300
X107.832 Y29.256 I0.55 J0
G1 Z2
X110.595 Y15.095
Z1
Z-0.6 F20
G3 X109.495 Y15.095 I-0.55 J0 F300
X110.595 Y15.095 I0.55 J0
G1 Z-1.2 F20
G3 X109.495 Y15.095 I-0.55 J0 F300
X110.595 Y15.095 I0.55 J0
G1 Z-1.8 F20
G3 X109.495 Y15.095 I-0.55 J0 F300
X110.595 Y15.095 I0.55 J0
G1 Z-2.4 F20
G3 X109.495 Y15.095 I-0.55 J0 F300
X110.595 Y15.095 I0.55 J0
G1 Z-3 F20
G3 X109.495 Y15.095 I-0.55 J0 F300
X110.595 Y15.095 I0.55 J0
G1 Z-3.6 F20
G3 X109.495 Y15.095 I-0.55 J0 F300
X110.595 Y15.095 I0.55 J0
G1 Z-4.2 F20
G3 X109.495 Y15.095 I-0.55 J0 F300
X110.595 Y15.095 I0.55 J0
G1 Z-4.4 F20
G3 X109.495 Y15.095 I-0.55 J0 F300
X110.595 Y15.095 I0.55 J0
G1 Z2
X115.062 Y15.284
Z1
Z-0.6 F20
G3 X114.028 Y14.907 I-0.517 J-0.188 F300
X115.062 Y15.284 I0.517 J0.188
G1 Z-1.2 F20
G3 X114.028 Y14.907 I-0.517 J-0.188 F300
X115.062 Y15.284 I0.517 J0.188
G1 Z-1.8 F20
G3 X114.028 Y14.907 I-0.517 J-0.188 F300
X115.062 Y15.284 I0.517 J0.188
G1 Z-2.4 F20
G3 X114.028 Y14.907 I-0.517 J-0.188 F300
X115.062 Y15.284 I0.517 J0.188
G1 Z-3 F20
G3 X114.028 Y14.907 I-0.517 J-0.188 F300
X115.062 Y15.284 I0.517 J0.188
G1 Z-3.6 F20
G3 X114.028 Y14.907 I-0.517 J-0.188 F300
X115.062 Y15.284 I0.517 J0.188
G1 Z-4.2 F20
G3 X114.028 Y14.907 I-0.517 J-0.188 F300
X115.062 Y15.284 I0.517 J0.188
G1 Z-4.4 F20
G3 X114.028 Y14.907 I-0.517 J-0.188 F300
X115.062 Y15.284 I0.517 J0.188
G1 Z2
X119.595 Y15.095
Z1
Z-0.6 F20
G3 X118.495 Y15.095 I-0.55 J0 F300
X119.595 Y15.095 I0.55 J0
G1 Z-1.2 F20
G3 X118.495 Y15.095 I-0.55 J0 F300
X119.595 Y15.095 I0.55 J0
G1 Z-1.8 F20
G3 X118.495 Y15.095 I-0.55 J0 F300
X119.595 Y15.095 I0.55 J0
G1 Z-2.4 F20
G3 X118.495 Y15.095 I-0.55 J0 F300
X119.595 Y15.095 I0.55 J0
G1 Z-3 F20
G3 X118.495 Y15.095 I-0.55 J0 F300
X119.595 Y15.095 I0.55 J0
G1 Z-3.6 F20
G3 X118.495 Y15.095 I-0.55 J0 F300
X119.595 Y15.095 I0.55 J0
G1 Z-4.2 F20
G3 X118.495 Y15.095 I-0.55 J0 F300
X119.595 Y15.095 I0.55 J0
G1 Z-4.4 F20
G3 X118.495 Y15.095 I-0.55 J0 F300
X119.595 Y15.095 I0.55 J0
G1 Z3
(When using Fusion 360 for Personal Use, the feedrate of)
(rapid moves is reduced to match the feedrate of cutting)
(moves, which can increase machining time. Unrestricted rapid)
(moves are available with a Fusion 360 Subscription.)

(Groove)
G0 X116.145 Y15.095
G1 Z3 F300
Z1
Z-0.6 F20
G3 X112.945 Y15.095 I-1.6 J0 F300
X116.145 Y15.095 I1.6 J0
G1 Z-1.2 F20
G3 X112.945 Y15.095 I-1.6 J0 F300
X116.145 Y15.095 I1.6 J0
G1 Z-1.8 F20
G3 X112.945 Y15.095 I-1.6 J0 F300
X116.145 Y15.095 I1.6 J0
G1 Z-2 F20
G3 X112.945 Y15.095 I-1.6 J0 F300
X116.145 Y15.095 I1.6 J0
G1 Z3

(1mm)
G0 X102.782 Y32.756
Z3
Z2
Z1
G1 Z-4.4 F20
G0 Z2
Y25.756
Z1
G1 Z-4.4 F20
G0 Z2
X114.545 Y18.595
Z1
G1 Z-4.4 F20
G0 Z2
Y11.595
Z1
G1 Z-4.4 F20
G0 Z2
Z3
(When using Fusion 360 for Personal Use, the feedrate of)
(rapid moves is reduced to match the feedrate of cutting)
(moves, which can increase machining time. Unrestricted rapid)
(moves are available with a Fusion 360 Subscription.)

(Borders)
X110.718 Y19.963
G1 Z3 F300
Z1
Z-0.6 F20
X112.057 Y19.841 F300
G3 X112.51 Y20.048 I0.046 J0.498
G2 X116.809 Y19.656 I2.035 J-1.453
G3 X117.216 Y19.37 I0.453 J0.212
G1 X125.862 Y18.581
G2 X125.862 Y11.61 I-0.317 J-3.485
G1 X117.216 Y10.821
G3 X116.809 Y10.535 I0.046 J-0.498
G2 X112.51 Y10.142 I-2.264 J1.061
G3 X112.058 Y10.35 I-0.407 J-0.291
G1 X4.318 Y0.514
G2 X0.5 Y4 I-0.318 J3.486
G1 Y26.191
G2 X4.318 Y29.676 I3.5 J0
G1 X110.718 Y19.963
Z-1.2 F20
X112.057 Y19.841 F300
G3 X112.51 Y20.048 I0.046 J0.498
G2 X116.809 Y19.656 I2.035 J-1.453
G3 X117.216 Y19.37 I0.453 J0.212
G1 X125.862 Y18.581
G2 X125.862 Y11.61 I-0.317 J-3.485
G1 X117.216 Y10.821
G3 X116.809 Y10.535 I0.046 J-0.498
G2 X112.51 Y10.142 I-2.264 J1.061
G3 X112.058 Y10.35 I-0.407 J-0.291
G1 X4.318 Y0.514
G2 X0.5 Y4 I-0.318 J3.486
G1 Y26.191
G2 X4.318 Y29.676 I3.5 J0
G1 X110.718 Y19.963
Z-1.8 F20
X112.057 Y19.841 F300
G3 X112.51 Y20.048 I0.046 J0.498
G2 X116.809 Y19.656 I2.035 J-1.453
G3 X117.216 Y19.37 I0.453 J0.212
G1 X125.862 Y18.581
G2 X125.862 Y11.61 I-0.317 J-3.485
G1 X117.216 Y10.821
G3 X116.809 Y10.535 I0.046 J-0.498
G2 X112.51 Y10.142 I-2.264 J1.061
G3 X112.058 Y10.35 I-0.407 J-0.291
G1 X4.318 Y0.514
G2 X0.5 Y4 I-0.318 J3.486
G1 Y26.191
G2 X4.318 Y29.676 I3.5 J0
G1 X110.718 Y19.963
Z-2.4 F20
X112.057 Y19.841 F300
G3 X112.51 Y20.048 I0.046 J0.498
G2 X116.809 Y19.656 I2.035 J-1.453
G3 X117.216 Y19.37 I0.453 J0.212
G1 X125.862 Y18.581
G2 X125.862 Y11.61 I-0.317 J-3.485
G1 X117.216 Y10.821
G3 X116.809 Y10.535 I0.046 J-0.498
G2 X112.51 Y10.142 I-2.264 J1.061
G3 X112.058 Y10.35 I-0.407 J-0.291
G1 X4.318 Y0.514
G2 X0.5 Y4 I-0.318 J3.486
G1 Y26.191
G2 X4.318 Y29.676 I3.5 J0
G1 X110.718 Y19.963
Z-3 F20
X112.057 Y19.841 F300
G3 X112.51 Y20.048 I0.046 J0.498
G2 X116.809 Y19.656 I2.035 J-1.453
G3 X117.216 Y19.37 I0.453 J0.212
G1 X125.862 Y18.581
G2 X125.862 Y11.61 I-0.317 J-3.485
G1 X117.216 Y10.821
G3 X116.809 Y10.535 I0.046 J-0.498
G2 X112.51 Y10.142 I-2.264 J1.061
G3 X112.058 Y10.35 I-0.407 J-0.291
G1 X4.318 Y0.514
G2 X0.5 Y4 I-0.318 J3.486
G1 Y26.191
G2 X4.318 Y29.676 I3.5 J0
G1 X110.718 Y19.963
Z-3.6 F20
X112.057 Y19.841 F300
G3 X112.51 Y20.048 I0.046 J0.498
G2 X116.809 Y19.656 I2.035 J-1.453
G3 X117.216 Y19.37 I0.453 J0.212
G1 X125.862 Y18.581
G2 X125.862 Y11.61 I-0.317 J-3.485
G1 X117.216 Y10.821
G3 X116.809 Y10.535 I0.046 J-0.498
G2 X112.51 Y10.142 I-2.264 J1.061
G3 X112.058 Y10.35 I-0.407 J-0.291
G1 X4.318 Y0.514
G2 X0.5 Y4 I-0.318 J3.486
G1 Y26.191
G2 X4.318 Y29.676 I3.5 J0
G1 X110.718 Y19.963
Z-4.2 F20
X112.057 Y19.841 F300
G3 X112.51 Y20.048 I0.046 J0.498
G2 X116.809 Y19.656 I2.035 J-1.453
G3 X117.216 Y19.37 I0.453 J0.212
G1 X125.862 Y18.581
G2 X125.862 Y11.61 I-0.317 J-3.485
G1 X117.216 Y10.821
G3 X116.809 Y10.535 I0.046 J-0.498
G2 X112.51 Y10.142 I-2.264 J1.061
G3 X112.058 Y10.35 I-0.407 J-0.291
G1 X4.318 Y0.514
G2 X0.5 Y4 I-0.318 J3.486
G1 Y26.191
G2 X4.318 Y29.676 I3.5 J0
G1 X110.718 Y19.963
Z-4.4 F20
X112.057 Y19.841 F300
G3 X112.51 Y20.048 I0.046 J0.498
G2 X116.809 Y19.656 I2.035 J-1.453
G3 X117.216 Y19.37 I0.453 J0.212
G1 X125.862 Y18.581
G2 X125.862 Y11.61 I-0.317 J-3.485
G1 X117.216 Y10.821
G3 X116.809 Y10.535 I0.046 J-0.498
G2 X112.51 Y10.142 I-2.264 J1.061
G3 X112.058 Y10.35 I-0.407 J-0.291
G1 X4.318 Y0.514
G2 X0.5 Y4 I-0.318 J3.486
G1 Y26.191
G2 X4.318 Y29.676 I3.5 J0
G1 X110.718 Y19.963
Z2
X109.17 Y26.309
Z1
Z-0.6 F20
G2 X107.282 Y25.756 I-1.888 J2.947 F300
G1 X105.74
G3 X105.247 Y25.34 I0 J-0.5
G2 X100.317 Y25.34 I-2.465 J0.417
G3 X99.824 Y25.756 I-0.493 J-0.083
G1 X98.282
G2 X98.282 Y32.756 I0 J3.5
G1 X99.824
G3 X100.317 Y33.173 I0 J0.5
G2 X105.247 Y33.173 I2.465 J-0.417
G3 X105.74 Y32.756 I0.493 J0.083
G1 X107.282
G2 X109.17 Y26.309 I0 J-3.5
G1 Z-1.2 F20
G2 X107.282 Y25.756 I-1.888 J2.947 F300
G1 X105.74
G3 X105.247 Y25.34 I0 J-0.5
G2 X100.317 Y25.34 I-2.465 J0.417
G3 X99.824 Y25.756 I-0.493 J-0.083
G1 X98.282
G2 X98.282 Y32.756 I0 J3.5
G1 X99.824
G3 X100.317 Y33.173 I0 J0.5
G2 X105.247 Y33.173 I2.465 J-0.417
G3 X105.74 Y32.756 I0.493 J0.083
G1 X107.282
G2 X109.17 Y26.309 I0 J-3.5
G1 Z-1.8 F20
G2 X107.282 Y25.756 I-1.888 J2.947 F300
G1 X105.74
G3 X105.247 Y25.34 I0 J-0.5
G2 X100.317 Y25.34 I-2.465 J0.417
G3 X99.824 Y25.756 I-0.493 J-0.083
G1 X98.282
G2 X98.282 Y32.756 I0 J3.5
G1 X99.824
G3 X100.317 Y33.173 I0 J0.5
G2 X105.247 Y33.173 I2.465 J-0.417
G3 X105.74 Y32.756 I0.493 J0.083
G1 X107.282
G2 X109.17 Y26.309 I0 J-3.5
G1 Z-2.4 F20
G2 X107.282 Y25.756 I-1.888 J2.947 F300
G1 X105.74
G3 X105.247 Y25.34 I0 J-0.5
G2 X100.317 Y25.34 I-2.465 J0.417
G3 X99.824 Y25.756 I-0.493 J-0.083
G1 X98.282
G2 X98.282 Y32.756 I0 J3.5
G1 X99.824
G3 X100.317 Y33.173 I0 J0.5
G2 X105.247 Y33.173 I2.465 J-0.417
G3 X105.74 Y32.756 I0.493 J0.083
G1 X107.282
G2 X109.17 Y26.309 I0 J-3.5
G1 Z-3 F20
G2 X107.282 Y25.756 I-1.888 J2.947 F300
G1 X105.74
G3 X105.247 Y25.34 I0 J-0.5
G2 X100.317 Y25.34 I-2.465 J0.417
G3 X99.824 Y25.756 I-0.493 J-0.083
G1 X98.282
G2 X98.282 Y32.756 I0 J3.5
G1 X99.824
G3 X100.317 Y33.173 I0 J0.5
G2 X105.247 Y33.173 I2.465 J-0.417
G3 X105.74 Y32.756 I0.493 J0.083
G1 X107.282
G2 X109.17 Y26.309 I0 J-3.5
G1 Z-3.6 F20
G2 X107.282 Y25.756 I-1.888 J2.947 F300
G1 X105.74
G3 X105.247 Y25.34 I0 J-0.5
G2 X100.317 Y25.34 I-2.465 J0.417
G3 X99.824 Y25.756 I-0.493 J-0.083
G1 X98.282
G2 X98.282 Y32.756 I0 J3.5
G1 X99.824
G3 X100.317 Y33.173 I0 J0.5
G2 X105.247 Y33.173 I2.465 J-0.417
G3 X105.74 Y32.756 I0.493 J0.083
G1 X107.282
G2 X109.17 Y26.309 I0 J-3.5
G1 Z-4.2 F20
G2 X107.282 Y25.756 I-1.888 J2.947 F300
G1 X105.74
G3 X105.247 Y25.34 I0 J-0.5
G2 X100.317 Y25.34 I-2.465 J0.417
G3 X99.824 Y25.756 I-0.493 J-0.083
G1 X98.282
G2 X98.282 Y32.756 I0 J3.5
G1 X99.824
G3 X100.317 Y33.173 I0 J0.5
G2 X105.247 Y33.173 I2.465 J-0.417
G3 X105.74 Y32.756 I0.493 J0.083
G1 X107.282
G2 X109.17 Y26.309 I0 J-3.5
G1 Z-4.4 F20
G2 X107.282 Y25.756 I-1.888 J2.947 F300
G1 X105.74
G3 X105.247 Y25.34 I0 J-0.5
G2 X100.317 Y25.34 I-2.465 J0.417
G3 X99.824 Y25.756 I-0.493 J-0.083
G1 X98.282
G2 X98.282 Y32.756 I0 J3.5
G1 X99.824
G3 X100.317 Y33.173 I0 J0.5
G2 X105.247 Y33.173 I2.465 J-0.417
G3 X105.74 Y32.756 I0.493 J0.083
G1 X107.282
G2 X109.17 Y26.309 I0 J-3.5
G1 Z3
M5
M30
