(ActiveLeg)
(T1  D=1 CR=0 - ZMIN=-4.4 - flat end mill)
G90 G94
G17
G21
(When using Fusion 360 for Personal Use, the feedrate of)
(rapid moves is reduced to match the feedrate of cutting)
(moves, which can increase machining time. Unrestricted rapid)
(moves are available with a Fusion 360 Subscription.)

(Holes)
S20000 M3
G54
G0 X8.723 Y34.876
Z3
G1 Z1 F300
Z-0.6 F20
G3 X6.923 Y34.876 I-0.9 J0 F300
X8.723 Y34.876 I0.9 J0
G1 Z-1.2 F20
G3 X6.923 Y34.876 I-0.9 J0 F300
X8.723 Y34.876 I0.9 J0
G1 Z-1.8 F20
G3 X6.923 Y34.876 I-0.9 J0 F300
X8.723 Y34.876 I0.9 J0
G1 Z-2.4 F20
G3 X6.923 Y34.876 I-0.9 J0 F300
X8.723 Y34.876 I0.9 J0
G1 Z-3 F20
G3 X6.923 Y34.876 I-0.9 J0 F300
X8.723 Y34.876 I0.9 J0
G1 Z-3.6 F20
G3 X6.923 Y34.876 I-0.9 J0 F300
X8.723 Y34.876 I0.9 J0
G1 Z-4.2 F20
G3 X6.923 Y34.876 I-0.9 J0 F300
X8.723 Y34.876 I0.9 J0
G1 Z-4.4 F20
G3 X6.923 Y34.876 I-0.9 J0 F300
X8.723 Y34.876 I0.9 J0
G1 Z2
X7.814 Y24.917
Z1
Z-0.6 F20
G3 X6.014 Y24.917 I-0.9 J0 F300
X7.814 Y24.917 I0.9 J0
G1 Z-1.2 F20
G3 X6.014 Y24.917 I-0.9 J0 F300
X7.814 Y24.917 I0.9 J0
G1 Z-1.8 F20
G3 X6.014 Y24.917 I-0.9 J0 F300
X7.814 Y24.917 I0.9 J0
G1 Z-2.4 F20
G3 X6.014 Y24.917 I-0.9 J0 F300
X7.814 Y24.917 I0.9 J0
G1 Z-3 F20
G3 X6.014 Y24.917 I-0.9 J0 F300
X7.814 Y24.917 I0.9 J0
G1 Z-3.6 F20
G3 X6.014 Y24.917 I-0.9 J0 F300
X7.814 Y24.917 I0.9 J0
G1 Z-4.2 F20
G3 X6.014 Y24.917 I-0.9 J0 F300
X7.814 Y24.917 I0.9 J0
G1 Z-4.4 F20
G3 X6.014 Y24.917 I-0.9 J0 F300
X7.814 Y24.917 I0.9 J0
G1 Z2
X10.115 Y15.519
Z1
Z-0.6 F20
G3 X9.12 Y14.545 I-0.019 J-0.975 F300
X11.07 Y14.545 I0.975 J0
X10.115 Y15.519 I-0.975 J0
G1 Z-1.2 F20
G3 X9.12 Y14.545 I-0.019 J-0.975 F300
X11.07 Y14.545 I0.975 J0
X10.115 Y15.519 I-0.975 J0
G1 Z-1.8 F20
G3 X9.12 Y14.545 I-0.019 J-0.975 F300
X11.07 Y14.545 I0.975 J0
X10.115 Y15.519 I-0.975 J0
G1 Z-2.4 F20
G3 X9.12 Y14.545 I-0.019 J-0.975 F300
X11.07 Y14.545 I0.975 J0
X10.115 Y15.519 I-0.975 J0
G1 Z-3 F20
G3 X9.12 Y14.545 I-0.019 J-0.975 F300
X11.07 Y14.545 I0.975 J0
X10.115 Y15.519 I-0.975 J0
G1 Z-3.6 F20
G3 X9.12 Y14.545 I-0.019 J-0.975 F300
X11.07 Y14.545 I0.975 J0
X10.115 Y15.519 I-0.975 J0
G1 Z-4.2 F20
G3 X9.12 Y14.545 I-0.019 J-0.975 F300
X11.07 Y14.545 I0.975 J0
X10.115 Y15.519 I-0.975 J0
G1 Z-4.4 F20
G3 X9.12 Y14.545 I-0.019 J-0.975 F300
X11.07 Y14.545 I0.975 J0
X10.115 Y15.519 I-0.975 J0
G1 Z2
X21.07 Y14.545
Z1
Z-0.6 F20
G3 X19.12 Y14.545 I-0.975 J0 F300
X21.07 Y14.545 I0.975 J0
G1 Z-1.2 F20
G3 X19.12 Y14.545 I-0.975 J0 F300
X21.07 Y14.545 I0.975 J0
G1 Z-1.8 F20
G3 X19.12 Y14.545 I-0.975 J0 F300
X21.07 Y14.545 I0.975 J0
G1 Z-2.4 F20
G3 X19.12 Y14.545 I-0.975 J0 F300
X21.07 Y14.545 I0.975 J0
G1 Z-3 F20
G3 X19.12 Y14.545 I-0.975 J0 F300
X21.07 Y14.545 I0.975 J0
G1 Z-3.6 F20
G3 X19.12 Y14.545 I-0.975 J0 F300
X21.07 Y14.545 I0.975 J0
G1 Z-4.2 F20
G3 X19.12 Y14.545 I-0.975 J0 F300
X21.07 Y14.545 I0.975 J0
G1 Z-4.4 F20
G3 X19.12 Y14.545 I-0.975 J0 F300
X21.07 Y14.545 I0.975 J0
G1 Z2
X26.025 Y5.198
Z1
Z-0.6 F20
G3 X24.166 Y4.802 I-0.929 J-0.198 F300
X26.025 Y5.198 I0.929 J0.198
G1 Z-1.2 F20
G3 X24.166 Y4.802 I-0.929 J-0.198 F300
X26.025 Y5.198 I0.929 J0.198
G1 Z-1.8 F20
G3 X24.166 Y4.802 I-0.929 J-0.198 F300
X26.025 Y5.198 I0.929 J0.198
G1 Z-2.4 F20
G3 X24.166 Y4.802 I-0.929 J-0.198 F300
X26.025 Y5.198 I0.929 J0.198
G1 Z-3 F20
G3 X24.166 Y4.802 I-0.929 J-0.198 F300
X26.025 Y5.198 I0.929 J0.198
G1 Z-3.6 F20
G3 X24.166 Y4.802 I-0.929 J-0.198 F300
X26.025 Y5.198 I0.929 J0.198
G1 Z-4.2 F20
G3 X24.166 Y4.802 I-0.929 J-0.198 F300
X26.025 Y5.198 I0.929 J0.198
G1 Z-4.4 F20
G3 X24.166 Y4.802 I-0.929 J-0.198 F300
X26.025 Y5.198 I0.929 J0.198
G1 Z2
X6.045 Y5
Z1
Z-0.6 F20
G3 X4.145 Y5 I-0.95 J0 F300
X6.045 Y5 I0.95 J0
G1 Z-1.2 F20
G3 X4.145 Y5 I-0.95 J0 F300
X6.045 Y5 I0.95 J0
G1 Z-1.8 F20
G3 X4.145 Y5 I-0.95 J0 F300
X6.045 Y5 I0.95 J0
G1 Z-2.4 F20
G3 X4.145 Y5 I-0.95 J0 F300
X6.045 Y5 I0.95 J0
G1 Z-3 F20
G3 X4.145 Y5 I-0.95 J0 F300
X6.045 Y5 I0.95 J0
G1 Z-3.6 F20
G3 X4.145 Y5 I-0.95 J0 F300
X6.045 Y5 I0.95 J0
G1 Z-4.2 F20
G3 X4.145 Y5 I-0.95 J0 F300
X6.045 Y5 I0.95 J0
G1 Z-4.4 F20
G3 X4.145 Y5 I-0.95 J0 F300
X6.045 Y5 I0.95 J0
G1 Z2
X32.451 Y103.689
Z1
Z-0.6 F20
G3 X31.417 Y103.313 I-0.517 J-0.188 F300
X32.451 Y103.689 I0.517 J0.188
G1 Z-1.2 F20
G3 X31.417 Y103.313 I-0.517 J-0.188 F300
X32.451 Y103.689 I0.517 J0.188
G1 Z-1.8 F20
G3 X31.417 Y103.313 I-0.517 J-0.188 F300
X32.451 Y103.689 I0.517 J0.188
G1 Z-2.4 F20
G3 X31.417 Y103.313 I-0.517 J-0.188 F300
X32.451 Y103.689 I0.517 J0.188
G1 Z-3 F20
G3 X31.417 Y103.313 I-0.517 J-0.188 F300
X32.451 Y103.689 I0.517 J0.188
G1 Z-3.6 F20
G3 X31.417 Y103.313 I-0.517 J-0.188 F300
X32.451 Y103.689 I0.517 J0.188
G1 Z-4.2 F20
G3 X31.417 Y103.313 I-0.517 J-0.188 F300
X32.451 Y103.689 I0.517 J0.188
G1 Z-4.4 F20
G3 X31.417 Y103.313 I-0.517 J-0.188 F300
X32.451 Y103.689 I0.517 J0.188
G1 Z2
X32.484 Y108.001
Z1
Z-0.6 F20
G3 X31.384 Y108.001 I-0.55 J0 F300
X32.484 Y108.001 I0.55 J0
G1 Z-1.2 F20
G3 X31.384 Y108.001 I-0.55 J0 F300
X32.484 Y108.001 I0.55 J0
G1 Z-1.8 F20
G3 X31.384 Y108.001 I-0.55 J0 F300
X32.484 Y108.001 I0.55 J0
G1 Z-2.4 F20
G3 X31.384 Y108.001 I-0.55 J0 F300
X32.484 Y108.001 I0.55 J0
G1 Z-3 F20
G3 X31.384 Y108.001 I-0.55 J0 F300
X32.484 Y108.001 I0.55 J0
G1 Z-3.6 F20
G3 X31.384 Y108.001 I-0.55 J0 F300
X32.484 Y108.001 I0.55 J0
G1 Z-4.2 F20
G3 X31.384 Y108.001 I-0.55 J0 F300
X32.484 Y108.001 I0.55 J0
G1 Z-4.4 F20
G3 X31.384 Y108.001 I-0.55 J0 F300
X32.484 Y108.001 I0.55 J0
G1 Z2
Y112.501
Z1
Z-0.6 F20
G3 X31.384 Y112.501 I-0.55 J0 F300
X32.484 Y112.501 I0.55 J0
G1 Z-1.2 F20
G3 X31.384 Y112.501 I-0.55 J0 F300
X32.484 Y112.501 I0.55 J0
G1 Z-1.8 F20
G3 X31.384 Y112.501 I-0.55 J0 F300
X32.484 Y112.501 I0.55 J0
G1 Z-2.4 F20
G3 X31.384 Y112.501 I-0.55 J0 F300
X32.484 Y112.501 I0.55 J0
G1 Z-3 F20
G3 X31.384 Y112.501 I-0.55 J0 F300
X32.484 Y112.501 I0.55 J0
G1 Z-3.6 F20
G3 X31.384 Y112.501 I-0.55 J0 F300
X32.484 Y112.501 I0.55 J0
G1 Z-4.2 F20
G3 X31.384 Y112.501 I-0.55 J0 F300
X32.484 Y112.501 I0.55 J0
G1 Z-4.4 F20
G3 X31.384 Y112.501 I-0.55 J0 F300
X32.484 Y112.501 I0.55 J0
G1 Z2
X15.612 Y114.733
Z1
Z-0.6 F20
G3 X14.579 Y114.357 I-0.517 J-0.188 F300
X15.612 Y114.733 I0.517 J0.188
G1 Z-1.2 F20
G3 X14.579 Y114.357 I-0.517 J-0.188 F300
X15.612 Y114.733 I0.517 J0.188
G1 Z-1.8 F20
G3 X14.579 Y114.357 I-0.517 J-0.188 F300
X15.612 Y114.733 I0.517 J0.188
G1 Z-2.4 F20
G3 X14.579 Y114.357 I-0.517 J-0.188 F300
X15.612 Y114.733 I0.517 J0.188
G1 Z-3 F20
G3 X14.579 Y114.357 I-0.517 J-0.188 F300
X15.612 Y114.733 I0.517 J0.188
G1 Z-3.6 F20
G3 X14.579 Y114.357 I-0.517 J-0.188 F300
X15.612 Y114.733 I0.517 J0.188
G1 Z-4.2 F20
G3 X14.579 Y114.357 I-0.517 J-0.188 F300
X15.612 Y114.733 I0.517 J0.188
G1 Z-4.4 F20
G3 X14.579 Y114.357 I-0.517 J-0.188 F300
X15.612 Y114.733 I0.517 J0.188
G1 Z2
X15.645 Y119.045
Z1
Z-0.6 F20
G3 X14.545 Y119.045 I-0.55 J0 F300
X15.645 Y119.045 I0.55 J0
G1 Z-1.2 F20
G3 X14.545 Y119.045 I-0.55 J0 F300
X15.645 Y119.045 I0.55 J0
G1 Z-1.8 F20
G3 X14.545 Y119.045 I-0.55 J0 F300
X15.645 Y119.045 I0.55 J0
G1 Z-2.4 F20
G3 X14.545 Y119.045 I-0.55 J0 F300
X15.645 Y119.045 I0.55 J0
G1 Z-3 F20
G3 X14.545 Y119.045 I-0.55 J0 F300
X15.645 Y119.045 I0.55 J0
G1 Z-3.6 F20
G3 X14.545 Y119.045 I-0.55 J0 F300
X15.645 Y119.045 I0.55 J0
G1 Z-4.2 F20
G3 X14.545 Y119.045 I-0.55 J0 F300
X15.645 Y119.045 I0.55 J0
G1 Z-4.4 F20
G3 X14.545 Y119.045 I-0.55 J0 F300
X15.645 Y119.045 I0.55 J0
G1 Z2
X15.612 Y110.233
Z1
Z-0.6 F20
G3 X14.579 Y109.857 I-0.517 J-0.188 F300
X15.612 Y110.233 I0.517 J0.188
G1 Z-1.2 F20
G3 X14.579 Y109.857 I-0.517 J-0.188 F300
X15.612 Y110.233 I0.517 J0.188
G1 Z-1.8 F20
G3 X14.579 Y109.857 I-0.517 J-0.188 F300
X15.612 Y110.233 I0.517 J0.188
G1 Z-2.4 F20
G3 X14.579 Y109.857 I-0.517 J-0.188 F300
X15.612 Y110.233 I0.517 J0.188
G1 Z-3 F20
G3 X14.579 Y109.857 I-0.517 J-0.188 F300
X15.612 Y110.233 I0.517 J0.188
G1 Z-3.6 F20
G3 X14.579 Y109.857 I-0.517 J-0.188 F300
X15.612 Y110.233 I0.517 J0.188
G1 Z-4.2 F20
G3 X14.579 Y109.857 I-0.517 J-0.188 F300
X15.612 Y110.233 I0.517 J0.188
G1 Z-4.4 F20
G3 X14.579 Y109.857 I-0.517 J-0.188 F300
X15.612 Y110.233 I0.517 J0.188
G1 Z3
(When using Fusion 360 for Personal Use, the feedrate of)
(rapid moves is reduced to match the feedrate of cutting)
(moves, which can increase machining time. Unrestricted rapid)
(moves are available with a Fusion 360 Subscription.)

(Groove)
G0 X16.695 Y114.545
G1 Z3 F300
Z1
Z-0.6 F20
G3 X13.495 Y114.545 I-1.6 J0 F300
X16.695 Y114.545 I1.6 J0
G1 Z-1.2 F20
G3 X13.495 Y114.545 I-1.6 J0 F300
X16.695 Y114.545 I1.6 J0
G1 Z-1.8 F20
G3 X13.495 Y114.545 I-1.6 J0 F300
X16.695 Y114.545 I1.6 J0
G1 Z-2 F20
G3 X13.495 Y114.545 I-1.6 J0 F300
X16.695 Y114.545 I1.6 J0
G1 Z3

(1mm)
G0 X11.595 Y114.545
Z3
Z2
Z1
G1 Z-4.4 F20
G0 Z2
X18.595
Z1
G1 Z-4.4 F20
G0 Z2
X28.434 Y108.001
Z1
G1 Z-4.4 F20
G0 Z2
X35.434
Z1
G1 Z-4.4 F20
G0 Z2
Z3
(When using Fusion 360 for Personal Use, the feedrate of)
(rapid moves is reduced to match the feedrate of cutting)
(moves, which can increase machining time. Unrestricted rapid)
(moves are available with a Fusion 360 Subscription.)

(Borders)
X20.708 Y102.564
G1 Z3 F300
Z1
Z-0.6 F20
X29.676 Y4.318 F300
G2 X26.191 Y0.5 I-3.486 J-0.318
G1 X4
G2 X0.514 Y4.318 I0 J3.5
G1 X10.35 Y112.057
G3 X10.142 Y112.51 I-0.498 J0.046
G2 X10.535 Y116.809 I1.453 J2.035
G3 X10.821 Y117.216 I-0.212 J0.453
G1 X11.61 Y125.862
G2 X18.581 Y125.862 I3.485 J-0.317
G1 X19.37 Y117.216
G3 X19.656 Y116.809 I0.498 J0.046
G2 X20.048 Y112.51 I-1.061 J-2.264
G3 X19.841 Y112.058 I0.291 J-0.407
G1 X20.279 Y107.259
X20.708 Y102.564
Z-1.2 F20
X29.676 Y4.318 F300
G2 X26.191 Y0.5 I-3.486 J-0.318
G1 X4
G2 X0.514 Y4.318 I0 J3.5
G1 X10.35 Y112.057
G3 X10.142 Y112.51 I-0.498 J0.046
G2 X10.535 Y116.809 I1.453 J2.035
G3 X10.821 Y117.216 I-0.212 J0.453
G1 X11.61 Y125.862
G2 X18.581 Y125.862 I3.485 J-0.317
G1 X19.37 Y117.216
G3 X19.656 Y116.809 I0.498 J0.046
G2 X20.048 Y112.51 I-1.061 J-2.264
G3 X19.841 Y112.058 I0.291 J-0.407
G1 X20.279 Y107.259
X20.708 Y102.564
Z-1.8 F20
X29.676 Y4.318 F300
G2 X26.191 Y0.5 I-3.486 J-0.318
G1 X4
G2 X0.514 Y4.318 I0 J3.5
G1 X10.35 Y112.057
G3 X10.142 Y112.51 I-0.498 J0.046
G2 X10.535 Y116.809 I1.453 J2.035
G3 X10.821 Y117.216 I-0.212 J0.453
G1 X11.61 Y125.862
G2 X18.581 Y125.862 I3.485 J-0.317
G1 X19.37 Y117.216
G3 X19.656 Y116.809 I0.498 J0.046
G2 X20.048 Y112.51 I-1.061 J-2.264
G3 X19.841 Y112.058 I0.291 J-0.407
G1 X20.279 Y107.259
X20.708 Y102.564
Z-2.4 F20
X29.676 Y4.318 F300
G2 X26.191 Y0.5 I-3.486 J-0.318
G1 X4
G2 X0.514 Y4.318 I0 J3.5
G1 X10.35 Y112.057
G3 X10.142 Y112.51 I-0.498 J0.046
G2 X10.535 Y116.809 I1.453 J2.035
G3 X10.821 Y117.216 I-0.212 J0.453
G1 X11.61 Y125.862
G2 X18.581 Y125.862 I3.485 J-0.317
G1 X19.37 Y117.216
G3 X19.656 Y116.809 I0.498 J0.046
G2 X20.048 Y112.51 I-1.061 J-2.264
G3 X19.841 Y112.058 I0.291 J-0.407
G1 X20.279 Y107.259
X20.708 Y102.564
Z-3 F20
X29.676 Y4.318 F300
G2 X26.191 Y0.5 I-3.486 J-0.318
G1 X4
G2 X0.514 Y4.318 I0 J3.5
G1 X10.35 Y112.057
G3 X10.142 Y112.51 I-0.498 J0.046
G2 X10.535 Y116.809 I1.453 J2.035
G3 X10.821 Y117.216 I-0.212 J0.453
G1 X11.61 Y125.862
G2 X18.581 Y125.862 I3.485 J-0.317
G1 X19.37 Y117.216
G3 X19.656 Y116.809 I0.498 J0.046
G2 X20.048 Y112.51 I-1.061 J-2.264
G3 X19.841 Y112.058 I0.291 J-0.407
G1 X20.279 Y107.259
X20.708 Y102.564
Z-3.6 F20
X29.676 Y4.318 F300
G2 X26.191 Y0.5 I-3.486 J-0.318
G1 X4
G2 X0.514 Y4.318 I0 J3.5
G1 X10.35 Y112.057
G3 X10.142 Y112.51 I-0.498 J0.046
G2 X10.535 Y116.809 I1.453 J2.035
G3 X10.821 Y117.216 I-0.212 J0.453
G1 X11.61 Y125.862
G2 X18.581 Y125.862 I3.485 J-0.317
G1 X19.37 Y117.216
G3 X19.656 Y116.809 I0.498 J0.046
G2 X20.048 Y112.51 I-1.061 J-2.264
G3 X19.841 Y112.058 I0.291 J-0.407
G1 X20.279 Y107.259
X20.708 Y102.564
Z-4.2 F20
X29.676 Y4.318 F300
G2 X26.191 Y0.5 I-3.486 J-0.318
G1 X4
G2 X0.514 Y4.318 I0 J3.5
G1 X10.35 Y112.057
G3 X10.142 Y112.51 I-0.498 J0.046
G2 X10.535 Y116.809 I1.453 J2.035
G3 X10.821 Y117.216 I-0.212 J0.453
G1 X11.61 Y125.862
G2 X18.581 Y125.862 I3.485 J-0.317
G1 X19.37 Y117.216
G3 X19.656 Y116.809 I0.498 J0.046
G2 X20.048 Y112.51 I-1.061 J-2.264
G3 X19.841 Y112.058 I0.291 J-0.407
G1 X20.279 Y107.259
X20.708 Y102.564
Z-4.4 F20
X29.676 Y4.318 F300
G2 X26.191 Y0.5 I-3.486 J-0.318
G1 X4
G2 X0.514 Y4.318 I0 J3.5
G1 X10.35 Y112.057
G3 X10.142 Y112.51 I-0.498 J0.046
G2 X10.535 Y116.809 I1.453 J2.035
G3 X10.821 Y117.216 I-0.212 J0.453
G1 X11.61 Y125.862
G2 X18.581 Y125.862 I3.485 J-0.317
G1 X19.37 Y117.216
G3 X19.656 Y116.809 I0.498 J0.046
G2 X20.048 Y112.51 I-1.061 J-2.264
G3 X19.841 Y112.058 I0.291 J-0.407
G1 X20.279 Y107.259
X20.708 Y102.564
Z2
X28.445 Y103.224
Z1
Z-0.6 F20
G2 X28.434 Y103.501 I3.489 J0.277 F300
G1 Y105.043
G3 X28.018 Y105.536 I-0.5 J0
G2 X28.018 Y110.466 I0.417 J2.465
G3 X28.434 Y110.959 I-0.083 J0.493
G1 Y112.501
G2 X35.434 Y112.501 I3.5 J0
G1 Y110.959
G3 X35.851 Y110.466 I0.5 J0
G2 X35.851 Y105.536 I-0.417 J-2.465
G3 X35.434 Y105.043 I0.083 J-0.493
G1 Y103.501
G2 X28.445 Y103.224 I-3.5 J0
G1 Z-1.2 F20
G2 X28.434 Y103.501 I3.489 J0.277 F300
G1 Y105.043
G3 X28.018 Y105.536 I-0.5 J0
G2 X28.018 Y110.466 I0.417 J2.465
G3 X28.434 Y110.959 I-0.083 J0.493
G1 Y112.501
G2 X35.434 Y112.501 I3.5 J0
G1 Y110.959
G3 X35.851 Y110.466 I0.5 J0
G2 X35.851 Y105.536 I-0.417 J-2.465
G3 X35.434 Y105.043 I0.083 J-0.493
G1 Y103.501
G2 X28.445 Y103.224 I-3.5 J0
G1 Z-1.8 F20
G2 X28.434 Y103.501 I3.489 J0.277 F300
G1 Y105.043
G3 X28.018 Y105.536 I-0.5 J0
G2 X28.018 Y110.466 I0.417 J2.465
G3 X28.434 Y110.959 I-0.083 J0.493
G1 Y112.501
G2 X35.434 Y112.501 I3.5 J0
G1 Y110.959
G3 X35.851 Y110.466 I0.5 J0
G2 X35.851 Y105.536 I-0.417 J-2.465
G3 X35.434 Y105.043 I0.083 J-0.493
G1 Y103.501
G2 X28.445 Y103.224 I-3.5 J0
G1 Z-2.4 F20
G2 X28.434 Y103.501 I3.489 J0.277 F300
G1 Y105.043
G3 X28.018 Y105.536 I-0.5 J0
G2 X28.018 Y110.466 I0.417 J2.465
G3 X28.434 Y110.959 I-0.083 J0.493
G1 Y112.501
G2 X35.434 Y112.501 I3.5 J0
G1 Y110.959
G3 X35.851 Y110.466 I0.5 J0
G2 X35.851 Y105.536 I-0.417 J-2.465
G3 X35.434 Y105.043 I0.083 J-0.493
G1 Y103.501
G2 X28.445 Y103.224 I-3.5 J0
G1 Z-3 F20
G2 X28.434 Y103.501 I3.489 J0.277 F300
G1 Y105.043
G3 X28.018 Y105.536 I-0.5 J0
G2 X28.018 Y110.466 I0.417 J2.465
G3 X28.434 Y110.959 I-0.083 J0.493
G1 Y112.501
G2 X35.434 Y112.501 I3.5 J0
G1 Y110.959
G3 X35.851 Y110.466 I0.5 J0
G2 X35.851 Y105.536 I-0.417 J-2.465
G3 X35.434 Y105.043 I0.083 J-0.493
G1 Y103.501
G2 X28.445 Y103.224 I-3.5 J0
G1 Z-3.6 F20
G2 X28.434 Y103.501 I3.489 J0.277 F300
G1 Y105.043
G3 X28.018 Y105.536 I-0.5 J0
G2 X28.018 Y110.466 I0.417 J2.465
G3 X28.434 Y110.959 I-0.083 J0.493
G1 Y112.501
G2 X35.434 Y112.501 I3.5 J0
G1 Y110.959
G3 X35.851 Y110.466 I0.5 J0
G2 X35.851 Y105.536 I-0.417 J-2.465
G3 X35.434 Y105.043 I0.083 J-0.493
G1 Y103.501
G2 X28.445 Y103.224 I-3.5 J0
G1 Z-4.2 F20
G2 X28.434 Y103.501 I3.489 J0.277 F300
G1 Y105.043
G3 X28.018 Y105.536 I-0.5 J0
G2 X28.018 Y110.466 I0.417 J2.465
G3 X28.434 Y110.959 I-0.083 J0.493
G1 Y112.501
G2 X35.434 Y112.501 I3.5 J0
G1 Y110.959
G3 X35.851 Y110.466 I0.5 J0
G2 X35.851 Y105.536 I-0.417 J-2.465
G3 X35.434 Y105.043 I0.083 J-0.493
G1 Y103.501
G2 X28.445 Y103.224 I-3.5 J0
G1 Z-4.4 F20
G2 X28.434 Y103.501 I3.489 J0.277 F300
G1 Y105.043
G3 X28.018 Y105.536 I-0.5 J0
G2 X28.018 Y110.466 I0.417 J2.465
G3 X28.434 Y110.959 I-0.083 J0.493
G1 Y112.501
G2 X35.434 Y112.501 I3.5 J0
G1 Y110.959
G3 X35.851 Y110.466 I0.5 J0
G2 X35.851 Y105.536 I-0.417 J-2.465
G3 X35.434 Y105.043 I0.083 J-0.493
G1 Y103.501
G2 X28.445 Y103.224 I-3.5 J0
G1 Z3
M5
M30
