(Base_1DOF_Sensored)
(T1  D=1 CR=0 - ZMIN=-4.2 - flat end mill)
G90 G94
G17
G21
(When using Fusion 360 for Personal Use, the feedrate of)
(rapid moves is reduced to match the feedrate of cutting)
(moves, which can increase machining time. Unrestricted rapid)
(moves are available with a Fusion 360 Subscription.)

(Holes)
S20000 M3
G54
G0 X79.562 Y17.494
Z5
G1 Z1 F150
Z-0.6 F20
G3 X78.612 Y17.494 I-0.475 J0 F150
X79.562 Y17.494 I0.475 J0
G1 Z-1.2 F20
G3 X78.612 Y17.494 I-0.475 J0 F150
X79.562 Y17.494 I0.475 J0
G1 Z-1.8 F20
G3 X78.612 Y17.494 I-0.475 J0 F150
X79.562 Y17.494 I0.475 J0
G1 Z-2.4 F20
G3 X78.612 Y17.494 I-0.475 J0 F150
X79.562 Y17.494 I0.475 J0
G1 Z-3 F20
G3 X78.612 Y17.494 I-0.475 J0 F150
X79.562 Y17.494 I0.475 J0
G1 Z-3.6 F20
G3 X78.612 Y17.494 I-0.475 J0 F150
X79.562 Y17.494 I0.475 J0
G1 Z-4.2 F20
G3 X78.612 Y17.494 I-0.475 J0 F150
X79.562 Y17.494 I0.475 J0
G1 Z4
X89.562
Z1
Z-0.6 F20
G3 X88.612 Y17.494 I-0.475 J0 F150
X89.562 Y17.494 I0.475 J0
G1 Z-1.2 F20
G3 X88.612 Y17.494 I-0.475 J0 F150
X89.562 Y17.494 I0.475 J0
G1 Z-1.8 F20
G3 X88.612 Y17.494 I-0.475 J0 F150
X89.562 Y17.494 I0.475 J0
G1 Z-2.4 F20
G3 X88.612 Y17.494 I-0.475 J0 F150
X89.562 Y17.494 I0.475 J0
G1 Z-3 F20
G3 X88.612 Y17.494 I-0.475 J0 F150
X89.562 Y17.494 I0.475 J0
G1 Z-3.6 F20
G3 X88.612 Y17.494 I-0.475 J0 F150
X89.562 Y17.494 I0.475 J0
G1 Z-4.2 F20
G3 X88.612 Y17.494 I-0.475 J0 F150
X89.562 Y17.494 I0.475 J0
G1 Z4
X99.562
Z1
Z-0.6 F20
G3 X98.612 Y17.494 I-0.475 J0 F150
X99.562 Y17.494 I0.475 J0
G1 Z-1.2 F20
G3 X98.612 Y17.494 I-0.475 J0 F150
X99.562 Y17.494 I0.475 J0
G1 Z-1.8 F20
G3 X98.612 Y17.494 I-0.475 J0 F150
X99.562 Y17.494 I0.475 J0
G1 Z-2.4 F20
G3 X98.612 Y17.494 I-0.475 J0 F150
X99.562 Y17.494 I0.475 J0
G1 Z-3 F20
G3 X98.612 Y17.494 I-0.475 J0 F150
X99.562 Y17.494 I0.475 J0
G1 Z-3.6 F20
G3 X98.612 Y17.494 I-0.475 J0 F150
X99.562 Y17.494 I0.475 J0
G1 Z-4.2 F20
G3 X98.612 Y17.494 I-0.475 J0 F150
X99.562 Y17.494 I0.475 J0
G1 Z4
X109.562
Z1
Z-0.6 F20
G3 X108.612 Y17.494 I-0.475 J0 F150
X109.562 Y17.494 I0.475 J0
G1 Z-1.2 F20
G3 X108.612 Y17.494 I-0.475 J0 F150
X109.562 Y17.494 I0.475 J0
G1 Z-1.8 F20
G3 X108.612 Y17.494 I-0.475 J0 F150
X109.562 Y17.494 I0.475 J0
G1 Z-2.4 F20
G3 X108.612 Y17.494 I-0.475 J0 F150
X109.562 Y17.494 I0.475 J0
G1 Z-3 F20
G3 X108.612 Y17.494 I-0.475 J0 F150
X109.562 Y17.494 I0.475 J0
G1 Z-3.6 F20
G3 X108.612 Y17.494 I-0.475 J0 F150
X109.562 Y17.494 I0.475 J0
G1 Z-4.2 F20
G3 X108.612 Y17.494 I-0.475 J0 F150
X109.562 Y17.494 I0.475 J0
G1 Z4
X119.521 Y17.687
Z1
Z-0.6 F20
G3 X118.653 Y17.3 I-0.434 J-0.193 F150
X119.521 Y17.687 I0.434 J0.193
G1 Z-1.2 F20
G3 X118.653 Y17.3 I-0.434 J-0.193 F150
X119.521 Y17.687 I0.434 J0.193
G1 Z-1.8 F20
G3 X118.653 Y17.3 I-0.434 J-0.193 F150
X119.521 Y17.687 I0.434 J0.193
G1 Z-2.4 F20
G3 X118.653 Y17.3 I-0.434 J-0.193 F150
X119.521 Y17.687 I0.434 J0.193
G1 Z-3 F20
G3 X118.653 Y17.3 I-0.434 J-0.193 F150
X119.521 Y17.687 I0.434 J0.193
G1 Z-3.6 F20
G3 X118.653 Y17.3 I-0.434 J-0.193 F150
X119.521 Y17.687 I0.434 J0.193
G1 Z-4.2 F20
G3 X118.653 Y17.3 I-0.434 J-0.193 F150
X119.521 Y17.687 I0.434 J0.193
G1 Z4
X129.562 Y17.494
Z1
Z-0.6 F20
G3 X128.612 Y17.494 I-0.475 J0 F150
X129.562 Y17.494 I0.475 J0
G1 Z-1.2 F20
G3 X128.612 Y17.494 I-0.475 J0 F150
X129.562 Y17.494 I0.475 J0
G1 Z-1.8 F20
G3 X128.612 Y17.494 I-0.475 J0 F150
X129.562 Y17.494 I0.475 J0
G1 Z-2.4 F20
G3 X128.612 Y17.494 I-0.475 J0 F150
X129.562 Y17.494 I0.475 J0
G1 Z-3 F20
G3 X128.612 Y17.494 I-0.475 J0 F150
X129.562 Y17.494 I0.475 J0
G1 Z-3.6 F20
G3 X128.612 Y17.494 I-0.475 J0 F150
X129.562 Y17.494 I0.475 J0
G1 Z-4.2 F20
G3 X128.612 Y17.494 I-0.475 J0 F150
X129.562 Y17.494 I0.475 J0
G1 Z4
X148.881 Y29.3
Z1
Z-0.6 F20
G3 X146.919 Y28.91 I-0.981 J-0.195 F150
X148.881 Y29.3 I0.981 J0.195
G1 Z-1.2 F20
G3 X146.919 Y28.91 I-0.981 J-0.195 F150
X148.881 Y29.3 I0.981 J0.195
G1 Z-1.8 F20
G3 X146.919 Y28.91 I-0.981 J-0.195 F150
X148.881 Y29.3 I0.981 J0.195
G1 Z-2.4 F20
G3 X146.919 Y28.91 I-0.981 J-0.195 F150
X148.881 Y29.3 I0.981 J0.195
G1 Z-3 F20
G3 X146.919 Y28.91 I-0.981 J-0.195 F150
X148.881 Y29.3 I0.981 J0.195
G1 Z-3.6 F20
G3 X146.919 Y28.91 I-0.981 J-0.195 F150
X148.881 Y29.3 I0.981 J0.195
G1 Z-4.2 F20
G3 X146.919 Y28.91 I-0.981 J-0.195 F150
X148.881 Y29.3 I0.981 J0.195
G1 Z4
X148.9 Y39.105
Z1
Z-0.6 F20
G3 X146.9 Y39.105 I-1 J0 F150
X148.9 Y39.105 I1 J0
G1 Z-1.2 F20
G3 X146.9 Y39.105 I-1 J0 F150
X148.9 Y39.105 I1 J0
G1 Z-1.8 F20
G3 X146.9 Y39.105 I-1 J0 F150
X148.9 Y39.105 I1 J0
G1 Z-2.4 F20
G3 X146.9 Y39.105 I-1 J0 F150
X148.9 Y39.105 I1 J0
G1 Z-3 F20
G3 X146.9 Y39.105 I-1 J0 F150
X148.9 Y39.105 I1 J0
G1 Z-3.6 F20
G3 X146.9 Y39.105 I-1 J0 F150
X148.9 Y39.105 I1 J0
G1 Z-4.2 F20
G3 X146.9 Y39.105 I-1 J0 F150
X148.9 Y39.105 I1 J0
G1 Z4
Y49.105
Z1
Z-0.6 F20
G3 X146.9 Y49.105 I-1 J0 F150
X148.9 Y49.105 I1 J0
G1 Z-1.2 F20
G3 X146.9 Y49.105 I-1 J0 F150
X148.9 Y49.105 I1 J0
G1 Z-1.8 F20
G3 X146.9 Y49.105 I-1 J0 F150
X148.9 Y49.105 I1 J0
G1 Z-2.4 F20
G3 X146.9 Y49.105 I-1 J0 F150
X148.9 Y49.105 I1 J0
G1 Z-3 F20
G3 X146.9 Y49.105 I-1 J0 F150
X148.9 Y49.105 I1 J0
G1 Z-3.6 F20
G3 X146.9 Y49.105 I-1 J0 F150
X148.9 Y49.105 I1 J0
G1 Z-4.2 F20
G3 X146.9 Y49.105 I-1 J0 F150
X148.9 Y49.105 I1 J0
G1 Z4
Y69.105
Z1
Z-0.6 F20
G3 X146.9 Y69.105 I-1 J0 F150
X148.9 Y69.105 I1 J0
G1 Z-1.2 F20
G3 X146.9 Y69.105 I-1 J0 F150
X148.9 Y69.105 I1 J0
G1 Z-1.8 F20
G3 X146.9 Y69.105 I-1 J0 F150
X148.9 Y69.105 I1 J0
G1 Z-2.4 F20
G3 X146.9 Y69.105 I-1 J0 F150
X148.9 Y69.105 I1 J0
G1 Z-3 F20
G3 X146.9 Y69.105 I-1 J0 F150
X148.9 Y69.105 I1 J0
G1 Z-3.6 F20
G3 X146.9 Y69.105 I-1 J0 F150
X148.9 Y69.105 I1 J0
G1 Z-4.2 F20
G3 X146.9 Y69.105 I-1 J0 F150
X148.9 Y69.105 I1 J0
G1 Z4
Y79.105
Z1
Z-0.6 F20
G3 X146.9 Y79.105 I-1 J0 F150
X148.9 Y79.105 I1 J0
G1 Z-1.2 F20
G3 X146.9 Y79.105 I-1 J0 F150
X148.9 Y79.105 I1 J0
G1 Z-1.8 F20
G3 X146.9 Y79.105 I-1 J0 F150
X148.9 Y79.105 I1 J0
G1 Z-2.4 F20
G3 X146.9 Y79.105 I-1 J0 F150
X148.9 Y79.105 I1 J0
G1 Z-3 F20
G3 X146.9 Y79.105 I-1 J0 F150
X148.9 Y79.105 I1 J0
G1 Z-3.6 F20
G3 X146.9 Y79.105 I-1 J0 F150
X148.9 Y79.105 I1 J0
G1 Z-4.2 F20
G3 X146.9 Y79.105 I-1 J0 F150
X148.9 Y79.105 I1 J0
G1 Z4
Y89.105
Z1
Z-0.6 F20
G3 X146.9 Y89.105 I-1 J0 F150
X148.9 Y89.105 I1 J0
G1 Z-1.2 F20
G3 X146.9 Y89.105 I-1 J0 F150
X148.9 Y89.105 I1 J0
G1 Z-1.8 F20
G3 X146.9 Y89.105 I-1 J0 F150
X148.9 Y89.105 I1 J0
G1 Z-2.4 F20
G3 X146.9 Y89.105 I-1 J0 F150
X148.9 Y89.105 I1 J0
G1 Z-3 F20
G3 X146.9 Y89.105 I-1 J0 F150
X148.9 Y89.105 I1 J0
G1 Z-3.6 F20
G3 X146.9 Y89.105 I-1 J0 F150
X148.9 Y89.105 I1 J0
G1 Z-4.2 F20
G3 X146.9 Y89.105 I-1 J0 F150
X148.9 Y89.105 I1 J0
G1 Z4
X131.2 Y40.75
Z1
Z-0.6 F20
G3 X130.3 Y40.75 I-0.45 J0 F150
X131.2 Y40.75 I0.45 J0
G1 Z-1.2 F20
G3 X130.3 Y40.75 I-0.45 J0 F150
X131.2 Y40.75 I0.45 J0
G1 Z-1.8 F20
G3 X130.3 Y40.75 I-0.45 J0 F150
X131.2 Y40.75 I0.45 J0
G1 Z-2.4 F20
G3 X130.3 Y40.75 I-0.45 J0 F150
X131.2 Y40.75 I0.45 J0
G1 Z-3 F20
G3 X130.3 Y40.75 I-0.45 J0 F150
X131.2 Y40.75 I0.45 J0
G1 Z-3.6 F20
G3 X130.3 Y40.75 I-0.45 J0 F150
X131.2 Y40.75 I0.45 J0
G1 Z-4.2 F20
G3 X130.3 Y40.75 I-0.45 J0 F150
X131.2 Y40.75 I0.45 J0
G1 Z4
X121.2
Z1
Z-0.6 F20
G3 X120.3 Y40.75 I-0.45 J0 F150
X121.2 Y40.75 I0.45 J0
G1 Z-1.2 F20
G3 X120.3 Y40.75 I-0.45 J0 F150
X121.2 Y40.75 I0.45 J0
G1 Z-1.8 F20
G3 X120.3 Y40.75 I-0.45 J0 F150
X121.2 Y40.75 I0.45 J0
G1 Z-2.4 F20
G3 X120.3 Y40.75 I-0.45 J0 F150
X121.2 Y40.75 I0.45 J0
G1 Z-3 F20
G3 X120.3 Y40.75 I-0.45 J0 F150
X121.2 Y40.75 I0.45 J0
G1 Z-3.6 F20
G3 X120.3 Y40.75 I-0.45 J0 F150
X121.2 Y40.75 I0.45 J0
G1 Z-4.2 F20
G3 X120.3 Y40.75 I-0.45 J0 F150
X121.2 Y40.75 I0.45 J0
G1 Z4
X69.521 Y17.687
Z1
Z-0.6 F20
G3 X68.653 Y17.3 I-0.434 J-0.193 F150
X69.521 Y17.687 I0.434 J0.193
G1 Z-1.2 F20
G3 X68.653 Y17.3 I-0.434 J-0.193 F150
X69.521 Y17.687 I0.434 J0.193
G1 Z-1.8 F20
G3 X68.653 Y17.3 I-0.434 J-0.193 F150
X69.521 Y17.687 I0.434 J0.193
G1 Z-2.4 F20
G3 X68.653 Y17.3 I-0.434 J-0.193 F150
X69.521 Y17.687 I0.434 J0.193
G1 Z-3 F20
G3 X68.653 Y17.3 I-0.434 J-0.193 F150
X69.521 Y17.687 I0.434 J0.193
G1 Z-3.6 F20
G3 X68.653 Y17.3 I-0.434 J-0.193 F150
X69.521 Y17.687 I0.434 J0.193
G1 Z-4.2 F20
G3 X68.653 Y17.3 I-0.434 J-0.193 F150
X69.521 Y17.687 I0.434 J0.193
G1 Z4
X59.562 Y17.494
Z1
Z-0.6 F20
G3 X58.612 Y17.494 I-0.475 J0 F150
X59.562 Y17.494 I0.475 J0
G1 Z-1.2 F20
G3 X58.612 Y17.494 I-0.475 J0 F150
X59.562 Y17.494 I0.475 J0
G1 Z-1.8 F20
G3 X58.612 Y17.494 I-0.475 J0 F150
X59.562 Y17.494 I0.475 J0
G1 Z-2.4 F20
G3 X58.612 Y17.494 I-0.475 J0 F150
X59.562 Y17.494 I0.475 J0
G1 Z-3 F20
G3 X58.612 Y17.494 I-0.475 J0 F150
X59.562 Y17.494 I0.475 J0
G1 Z-3.6 F20
G3 X58.612 Y17.494 I-0.475 J0 F150
X59.562 Y17.494 I0.475 J0
G1 Z-4.2 F20
G3 X58.612 Y17.494 I-0.475 J0 F150
X59.562 Y17.494 I0.475 J0
G1 Z4
X49.562
Z1
Z-0.6 F20
G3 X48.612 Y17.494 I-0.475 J0 F150
X49.562 Y17.494 I0.475 J0
G1 Z-1.2 F20
G3 X48.612 Y17.494 I-0.475 J0 F150
X49.562 Y17.494 I0.475 J0
G1 Z-1.8 F20
G3 X48.612 Y17.494 I-0.475 J0 F150
X49.562 Y17.494 I0.475 J0
G1 Z-2.4 F20
G3 X48.612 Y17.494 I-0.475 J0 F150
X49.562 Y17.494 I0.475 J0
G1 Z-3 F20
G3 X48.612 Y17.494 I-0.475 J0 F150
X49.562 Y17.494 I0.475 J0
G1 Z-3.6 F20
G3 X48.612 Y17.494 I-0.475 J0 F150
X49.562 Y17.494 I0.475 J0
G1 Z-4.2 F20
G3 X48.612 Y17.494 I-0.475 J0 F150
X49.562 Y17.494 I0.475 J0
G1 Z4
X39.562
Z1
Z-0.6 F20
G3 X38.612 Y17.494 I-0.475 J0 F150
X39.562 Y17.494 I0.475 J0
G1 Z-1.2 F20
G3 X38.612 Y17.494 I-0.475 J0 F150
X39.562 Y17.494 I0.475 J0
G1 Z-1.8 F20
G3 X38.612 Y17.494 I-0.475 J0 F150
X39.562 Y17.494 I0.475 J0
G1 Z-2.4 F20
G3 X38.612 Y17.494 I-0.475 J0 F150
X39.562 Y17.494 I0.475 J0
G1 Z-3 F20
G3 X38.612 Y17.494 I-0.475 J0 F150
X39.562 Y17.494 I0.475 J0
G1 Z-3.6 F20
G3 X38.612 Y17.494 I-0.475 J0 F150
X39.562 Y17.494 I0.475 J0
G1 Z-4.2 F20
G3 X38.612 Y17.494 I-0.475 J0 F150
X39.562 Y17.494 I0.475 J0
G1 Z4
X11.75 Y20.75
Z1
Z-0.6 F20
G3 X9.75 Y20.75 I-1 J0 F150
X11.75 Y20.75 I1 J0
G1 Z-1.2 F20
G3 X9.75 Y20.75 I-1 J0 F150
X11.75 Y20.75 I1 J0
G1 Z-1.8 F20
G3 X9.75 Y20.75 I-1 J0 F150
X11.75 Y20.75 I1 J0
G1 Z-2.4 F20
G3 X9.75 Y20.75 I-1 J0 F150
X11.75 Y20.75 I1 J0
G1 Z-3 F20
G3 X9.75 Y20.75 I-1 J0 F150
X11.75 Y20.75 I1 J0
G1 Z-3.6 F20
G3 X9.75 Y20.75 I-1 J0 F150
X11.75 Y20.75 I1 J0
G1 Z-4.2 F20
G3 X9.75 Y20.75 I-1 J0 F150
X11.75 Y20.75 I1 J0
G1 Z4
Y10.75
Z1
Z-0.6 F20
G3 X9.75 Y10.75 I-1 J0 F150
X11.75 Y10.75 I1 J0
G1 Z-1.2 F20
G3 X9.75 Y10.75 I-1 J0 F150
X11.75 Y10.75 I1 J0
G1 Z-1.8 F20
G3 X9.75 Y10.75 I-1 J0 F150
X11.75 Y10.75 I1 J0
G1 Z-2.4 F20
G3 X9.75 Y10.75 I-1 J0 F150
X11.75 Y10.75 I1 J0
G1 Z-3 F20
G3 X9.75 Y10.75 I-1 J0 F150
X11.75 Y10.75 I1 J0
G1 Z-3.6 F20
G3 X9.75 Y10.75 I-1 J0 F150
X11.75 Y10.75 I1 J0
G1 Z-4.2 F20
G3 X9.75 Y10.75 I-1 J0 F150
X11.75 Y10.75 I1 J0
G1 Z4
Y30.75
Z1
Z-0.6 F20
G3 X9.75 Y30.75 I-1 J0 F150
X11.75 Y30.75 I1 J0
G1 Z-1.2 F20
G3 X9.75 Y30.75 I-1 J0 F150
X11.75 Y30.75 I1 J0
G1 Z-1.8 F20
G3 X9.75 Y30.75 I-1 J0 F150
X11.75 Y30.75 I1 J0
G1 Z-2.4 F20
G3 X9.75 Y30.75 I-1 J0 F150
X11.75 Y30.75 I1 J0
G1 Z-3 F20
G3 X9.75 Y30.75 I-1 J0 F150
X11.75 Y30.75 I1 J0
G1 Z-3.6 F20
G3 X9.75 Y30.75 I-1 J0 F150
X11.75 Y30.75 I1 J0
G1 Z-4.2 F20
G3 X9.75 Y30.75 I-1 J0 F150
X11.75 Y30.75 I1 J0
G1 Z4
Y50.75
Z1
Z-0.6 F20
G3 X9.75 Y50.75 I-1 J0 F150
X11.75 Y50.75 I1 J0
G1 Z-1.2 F20
G3 X9.75 Y50.75 I-1 J0 F150
X11.75 Y50.75 I1 J0
G1 Z-1.8 F20
G3 X9.75 Y50.75 I-1 J0 F150
X11.75 Y50.75 I1 J0
G1 Z-2.4 F20
G3 X9.75 Y50.75 I-1 J0 F150
X11.75 Y50.75 I1 J0
G1 Z-3 F20
G3 X9.75 Y50.75 I-1 J0 F150
X11.75 Y50.75 I1 J0
G1 Z-3.6 F20
G3 X9.75 Y50.75 I-1 J0 F150
X11.75 Y50.75 I1 J0
G1 Z-4.2 F20
G3 X9.75 Y50.75 I-1 J0 F150
X11.75 Y50.75 I1 J0
G1 Z4
Y60.75
Z1
Z-0.6 F20
G3 X9.75 Y60.75 I-1 J0 F150
X11.75 Y60.75 I1 J0
G1 Z-1.2 F20
G3 X9.75 Y60.75 I-1 J0 F150
X11.75 Y60.75 I1 J0
G1 Z-1.8 F20
G3 X9.75 Y60.75 I-1 J0 F150
X11.75 Y60.75 I1 J0
G1 Z-2.4 F20
G3 X9.75 Y60.75 I-1 J0 F150
X11.75 Y60.75 I1 J0
G1 Z-3 F20
G3 X9.75 Y60.75 I-1 J0 F150
X11.75 Y60.75 I1 J0
G1 Z-3.6 F20
G3 X9.75 Y60.75 I-1 J0 F150
X11.75 Y60.75 I1 J0
G1 Z-4.2 F20
G3 X9.75 Y60.75 I-1 J0 F150
X11.75 Y60.75 I1 J0
G1 Z4
Y70.75
Z1
Z-0.6 F20
G3 X9.75 Y70.75 I-1 J0 F150
X11.75 Y70.75 I1 J0
G1 Z-1.2 F20
G3 X9.75 Y70.75 I-1 J0 F150
X11.75 Y70.75 I1 J0
G1 Z-1.8 F20
G3 X9.75 Y70.75 I-1 J0 F150
X11.75 Y70.75 I1 J0
G1 Z-2.4 F20
G3 X9.75 Y70.75 I-1 J0 F150
X11.75 Y70.75 I1 J0
G1 Z-3 F20
G3 X9.75 Y70.75 I-1 J0 F150
X11.75 Y70.75 I1 J0
G1 Z-3.6 F20
G3 X9.75 Y70.75 I-1 J0 F150
X11.75 Y70.75 I1 J0
G1 Z-4.2 F20
G3 X9.75 Y70.75 I-1 J0 F150
X11.75 Y70.75 I1 J0
G1 Z4
X28.35 Y59.105
Z1
Z-0.6 F20
G3 X27.45 Y59.105 I-0.45 J0 F150
X28.35 Y59.105 I0.45 J0
G1 Z-1.2 F20
G3 X27.45 Y59.105 I-0.45 J0 F150
X28.35 Y59.105 I0.45 J0
G1 Z-1.8 F20
G3 X27.45 Y59.105 I-0.45 J0 F150
X28.35 Y59.105 I0.45 J0
G1 Z-2.4 F20
G3 X27.45 Y59.105 I-0.45 J0 F150
X28.35 Y59.105 I0.45 J0
G1 Z-3 F20
G3 X27.45 Y59.105 I-0.45 J0 F150
X28.35 Y59.105 I0.45 J0
G1 Z-3.6 F20
G3 X27.45 Y59.105 I-0.45 J0 F150
X28.35 Y59.105 I0.45 J0
G1 Z-4.2 F20
G3 X27.45 Y59.105 I-0.45 J0 F150
X28.35 Y59.105 I0.45 J0
G1 Z4
X38.35
Z1
Z-0.6 F20
G3 X37.45 Y59.105 I-0.45 J0 F150
X38.35 Y59.105 I0.45 J0
G1 Z-1.2 F20
G3 X37.45 Y59.105 I-0.45 J0 F150
X38.35 Y59.105 I0.45 J0
G1 Z-1.8 F20
G3 X37.45 Y59.105 I-0.45 J0 F150
X38.35 Y59.105 I0.45 J0
G1 Z-2.4 F20
G3 X37.45 Y59.105 I-0.45 J0 F150
X38.35 Y59.105 I0.45 J0
G1 Z-3 F20
G3 X37.45 Y59.105 I-0.45 J0 F150
X38.35 Y59.105 I0.45 J0
G1 Z-3.6 F20
G3 X37.45 Y59.105 I-0.45 J0 F150
X38.35 Y59.105 I0.45 J0
G1 Z-4.2 F20
G3 X37.45 Y59.105 I-0.45 J0 F150
X38.35 Y59.105 I0.45 J0
G1 Z5
(When using Fusion 360 for Personal Use, the feedrate of)
(rapid moves is reduced to match the feedrate of cutting)
(moves, which can increase machining time. Unrestricted rapid)
(moves are available with a Fusion 360 Subscription.)

(Borders)
G0 X28.342 Y50.837
G1 Z5 F150
Z1
Z-0.6 F20
X130.995 Y45.243 F150
G2 X130.995 Y36.257 I-0.245 J-4.493
G1 X36.012 Y31.081
X28.342 Y30.663
G3 X21.25 Y23.174 I0.408 J-7.489
G1 Y8.75
G2 X12.75 Y0.25 I-8.5 J0
G1 X0.75
G2 X0.25 Y0.75 I0 J0.5
G1 Y80.75
G2 X0.75 Y81.25 I0.5 J0
G1 X12.75
G2 X21.25 Y72.75 I0 J-8.5
G1 Y58.326
G3 X28.342 Y50.837 I7.5 J0
G1 Z-1.2 F20
X130.995 Y45.243 F150
G2 X130.995 Y36.257 I-0.245 J-4.493
G1 X36.012 Y31.081
X28.342 Y30.663
G3 X21.25 Y23.174 I0.408 J-7.489
G1 Y8.75
G2 X12.75 Y0.25 I-8.5 J0
G1 X0.75
G2 X0.25 Y0.75 I0 J0.5
G1 Y80.75
G2 X0.75 Y81.25 I0.5 J0
G1 X12.75
G2 X21.25 Y72.75 I0 J-8.5
G1 Y58.326
G3 X28.342 Y50.837 I7.5 J0
G1 Z-1.8 F20
X130.995 Y45.243 F150
G2 X130.995 Y36.257 I-0.245 J-4.493
G1 X36.012 Y31.081
X28.342 Y30.663
G3 X21.25 Y23.174 I0.408 J-7.489
G1 Y8.75
G2 X12.75 Y0.25 I-8.5 J0
G1 X0.75
G2 X0.25 Y0.75 I0 J0.5
G1 Y80.75
G2 X0.75 Y81.25 I0.5 J0
G1 X12.75
G2 X21.25 Y72.75 I0 J-8.5
G1 Y58.326
G3 X28.342 Y50.837 I7.5 J0
G1 Z-2.4 F20
X130.995 Y45.243 F150
G2 X130.995 Y36.257 I-0.245 J-4.493
G1 X36.012 Y31.081
X28.342 Y30.663
G3 X21.25 Y23.174 I0.408 J-7.489
G1 Y8.75
G2 X12.75 Y0.25 I-8.5 J0
G1 X0.75
G2 X0.25 Y0.75 I0 J0.5
G1 Y80.75
G2 X0.75 Y81.25 I0.5 J0
G1 X12.75
G2 X21.25 Y72.75 I0 J-8.5
G1 Y58.326
G3 X28.342 Y50.837 I7.5 J0
G1 Z-3 F20
X130.995 Y45.243 F150
G2 X130.995 Y36.257 I-0.245 J-4.493
G1 X36.012 Y31.081
X28.342 Y30.663
G3 X21.25 Y23.174 I0.408 J-7.489
G1 Y8.75
G2 X12.75 Y0.25 I-8.5 J0
G1 X0.75
G2 X0.25 Y0.75 I0 J0.5
G1 Y80.75
G2 X0.75 Y81.25 I0.5 J0
G1 X12.75
G2 X21.25 Y72.75 I0 J-8.5
G1 Y58.326
G3 X28.342 Y50.837 I7.5 J0
G1 Z-3.6 F20
X130.995 Y45.243 F150
G2 X130.995 Y36.257 I-0.245 J-4.493
G1 X36.012 Y31.081
X28.342 Y30.663
G3 X21.25 Y23.174 I0.408 J-7.489
G1 Y8.75
G2 X12.75 Y0.25 I-8.5 J0
G1 X0.75
G2 X0.25 Y0.75 I0 J0.5
G1 Y80.75
G2 X0.75 Y81.25 I0.5 J0
G1 X12.75
G2 X21.25 Y72.75 I0 J-8.5
G1 Y58.326
G3 X28.342 Y50.837 I7.5 J0
G1 Z-4.2 F20
X130.995 Y45.243 F150
G2 X130.995 Y36.257 I-0.245 J-4.493
G1 X36.012 Y31.081
X28.342 Y30.663
G3 X21.25 Y23.174 I0.408 J-7.489
G1 Y8.75
G2 X12.75 Y0.25 I-8.5 J0
G1 X0.75
G2 X0.25 Y0.75 I0 J0.5
G1 Y80.75
G2 X0.75 Y81.25 I0.5 J0
G1 X12.75
G2 X21.25 Y72.75 I0 J-8.5
G1 Y58.326
G3 X28.342 Y50.837 I7.5 J0
G1 Z4
X28.5 Y54.566
Z1
Z-0.6 F20
X27.655 Y54.612 F150
G2 X27.655 Y63.598 I0.245 J4.493
G1 X130.308 Y69.192
G3 X137.4 Y76.681 I-0.408 J7.489
G1 Y91.105
G2 X145.9 Y99.605 I8.5 J0
G1 X157.9
G2 X158.4 Y99.105 I0 J-0.5
G1 Y19.105
G2 X157.9 Y18.605 I-0.5 J0
G1 X145.9
G2 X137.4 Y27.105 I0 J8.5
G1 Y41.529
G3 X130.308 Y49.018 I-7.5 J0
G1 X28.5 Y54.566
Z-1.2 F20
X27.655 Y54.612 F150
G2 X27.655 Y63.598 I0.245 J4.493
G1 X130.308 Y69.192
G3 X137.4 Y76.681 I-0.408 J7.489
G1 Y91.105
G2 X145.9 Y99.605 I8.5 J0
G1 X157.9
G2 X158.4 Y99.105 I0 J-0.5
G1 Y19.105
G2 X157.9 Y18.605 I-0.5 J0
G1 X145.9
G2 X137.4 Y27.105 I0 J8.5
G1 Y41.529
G3 X130.308 Y49.018 I-7.5 J0
G1 X28.5 Y54.566
Z-1.8 F20
X27.655 Y54.612 F150
G2 X27.655 Y63.598 I0.245 J4.493
G1 X130.308 Y69.192
G3 X137.4 Y76.681 I-0.408 J7.489
G1 Y91.105
G2 X145.9 Y99.605 I8.5 J0
G1 X157.9
G2 X158.4 Y99.105 I0 J-0.5
G1 Y19.105
G2 X157.9 Y18.605 I-0.5 J0
G1 X145.9
G2 X137.4 Y27.105 I0 J8.5
G1 Y41.529
G3 X130.308 Y49.018 I-7.5 J0
G1 X28.5 Y54.566
Z-2.4 F20
X27.655 Y54.612 F150
G2 X27.655 Y63.598 I0.245 J4.493
G1 X130.308 Y69.192
G3 X137.4 Y76.681 I-0.408 J7.489
G1 Y91.105
G2 X145.9 Y99.605 I8.5 J0
G1 X157.9
G2 X158.4 Y99.105 I0 J-0.5
G1 Y19.105
G2 X157.9 Y18.605 I-0.5 J0
G1 X145.9
G2 X137.4 Y27.105 I0 J8.5
G1 Y41.529
G3 X130.308 Y49.018 I-7.5 J0
G1 X28.5 Y54.566
Z-3 F20
X27.655 Y54.612 F150
G2 X27.655 Y63.598 I0.245 J4.493
G1 X130.308 Y69.192
G3 X137.4 Y76.681 I-0.408 J7.489
G1 Y91.105
G2 X145.9 Y99.605 I8.5 J0
G1 X157.9
G2 X158.4 Y99.105 I0 J-0.5
G1 Y19.105
G2 X157.9 Y18.605 I-0.5 J0
G1 X145.9
G2 X137.4 Y27.105 I0 J8.5
G1 Y41.529
G3 X130.308 Y49.018 I-7.5 J0
G1 X28.5 Y54.566
Z-3.6 F20
X27.655 Y54.612 F150
G2 X27.655 Y63.598 I0.245 J4.493
G1 X130.308 Y69.192
G3 X137.4 Y76.681 I-0.408 J7.489
G1 Y91.105
G2 X145.9 Y99.605 I8.5 J0
G1 X157.9
G2 X158.4 Y99.105 I0 J-0.5
G1 Y19.105
G2 X157.9 Y18.605 I-0.5 J0
G1 X145.9
G2 X137.4 Y27.105 I0 J8.5
G1 Y41.529
G3 X130.308 Y49.018 I-7.5 J0
G1 X28.5 Y54.566
Z-4.2 F20
X27.655 Y54.612 F150
G2 X27.655 Y63.598 I0.245 J4.493
G1 X130.308 Y69.192
G3 X137.4 Y76.681 I-0.408 J7.489
G1 Y91.105
G2 X145.9 Y99.605 I8.5 J0
G1 X157.9
G2 X158.4 Y99.105 I0 J-0.5
G1 Y19.105
G2 X157.9 Y18.605 I-0.5 J0
G1 X145.9
G2 X137.4 Y27.105 I0 J8.5
G1 Y41.529
G3 X130.308 Y49.018 I-7.5 J0
G1 X28.5 Y54.566
Z4
X33.808 Y21.123
Z1
Z-0.6 F20
G2 X36.587 Y22.994 I2.779 J-1.13 F150
G1 X131.587
G2 X134.587 Y19.994 I0 J-3
G1 Y14.994
G2 X131.587 Y11.994 I-3 J0
G1 X36.587
G2 X33.587 Y14.994 I0 J3
G1 Y19.994
G2 X33.808 Y21.123 I3 J0
G1 Z-1.2 F20
G2 X36.587 Y22.994 I2.779 J-1.13 F150
G1 X131.587
G2 X134.587 Y19.994 I0 J-3
G1 Y14.994
G2 X131.587 Y11.994 I-3 J0
G1 X36.587
G2 X33.587 Y14.994 I0 J3
G1 Y19.994
G2 X33.808 Y21.123 I3 J0
G1 Z-1.8 F20
G2 X36.587 Y22.994 I2.779 J-1.13 F150
G1 X131.587
G2 X134.587 Y19.994 I0 J-3
G1 Y14.994
G2 X131.587 Y11.994 I-3 J0
G1 X36.587
G2 X33.587 Y14.994 I0 J3
G1 Y19.994
G2 X33.808 Y21.123 I3 J0
G1 Z-2.4 F20
G2 X36.587 Y22.994 I2.779 J-1.13 F150
G1 X131.587
G2 X134.587 Y19.994 I0 J-3
G1 Y14.994
G2 X131.587 Y11.994 I-3 J0
G1 X36.587
G2 X33.587 Y14.994 I0 J3
G1 Y19.994
G2 X33.808 Y21.123 I3 J0
G1 Z-3 F20
G2 X36.587 Y22.994 I2.779 J-1.13 F150
G1 X131.587
G2 X134.587 Y19.994 I0 J-3
G1 Y14.994
G2 X131.587 Y11.994 I-3 J0
G1 X36.587
G2 X33.587 Y14.994 I0 J3
G1 Y19.994
G2 X33.808 Y21.123 I3 J0
G1 Z-3.6 F20
G2 X36.587 Y22.994 I2.779 J-1.13 F150
G1 X131.587
G2 X134.587 Y19.994 I0 J-3
G1 Y14.994
G2 X131.587 Y11.994 I-3 J0
G1 X36.587
G2 X33.587 Y14.994 I0 J3
G1 Y19.994
G2 X33.808 Y21.123 I3 J0
G1 Z-4.2 F20
G2 X36.587 Y22.994 I2.779 J-1.13 F150
G1 X131.587
G2 X134.587 Y19.994 I0 J-3
G1 Y14.994
G2 X131.587 Y11.994 I-3 J0
G1 X36.587
G2 X33.587 Y14.994 I0 J3
G1 Y19.994
G2 X33.808 Y21.123 I3 J0
G1 Z5
M5
M30
