(Base_1DOF_Sensored)
(T1  D=1 CR=0 - ZMIN=-4.2 - flat end mill)
G90 G94
G17
G21
(When using Fusion 360 for Personal Use, the feedrate of)
(rapid moves is reduced to match the feedrate of cutting)
(moves, which can increase machining time. Unrestricted rapid)
(moves are available with a Fusion 360 Subscription.)

(Borders)
S20000 M3
G54
G0 X50.825 Y-4.638
Z5
G1 Z1 F150
Z-0.6 F20
X51.67 Y-4.684 F150
G2 X51.67 Y-13.671 I-0.245 J-4.493
G1 X-43.313 Y-18.847
X-50.983 Y-19.265
G3 X-58.075 Y-26.753 I0.408 J-7.489
G1 Y-41.178
G2 X-66.575 Y-49.678 I-8.5 J0
G1 X-78.575
G2 X-79.075 Y-49.178 I0 J0.5
G1 Y30.822
G2 X-78.575 Y31.322 I0.5 J0
G1 X-66.575
G2 X-58.075 Y22.822 I0 J-8.5
G1 Y8.398
G3 X-50.983 Y0.909 I7.5 J0
G1 X50.825 Y-4.638
Z-1.2 F20
X51.67 Y-4.684 F150
G2 X51.67 Y-13.671 I-0.245 J-4.493
G1 X-43.313 Y-18.847
X-50.983 Y-19.265
G3 X-58.075 Y-26.753 I0.408 J-7.489
G1 Y-41.178
G2 X-66.575 Y-49.678 I-8.5 J0
G1 X-78.575
G2 X-79.075 Y-49.178 I0 J0.5
G1 Y30.822
G2 X-78.575 Y31.322 I0.5 J0
G1 X-66.575
G2 X-58.075 Y22.822 I0 J-8.5
G1 Y8.398
G3 X-50.983 Y0.909 I7.5 J0
G1 X50.825 Y-4.638
Z-1.8 F20
X51.67 Y-4.684 F150
G2 X51.67 Y-13.671 I-0.245 J-4.493
G1 X-43.313 Y-18.847
X-50.983 Y-19.265
G3 X-58.075 Y-26.753 I0.408 J-7.489
G1 Y-41.178
G2 X-66.575 Y-49.678 I-8.5 J0
G1 X-78.575
G2 X-79.075 Y-49.178 I0 J0.5
G1 Y30.822
G2 X-78.575 Y31.322 I0.5 J0
G1 X-66.575
G2 X-58.075 Y22.822 I0 J-8.5
G1 Y8.398
G3 X-50.983 Y0.909 I7.5 J0
G1 X50.825 Y-4.638
Z-2.4 F20
X51.67 Y-4.684 F150
G2 X51.67 Y-13.671 I-0.245 J-4.493
G1 X-43.313 Y-18.847
X-50.983 Y-19.265
G3 X-58.075 Y-26.753 I0.408 J-7.489
G1 Y-41.178
G2 X-66.575 Y-49.678 I-8.5 J0
G1 X-78.575
G2 X-79.075 Y-49.178 I0 J0.5
G1 Y30.822
G2 X-78.575 Y31.322 I0.5 J0
G1 X-66.575
G2 X-58.075 Y22.822 I0 J-8.5
G1 Y8.398
G3 X-50.983 Y0.909 I7.5 J0
G1 X50.825 Y-4.638
Z-3 F20
X51.67 Y-4.684 F150
G2 X51.67 Y-13.671 I-0.245 J-4.493
G1 X-43.313 Y-18.847
X-50.983 Y-19.265
G3 X-58.075 Y-26.753 I0.408 J-7.489
G1 Y-41.178
G2 X-66.575 Y-49.678 I-8.5 J0
G1 X-78.575
G2 X-79.075 Y-49.178 I0 J0.5
G1 Y30.822
G2 X-78.575 Y31.322 I0.5 J0
G1 X-66.575
G2 X-58.075 Y22.822 I0 J-8.5
G1 Y8.398
G3 X-50.983 Y0.909 I7.5 J0
G1 X50.825 Y-4.638
Z-3.6 F20
X51.67 Y-4.684 F150
G2 X51.67 Y-13.671 I-0.245 J-4.493
G1 X-43.313 Y-18.847
X-50.983 Y-19.265
G3 X-58.075 Y-26.753 I0.408 J-7.489
G1 Y-41.178
G2 X-66.575 Y-49.678 I-8.5 J0
G1 X-78.575
G2 X-79.075 Y-49.178 I0 J0.5
G1 Y30.822
G2 X-78.575 Y31.322 I0.5 J0
G1 X-66.575
G2 X-58.075 Y22.822 I0 J-8.5
G1 Y8.398
G3 X-50.983 Y0.909 I7.5 J0
G1 X50.825 Y-4.638
Z-4.2 F20
X51.67 Y-4.684 F150
G2 X51.67 Y-13.671 I-0.245 J-4.493
G1 X-43.313 Y-18.847
X-50.983 Y-19.265
G3 X-58.075 Y-26.753 I0.408 J-7.489
G1 Y-41.178
G2 X-66.575 Y-49.678 I-8.5 J0
G1 X-78.575
G2 X-79.075 Y-49.178 I0 J0.5
G1 Y30.822
G2 X-78.575 Y31.322 I0.5 J0
G1 X-66.575
G2 X-58.075 Y22.822 I0 J-8.5
G1 Y8.398
G3 X-50.983 Y0.909 I7.5 J0
G1 X50.825 Y-4.638
Z4
X51.043 Y-0.913
Z1
Z-0.6 F20
X50.983 Y-0.909 F150
X-51.67 Y4.684
G2 X-51.67 Y13.671 I0.245 J4.493
G1 X50.983 Y19.265
G3 X58.075 Y26.753 I-0.408 J7.489
G1 Y41.178
G2 X66.575 Y49.678 I8.5 J0
G1 X78.575
G2 X79.075 Y49.178 I0 J-0.5
G1 Y-30.822
G2 X78.575 Y-31.322 I-0.5 J0
G1 X66.575
G2 X58.075 Y-22.822 I0 J8.5
G1 Y-8.398
G3 X51.043 Y-0.913 I-7.5 J0
G1 Z-1.2 F20
X50.983 Y-0.909 F150
X-51.67 Y4.684
G2 X-51.67 Y13.671 I0.245 J4.493
G1 X50.983 Y19.265
G3 X58.075 Y26.753 I-0.408 J7.489
G1 Y41.178
G2 X66.575 Y49.678 I8.5 J0
G1 X78.575
G2 X79.075 Y49.178 I0 J-0.5
G1 Y-30.822
G2 X78.575 Y-31.322 I-0.5 J0
G1 X66.575
G2 X58.075 Y-22.822 I0 J8.5
G1 Y-8.398
G3 X51.043 Y-0.913 I-7.5 J0
G1 Z-1.8 F20
X50.983 Y-0.909 F150
X-51.67 Y4.684
G2 X-51.67 Y13.671 I0.245 J4.493
G1 X50.983 Y19.265
G3 X58.075 Y26.753 I-0.408 J7.489
G1 Y41.178
G2 X66.575 Y49.678 I8.5 J0
G1 X78.575
G2 X79.075 Y49.178 I0 J-0.5
G1 Y-30.822
G2 X78.575 Y-31.322 I-0.5 J0
G1 X66.575
G2 X58.075 Y-22.822 I0 J8.5
G1 Y-8.398
G3 X51.043 Y-0.913 I-7.5 J0
G1 Z-2.4 F20
X50.983 Y-0.909 F150
X-51.67 Y4.684
G2 X-51.67 Y13.671 I0.245 J4.493
G1 X50.983 Y19.265
G3 X58.075 Y26.753 I-0.408 J7.489
G1 Y41.178
G2 X66.575 Y49.678 I8.5 J0
G1 X78.575
G2 X79.075 Y49.178 I0 J-0.5
G1 Y-30.822
G2 X78.575 Y-31.322 I-0.5 J0
G1 X66.575
G2 X58.075 Y-22.822 I0 J8.5
G1 Y-8.398
G3 X51.043 Y-0.913 I-7.5 J0
G1 Z-3 F20
X50.983 Y-0.909 F150
X-51.67 Y4.684
G2 X-51.67 Y13.671 I0.245 J4.493
G1 X50.983 Y19.265
G3 X58.075 Y26.753 I-0.408 J7.489
G1 Y41.178
G2 X66.575 Y49.678 I8.5 J0
G1 X78.575
G2 X79.075 Y49.178 I0 J-0.5
G1 Y-30.822
G2 X78.575 Y-31.322 I-0.5 J0
G1 X66.575
G2 X58.075 Y-22.822 I0 J8.5
G1 Y-8.398
G3 X51.043 Y-0.913 I-7.5 J0
G1 Z-3.6 F20
X50.983 Y-0.909 F150
X-51.67 Y4.684
G2 X-51.67 Y13.671 I0.245 J4.493
G1 X50.983 Y19.265
G3 X58.075 Y26.753 I-0.408 J7.489
G1 Y41.178
G2 X66.575 Y49.678 I8.5 J0
G1 X78.575
G2 X79.075 Y49.178 I0 J-0.5
G1 Y-30.822
G2 X78.575 Y-31.322 I-0.5 J0
G1 X66.575
G2 X58.075 Y-22.822 I0 J8.5
G1 Y-8.398
G3 X51.043 Y-0.913 I-7.5 J0
G1 Z-4.2 F20
X50.983 Y-0.909 F150
X-51.67 Y4.684
G2 X-51.67 Y13.671 I0.245 J4.493
G1 X50.983 Y19.265
G3 X58.075 Y26.753 I-0.408 J7.489
G1 Y41.178
G2 X66.575 Y49.678 I8.5 J0
G1 X78.575
G2 X79.075 Y49.178 I0 J-0.5
G1 Y-30.822
G2 X78.575 Y-31.322 I-0.5 J0
G1 X66.575
G2 X58.075 Y-22.822 I0 J8.5
G1 Y-8.398
G3 X51.043 Y-0.913 I-7.5 J0
G1 Z4
X51.454 Y-26.934
Z1
Z-0.6 F20
X52.262 F150
G2 X55.262 Y-29.934 I0 J-3
G1 Y-34.934
G2 X52.262 Y-37.934 I-3 J0
G1 X-42.738
G2 X-45.738 Y-34.934 I0 J3
G1 Y-29.934
G2 X-42.738 Y-26.934 I3 J0
G1 X51.454
Z-1.2 F20
X52.262 F150
G2 X55.262 Y-29.934 I0 J-3
G1 Y-34.934
G2 X52.262 Y-37.934 I-3 J0
G1 X-42.738
G2 X-45.738 Y-34.934 I0 J3
G1 Y-29.934
G2 X-42.738 Y-26.934 I3 J0
G1 X51.454
Z-1.8 F20
X52.262 F150
G2 X55.262 Y-29.934 I0 J-3
G1 Y-34.934
G2 X52.262 Y-37.934 I-3 J0
G1 X-42.738
G2 X-45.738 Y-34.934 I0 J3
G1 Y-29.934
G2 X-42.738 Y-26.934 I3 J0
G1 X51.454
Z-2.4 F20
X52.262 F150
G2 X55.262 Y-29.934 I0 J-3
G1 Y-34.934
G2 X52.262 Y-37.934 I-3 J0
G1 X-42.738
G2 X-45.738 Y-34.934 I0 J3
G1 Y-29.934
G2 X-42.738 Y-26.934 I3 J0
G1 X51.454
Z-3 F20
X52.262 F150
G2 X55.262 Y-29.934 I0 J-3
G1 Y-34.934
G2 X52.262 Y-37.934 I-3 J0
G1 X-42.738
G2 X-45.738 Y-34.934 I0 J3
G1 Y-29.934
G2 X-42.738 Y-26.934 I3 J0
G1 X51.454
Z-3.6 F20
X52.262 F150
G2 X55.262 Y-29.934 I0 J-3
G1 Y-34.934
G2 X52.262 Y-37.934 I-3 J0
G1 X-42.738
G2 X-45.738 Y-34.934 I0 J3
G1 Y-29.934
G2 X-42.738 Y-26.934 I3 J0
G1 X51.454
Z-4.2 F20
X52.262 F150
G2 X55.262 Y-29.934 I0 J-3
G1 Y-34.934
G2 X52.262 Y-37.934 I-3 J0
G1 X-42.738
G2 X-45.738 Y-34.934 I0 J3
G1 Y-29.934
G2 X-42.738 Y-26.934 I3 J0
G1 X51.454
Z5
(When using Fusion 360 for Personal Use, the feedrate of)
(rapid moves is reduced to match the feedrate of cutting)
(moves, which can increase machining time. Unrestricted rapid)
(moves are available with a Fusion 360 Subscription.)

(Holes)
G0 X0.237 Y-32.434
G1 Z5 F150
Z1
Z-0.6 F20
G3 X-0.713 Y-32.434 I-0.475 J0 F150
X0.237 Y-32.434 I0.475 J0
G1 Z-1.2 F20
G3 X-0.713 Y-32.434 I-0.475 J0 F150
X0.237 Y-32.434 I0.475 J0
G1 Z-1.8 F20
G3 X-0.713 Y-32.434 I-0.475 J0 F150
X0.237 Y-32.434 I0.475 J0
G1 Z-2.4 F20
G3 X-0.713 Y-32.434 I-0.475 J0 F150
X0.237 Y-32.434 I0.475 J0
G1 Z-3 F20
G3 X-0.713 Y-32.434 I-0.475 J0 F150
X0.237 Y-32.434 I0.475 J0
G1 Z-3.6 F20
G3 X-0.713 Y-32.434 I-0.475 J0 F150
X0.237 Y-32.434 I0.475 J0
G1 Z-4.2 F20
G3 X-0.713 Y-32.434 I-0.475 J0 F150
X0.237 Y-32.434 I0.475 J0
G1 Z4
X10.237
Z1
Z-0.6 F20
G3 X9.287 Y-32.434 I-0.475 J0 F150
X10.237 Y-32.434 I0.475 J0
G1 Z-1.2 F20
G3 X9.287 Y-32.434 I-0.475 J0 F150
X10.237 Y-32.434 I0.475 J0
G1 Z-1.8 F20
G3 X9.287 Y-32.434 I-0.475 J0 F150
X10.237 Y-32.434 I0.475 J0
G1 Z-2.4 F20
G3 X9.287 Y-32.434 I-0.475 J0 F150
X10.237 Y-32.434 I0.475 J0
G1 Z-3 F20
G3 X9.287 Y-32.434 I-0.475 J0 F150
X10.237 Y-32.434 I0.475 J0
G1 Z-3.6 F20
G3 X9.287 Y-32.434 I-0.475 J0 F150
X10.237 Y-32.434 I0.475 J0
G1 Z-4.2 F20
G3 X9.287 Y-32.434 I-0.475 J0 F150
X10.237 Y-32.434 I0.475 J0
G1 Z4
X20.237
Z1
Z-0.6 F20
G3 X19.287 Y-32.434 I-0.475 J0 F150
X20.237 Y-32.434 I0.475 J0
G1 Z-1.2 F20
G3 X19.287 Y-32.434 I-0.475 J0 F150
X20.237 Y-32.434 I0.475 J0
G1 Z-1.8 F20
G3 X19.287 Y-32.434 I-0.475 J0 F150
X20.237 Y-32.434 I0.475 J0
G1 Z-2.4 F20
G3 X19.287 Y-32.434 I-0.475 J0 F150
X20.237 Y-32.434 I0.475 J0
G1 Z-3 F20
G3 X19.287 Y-32.434 I-0.475 J0 F150
X20.237 Y-32.434 I0.475 J0
G1 Z-3.6 F20
G3 X19.287 Y-32.434 I-0.475 J0 F150
X20.237 Y-32.434 I0.475 J0
G1 Z-4.2 F20
G3 X19.287 Y-32.434 I-0.475 J0 F150
X20.237 Y-32.434 I0.475 J0
G1 Z4
X30.237
Z1
Z-0.6 F20
G3 X29.287 Y-32.434 I-0.475 J0 F150
X30.237 Y-32.434 I0.475 J0
G1 Z-1.2 F20
G3 X29.287 Y-32.434 I-0.475 J0 F150
X30.237 Y-32.434 I0.475 J0
G1 Z-1.8 F20
G3 X29.287 Y-32.434 I-0.475 J0 F150
X30.237 Y-32.434 I0.475 J0
G1 Z-2.4 F20
G3 X29.287 Y-32.434 I-0.475 J0 F150
X30.237 Y-32.434 I0.475 J0
G1 Z-3 F20
G3 X29.287 Y-32.434 I-0.475 J0 F150
X30.237 Y-32.434 I0.475 J0
G1 Z-3.6 F20
G3 X29.287 Y-32.434 I-0.475 J0 F150
X30.237 Y-32.434 I0.475 J0
G1 Z-4.2 F20
G3 X29.287 Y-32.434 I-0.475 J0 F150
X30.237 Y-32.434 I0.475 J0
G1 Z4
X40.196 Y-32.241
Z1
Z-0.6 F20
G3 X39.328 Y-32.627 I-0.434 J-0.193 F150
X40.196 Y-32.241 I0.434 J0.193
G1 Z-1.2 F20
G3 X39.328 Y-32.627 I-0.434 J-0.193 F150
X40.196 Y-32.241 I0.434 J0.193
G1 Z-1.8 F20
G3 X39.328 Y-32.627 I-0.434 J-0.193 F150
X40.196 Y-32.241 I0.434 J0.193
G1 Z-2.4 F20
G3 X39.328 Y-32.627 I-0.434 J-0.193 F150
X40.196 Y-32.241 I0.434 J0.193
G1 Z-3 F20
G3 X39.328 Y-32.627 I-0.434 J-0.193 F150
X40.196 Y-32.241 I0.434 J0.193
G1 Z-3.6 F20
G3 X39.328 Y-32.627 I-0.434 J-0.193 F150
X40.196 Y-32.241 I0.434 J0.193
G1 Z-4.2 F20
G3 X39.328 Y-32.627 I-0.434 J-0.193 F150
X40.196 Y-32.241 I0.434 J0.193
G1 Z4
X50.237 Y-32.434
Z1
Z-0.6 F20
G3 X49.287 Y-32.434 I-0.475 J0 F150
X50.237 Y-32.434 I0.475 J0
G1 Z-1.2 F20
G3 X49.287 Y-32.434 I-0.475 J0 F150
X50.237 Y-32.434 I0.475 J0
G1 Z-1.8 F20
G3 X49.287 Y-32.434 I-0.475 J0 F150
X50.237 Y-32.434 I0.475 J0
G1 Z-2.4 F20
G3 X49.287 Y-32.434 I-0.475 J0 F150
X50.237 Y-32.434 I0.475 J0
G1 Z-3 F20
G3 X49.287 Y-32.434 I-0.475 J0 F150
X50.237 Y-32.434 I0.475 J0
G1 Z-3.6 F20
G3 X49.287 Y-32.434 I-0.475 J0 F150
X50.237 Y-32.434 I0.475 J0
G1 Z-4.2 F20
G3 X49.287 Y-32.434 I-0.475 J0 F150
X50.237 Y-32.434 I0.475 J0
G1 Z4
X69.556 Y-20.627
Z1
Z-0.6 F20
G3 X67.594 Y-21.017 I-0.981 J-0.195 F150
X69.556 Y-20.627 I0.981 J0.195
G1 Z-1.2 F20
G3 X67.594 Y-21.017 I-0.981 J-0.195 F150
X69.556 Y-20.627 I0.981 J0.195
G1 Z-1.8 F20
G3 X67.594 Y-21.017 I-0.981 J-0.195 F150
X69.556 Y-20.627 I0.981 J0.195
G1 Z-2.4 F20
G3 X67.594 Y-21.017 I-0.981 J-0.195 F150
X69.556 Y-20.627 I0.981 J0.195
G1 Z-3 F20
G3 X67.594 Y-21.017 I-0.981 J-0.195 F150
X69.556 Y-20.627 I0.981 J0.195
G1 Z-3.6 F20
G3 X67.594 Y-21.017 I-0.981 J-0.195 F150
X69.556 Y-20.627 I0.981 J0.195
G1 Z-4.2 F20
G3 X67.594 Y-21.017 I-0.981 J-0.195 F150
X69.556 Y-20.627 I0.981 J0.195
G1 Z4
X69.575 Y-10.822
Z1
Z-0.6 F20
G3 X67.575 Y-10.822 I-1 J0 F150
X69.575 Y-10.822 I1 J0
G1 Z-1.2 F20
G3 X67.575 Y-10.822 I-1 J0 F150
X69.575 Y-10.822 I1 J0
G1 Z-1.8 F20
G3 X67.575 Y-10.822 I-1 J0 F150
X69.575 Y-10.822 I1 J0
G1 Z-2.4 F20
G3 X67.575 Y-10.822 I-1 J0 F150
X69.575 Y-10.822 I1 J0
G1 Z-3 F20
G3 X67.575 Y-10.822 I-1 J0 F150
X69.575 Y-10.822 I1 J0
G1 Z-3.6 F20
G3 X67.575 Y-10.822 I-1 J0 F150
X69.575 Y-10.822 I1 J0
G1 Z-4.2 F20
G3 X67.575 Y-10.822 I-1 J0 F150
X69.575 Y-10.822 I1 J0
G1 Z4
Y-0.822
Z1
Z-0.6 F20
G3 X67.575 Y-0.822 I-1 J0 F150
X69.575 Y-0.822 I1 J0
G1 Z-1.2 F20
G3 X67.575 Y-0.822 I-1 J0 F150
X69.575 Y-0.822 I1 J0
G1 Z-1.8 F20
G3 X67.575 Y-0.822 I-1 J0 F150
X69.575 Y-0.822 I1 J0
G1 Z-2.4 F20
G3 X67.575 Y-0.822 I-1 J0 F150
X69.575 Y-0.822 I1 J0
G1 Z-3 F20
G3 X67.575 Y-0.822 I-1 J0 F150
X69.575 Y-0.822 I1 J0
G1 Z-3.6 F20
G3 X67.575 Y-0.822 I-1 J0 F150
X69.575 Y-0.822 I1 J0
G1 Z-4.2 F20
G3 X67.575 Y-0.822 I-1 J0 F150
X69.575 Y-0.822 I1 J0
G1 Z4
Y19.178
Z1
Z-0.6 F20
G3 X67.575 Y19.178 I-1 J0 F150
X69.575 Y19.178 I1 J0
G1 Z-1.2 F20
G3 X67.575 Y19.178 I-1 J0 F150
X69.575 Y19.178 I1 J0
G1 Z-1.8 F20
G3 X67.575 Y19.178 I-1 J0 F150
X69.575 Y19.178 I1 J0
G1 Z-2.4 F20
G3 X67.575 Y19.178 I-1 J0 F150
X69.575 Y19.178 I1 J0
G1 Z-3 F20
G3 X67.575 Y19.178 I-1 J0 F150
X69.575 Y19.178 I1 J0
G1 Z-3.6 F20
G3 X67.575 Y19.178 I-1 J0 F150
X69.575 Y19.178 I1 J0
G1 Z-4.2 F20
G3 X67.575 Y19.178 I-1 J0 F150
X69.575 Y19.178 I1 J0
G1 Z4
Y29.178
Z1
Z-0.6 F20
G3 X67.575 Y29.178 I-1 J0 F150
X69.575 Y29.178 I1 J0
G1 Z-1.2 F20
G3 X67.575 Y29.178 I-1 J0 F150
X69.575 Y29.178 I1 J0
G1 Z-1.8 F20
G3 X67.575 Y29.178 I-1 J0 F150
X69.575 Y29.178 I1 J0
G1 Z-2.4 F20
G3 X67.575 Y29.178 I-1 J0 F150
X69.575 Y29.178 I1 J0
G1 Z-3 F20
G3 X67.575 Y29.178 I-1 J0 F150
X69.575 Y29.178 I1 J0
G1 Z-3.6 F20
G3 X67.575 Y29.178 I-1 J0 F150
X69.575 Y29.178 I1 J0
G1 Z-4.2 F20
G3 X67.575 Y29.178 I-1 J0 F150
X69.575 Y29.178 I1 J0
G1 Z4
Y39.178
Z1
Z-0.6 F20
G3 X67.575 Y39.178 I-1 J0 F150
X69.575 Y39.178 I1 J0
G1 Z-1.2 F20
G3 X67.575 Y39.178 I-1 J0 F150
X69.575 Y39.178 I1 J0
G1 Z-1.8 F20
G3 X67.575 Y39.178 I-1 J0 F150
X69.575 Y39.178 I1 J0
G1 Z-2.4 F20
G3 X67.575 Y39.178 I-1 J0 F150
X69.575 Y39.178 I1 J0
G1 Z-3 F20
G3 X67.575 Y39.178 I-1 J0 F150
X69.575 Y39.178 I1 J0
G1 Z-3.6 F20
G3 X67.575 Y39.178 I-1 J0 F150
X69.575 Y39.178 I1 J0
G1 Z-4.2 F20
G3 X67.575 Y39.178 I-1 J0 F150
X69.575 Y39.178 I1 J0
G1 Z4
X51.875 Y-9.178
Z1
Z-0.6 F20
G3 X50.975 Y-9.178 I-0.45 J0 F150
X51.875 Y-9.178 I0.45 J0
G1 Z-1.2 F20
G3 X50.975 Y-9.178 I-0.45 J0 F150
X51.875 Y-9.178 I0.45 J0
G1 Z-1.8 F20
G3 X50.975 Y-9.178 I-0.45 J0 F150
X51.875 Y-9.178 I0.45 J0
G1 Z-2.4 F20
G3 X50.975 Y-9.178 I-0.45 J0 F150
X51.875 Y-9.178 I0.45 J0
G1 Z-3 F20
G3 X50.975 Y-9.178 I-0.45 J0 F150
X51.875 Y-9.178 I0.45 J0
G1 Z-3.6 F20
G3 X50.975 Y-9.178 I-0.45 J0 F150
X51.875 Y-9.178 I0.45 J0
G1 Z-4.2 F20
G3 X50.975 Y-9.178 I-0.45 J0 F150
X51.875 Y-9.178 I0.45 J0
G1 Z4
X41.875
Z1
Z-0.6 F20
G3 X40.975 Y-9.178 I-0.45 J0 F150
X41.875 Y-9.178 I0.45 J0
G1 Z-1.2 F20
G3 X40.975 Y-9.178 I-0.45 J0 F150
X41.875 Y-9.178 I0.45 J0
G1 Z-1.8 F20
G3 X40.975 Y-9.178 I-0.45 J0 F150
X41.875 Y-9.178 I0.45 J0
G1 Z-2.4 F20
G3 X40.975 Y-9.178 I-0.45 J0 F150
X41.875 Y-9.178 I0.45 J0
G1 Z-3 F20
G3 X40.975 Y-9.178 I-0.45 J0 F150
X41.875 Y-9.178 I0.45 J0
G1 Z-3.6 F20
G3 X40.975 Y-9.178 I-0.45 J0 F150
X41.875 Y-9.178 I0.45 J0
G1 Z-4.2 F20
G3 X40.975 Y-9.178 I-0.45 J0 F150
X41.875 Y-9.178 I0.45 J0
G1 Z4
X-9.804 Y-32.241
Z1
Z-0.6 F20
G3 X-10.672 Y-32.627 I-0.434 J-0.193 F150
X-9.804 Y-32.241 I0.434 J0.193
G1 Z-1.2 F20
G3 X-10.672 Y-32.627 I-0.434 J-0.193 F150
X-9.804 Y-32.241 I0.434 J0.193
G1 Z-1.8 F20
G3 X-10.672 Y-32.627 I-0.434 J-0.193 F150
X-9.804 Y-32.241 I0.434 J0.193
G1 Z-2.4 F20
G3 X-10.672 Y-32.627 I-0.434 J-0.193 F150
X-9.804 Y-32.241 I0.434 J0.193
G1 Z-3 F20
G3 X-10.672 Y-32.627 I-0.434 J-0.193 F150
X-9.804 Y-32.241 I0.434 J0.193
G1 Z-3.6 F20
G3 X-10.672 Y-32.627 I-0.434 J-0.193 F150
X-9.804 Y-32.241 I0.434 J0.193
G1 Z-4.2 F20
G3 X-10.672 Y-32.627 I-0.434 J-0.193 F150
X-9.804 Y-32.241 I0.434 J0.193
G1 Z4
X-19.763 Y-32.434
Z1
Z-0.6 F20
G3 X-20.713 Y-32.434 I-0.475 J0 F150
X-19.763 Y-32.434 I0.475 J0
G1 Z-1.2 F20
G3 X-20.713 Y-32.434 I-0.475 J0 F150
X-19.763 Y-32.434 I0.475 J0
G1 Z-1.8 F20
G3 X-20.713 Y-32.434 I-0.475 J0 F150
X-19.763 Y-32.434 I0.475 J0
G1 Z-2.4 F20
G3 X-20.713 Y-32.434 I-0.475 J0 F150
X-19.763 Y-32.434 I0.475 J0
G1 Z-3 F20
G3 X-20.713 Y-32.434 I-0.475 J0 F150
X-19.763 Y-32.434 I0.475 J0
G1 Z-3.6 F20
G3 X-20.713 Y-32.434 I-0.475 J0 F150
X-19.763 Y-32.434 I0.475 J0
G1 Z-4.2 F20
G3 X-20.713 Y-32.434 I-0.475 J0 F150
X-19.763 Y-32.434 I0.475 J0
G1 Z4
X-29.763
Z1
Z-0.6 F20
G3 X-30.713 Y-32.434 I-0.475 J0 F150
X-29.763 Y-32.434 I0.475 J0
G1 Z-1.2 F20
G3 X-30.713 Y-32.434 I-0.475 J0 F150
X-29.763 Y-32.434 I0.475 J0
G1 Z-1.8 F20
G3 X-30.713 Y-32.434 I-0.475 J0 F150
X-29.763 Y-32.434 I0.475 J0
G1 Z-2.4 F20
G3 X-30.713 Y-32.434 I-0.475 J0 F150
X-29.763 Y-32.434 I0.475 J0
G1 Z-3 F20
G3 X-30.713 Y-32.434 I-0.475 J0 F150
X-29.763 Y-32.434 I0.475 J0
G1 Z-3.6 F20
G3 X-30.713 Y-32.434 I-0.475 J0 F150
X-29.763 Y-32.434 I0.475 J0
G1 Z-4.2 F20
G3 X-30.713 Y-32.434 I-0.475 J0 F150
X-29.763 Y-32.434 I0.475 J0
G1 Z4
X-39.763
Z1
Z-0.6 F20
G3 X-40.713 Y-32.434 I-0.475 J0 F150
X-39.763 Y-32.434 I0.475 J0
G1 Z-1.2 F20
G3 X-40.713 Y-32.434 I-0.475 J0 F150
X-39.763 Y-32.434 I0.475 J0
G1 Z-1.8 F20
G3 X-40.713 Y-32.434 I-0.475 J0 F150
X-39.763 Y-32.434 I0.475 J0
G1 Z-2.4 F20
G3 X-40.713 Y-32.434 I-0.475 J0 F150
X-39.763 Y-32.434 I0.475 J0
G1 Z-3 F20
G3 X-40.713 Y-32.434 I-0.475 J0 F150
X-39.763 Y-32.434 I0.475 J0
G1 Z-3.6 F20
G3 X-40.713 Y-32.434 I-0.475 J0 F150
X-39.763 Y-32.434 I0.475 J0
G1 Z-4.2 F20
G3 X-40.713 Y-32.434 I-0.475 J0 F150
X-39.763 Y-32.434 I0.475 J0
G1 Z4
X-67.575 Y-29.178
Z1
Z-0.6 F20
G3 X-69.575 Y-29.178 I-1 J0 F150
X-67.575 Y-29.178 I1 J0
G1 Z-1.2 F20
G3 X-69.575 Y-29.178 I-1 J0 F150
X-67.575 Y-29.178 I1 J0
G1 Z-1.8 F20
G3 X-69.575 Y-29.178 I-1 J0 F150
X-67.575 Y-29.178 I1 J0
G1 Z-2.4 F20
G3 X-69.575 Y-29.178 I-1 J0 F150
X-67.575 Y-29.178 I1 J0
G1 Z-3 F20
G3 X-69.575 Y-29.178 I-1 J0 F150
X-67.575 Y-29.178 I1 J0
G1 Z-3.6 F20
G3 X-69.575 Y-29.178 I-1 J0 F150
X-67.575 Y-29.178 I1 J0
G1 Z-4.2 F20
G3 X-69.575 Y-29.178 I-1 J0 F150
X-67.575 Y-29.178 I1 J0
G1 Z4
Y-39.178
Z1
Z-0.6 F20
G3 X-69.575 Y-39.178 I-1 J0 F150
X-67.575 Y-39.178 I1 J0
G1 Z-1.2 F20
G3 X-69.575 Y-39.178 I-1 J0 F150
X-67.575 Y-39.178 I1 J0
G1 Z-1.8 F20
G3 X-69.575 Y-39.178 I-1 J0 F150
X-67.575 Y-39.178 I1 J0
G1 Z-2.4 F20
G3 X-69.575 Y-39.178 I-1 J0 F150
X-67.575 Y-39.178 I1 J0
G1 Z-3 F20
G3 X-69.575 Y-39.178 I-1 J0 F150
X-67.575 Y-39.178 I1 J0
G1 Z-3.6 F20
G3 X-69.575 Y-39.178 I-1 J0 F150
X-67.575 Y-39.178 I1 J0
G1 Z-4.2 F20
G3 X-69.575 Y-39.178 I-1 J0 F150
X-67.575 Y-39.178 I1 J0
G1 Z4
Y-19.178
Z1
Z-0.6 F20
G3 X-69.575 Y-19.178 I-1 J0 F150
X-67.575 Y-19.178 I1 J0
G1 Z-1.2 F20
G3 X-69.575 Y-19.178 I-1 J0 F150
X-67.575 Y-19.178 I1 J0
G1 Z-1.8 F20
G3 X-69.575 Y-19.178 I-1 J0 F150
X-67.575 Y-19.178 I1 J0
G1 Z-2.4 F20
G3 X-69.575 Y-19.178 I-1 J0 F150
X-67.575 Y-19.178 I1 J0
G1 Z-3 F20
G3 X-69.575 Y-19.178 I-1 J0 F150
X-67.575 Y-19.178 I1 J0
G1 Z-3.6 F20
G3 X-69.575 Y-19.178 I-1 J0 F150
X-67.575 Y-19.178 I1 J0
G1 Z-4.2 F20
G3 X-69.575 Y-19.178 I-1 J0 F150
X-67.575 Y-19.178 I1 J0
G1 Z4
Y0.822
Z1
Z-0.6 F20
G3 X-69.575 Y0.822 I-1 J0 F150
X-67.575 Y0.822 I1 J0
G1 Z-1.2 F20
G3 X-69.575 Y0.822 I-1 J0 F150
X-67.575 Y0.822 I1 J0
G1 Z-1.8 F20
G3 X-69.575 Y0.822 I-1 J0 F150
X-67.575 Y0.822 I1 J0
G1 Z-2.4 F20
G3 X-69.575 Y0.822 I-1 J0 F150
X-67.575 Y0.822 I1 J0
G1 Z-3 F20
G3 X-69.575 Y0.822 I-1 J0 F150
X-67.575 Y0.822 I1 J0
G1 Z-3.6 F20
G3 X-69.575 Y0.822 I-1 J0 F150
X-67.575 Y0.822 I1 J0
G1 Z-4.2 F20
G3 X-69.575 Y0.822 I-1 J0 F150
X-67.575 Y0.822 I1 J0
G1 Z4
Y10.822
Z1
Z-0.6 F20
G3 X-69.575 Y10.822 I-1 J0 F150
X-67.575 Y10.822 I1 J0
G1 Z-1.2 F20
G3 X-69.575 Y10.822 I-1 J0 F150
X-67.575 Y10.822 I1 J0
G1 Z-1.8 F20
G3 X-69.575 Y10.822 I-1 J0 F150
X-67.575 Y10.822 I1 J0
G1 Z-2.4 F20
G3 X-69.575 Y10.822 I-1 J0 F150
X-67.575 Y10.822 I1 J0
G1 Z-3 F20
G3 X-69.575 Y10.822 I-1 J0 F150
X-67.575 Y10.822 I1 J0
G1 Z-3.6 F20
G3 X-69.575 Y10.822 I-1 J0 F150
X-67.575 Y10.822 I1 J0
G1 Z-4.2 F20
G3 X-69.575 Y10.822 I-1 J0 F150
X-67.575 Y10.822 I1 J0
G1 Z4
Y20.822
Z1
Z-0.6 F20
G3 X-69.575 Y20.822 I-1 J0 F150
X-67.575 Y20.822 I1 J0
G1 Z-1.2 F20
G3 X-69.575 Y20.822 I-1 J0 F150
X-67.575 Y20.822 I1 J0
G1 Z-1.8 F20
G3 X-69.575 Y20.822 I-1 J0 F150
X-67.575 Y20.822 I1 J0
G1 Z-2.4 F20
G3 X-69.575 Y20.822 I-1 J0 F150
X-67.575 Y20.822 I1 J0
G1 Z-3 F20
G3 X-69.575 Y20.822 I-1 J0 F150
X-67.575 Y20.822 I1 J0
G1 Z-3.6 F20
G3 X-69.575 Y20.822 I-1 J0 F150
X-67.575 Y20.822 I1 J0
G1 Z-4.2 F20
G3 X-69.575 Y20.822 I-1 J0 F150
X-67.575 Y20.822 I1 J0
G1 Z4
X-50.975 Y9.178
Z1
Z-0.6 F20
G3 X-51.875 Y9.178 I-0.45 J0 F150
X-50.975 Y9.178 I0.45 J0
G1 Z-1.2 F20
G3 X-51.875 Y9.178 I-0.45 J0 F150
X-50.975 Y9.178 I0.45 J0
G1 Z-1.8 F20
G3 X-51.875 Y9.178 I-0.45 J0 F150
X-50.975 Y9.178 I0.45 J0
G1 Z-2.4 F20
G3 X-51.875 Y9.178 I-0.45 J0 F150
X-50.975 Y9.178 I0.45 J0
G1 Z-3 F20
G3 X-51.875 Y9.178 I-0.45 J0 F150
X-50.975 Y9.178 I0.45 J0
G1 Z-3.6 F20
G3 X-51.875 Y9.178 I-0.45 J0 F150
X-50.975 Y9.178 I0.45 J0
G1 Z-4.2 F20
G3 X-51.875 Y9.178 I-0.45 J0 F150
X-50.975 Y9.178 I0.45 J0
G1 Z4
X-40.975
Z1
Z-0.6 F20
G3 X-41.875 Y9.178 I-0.45 J0 F150
X-40.975 Y9.178 I0.45 J0
G1 Z-1.2 F20
G3 X-41.875 Y9.178 I-0.45 J0 F150
X-40.975 Y9.178 I0.45 J0
G1 Z-1.8 F20
G3 X-41.875 Y9.178 I-0.45 J0 F150
X-40.975 Y9.178 I0.45 J0
G1 Z-2.4 F20
G3 X-41.875 Y9.178 I-0.45 J0 F150
X-40.975 Y9.178 I0.45 J0
G1 Z-3 F20
G3 X-41.875 Y9.178 I-0.45 J0 F150
X-40.975 Y9.178 I0.45 J0
G1 Z-3.6 F20
G3 X-41.875 Y9.178 I-0.45 J0 F150
X-40.975 Y9.178 I0.45 J0
G1 Z-4.2 F20
G3 X-41.875 Y9.178 I-0.45 J0 F150
X-40.975 Y9.178 I0.45 J0
G1 Z5
M5
M30
