(1001)
(T1  D=1.587 CR=0 - ZMIN=-1.033 - flat end mill)
G90 G94
G17
G21
G28 G91 Z0
G90

(Face6)
M9
S20000 M3
G54
G0 X37.896 Y-4.655
Z6
Z3
G1 Z-1.033 F300
X37.516
X-30.264 F800
X-31.24 Y-3.744
X38.491
X39.082 Y-2.833
X-31.831
X-32.188 Y-1.922
X39.439
X39.607 Y-1.012
X-32.356
X-32.375 Y-0.101
X39.626
Y0.81
X-32.375
X-32.32 Y1.721
X39.571
X39.353 Y2.632
X-32.101
X-31.685 Y3.543
X38.936
X38.247 Y4.454
X-30.996
G0 Z3
X93.018 Y-0.533
G1 Z-1.033 F300
X93.41
X101.374 F800
Y0.435
X92.421
X91.831 Y1.404
X101.374
Y2.372
X91.505
X91.381 Y3.34
X101.374
Y4.309
X91.305
X91.04 Y5.277
X101.374
Y6.245
X90.541
X89.703 Y7.214
X101.374
Y8.182
X88.096
G0 Z3
X102.247 Y9.151
G1 Z-1.033 F300
X101.374
X-89.126 F800
Y10.119
X101.374
Y11.087
X-89.126
Y12.056
X101.374
Y13.024
X-89.126
Y13.992
X101.374
Y14.961
X-89.126
Y15.929
X101.374
Y16.898
X-89.126
Y17.866
X101.374
Y18.834
X-89.126
Y19.803
X101.374
Y20.771
X88.914
X90.092 Y21.739
X101.374
Y22.708
X90.773
X91.171 Y23.676
X101.374
Y24.645
X91.355
X91.407 Y25.613
X101.374
Y26.581
X91.611
X92.031 Y27.55
X101.374
Y28.518
X92.753
G0 Z6
G28 G91 Z0
G90
G28 G91 X0 Y0
G90
M30
%
