(1001)
(T1  D=1.587 CR=0 - ZMIN=-1.033 - flat end mill)
G90 G94
G17
G21
G28 G91 Z0
G90

(Face6)
M9
S20000 M3
G54
G0 X-92.357 Y-28.56
Z6
Z3
G1 Z-1.033 F100
X-92.792
X-101.374 F300
G0 Z3
X-91.204 Y-27.06
G1 Z-1.033 F100
X-91.789
X-101.374 F300
G0 Z3
X-90.645 Y-25.559
G1 Z-1.033 F100
X-91.4
X-101.374 F300
G0 Z3
X-90.49 Y-24.059
G1 Z-1.033 F100
X-91.265
X-101.374 F300
G0 Z3
X-90.119 Y-22.558
G1 Z-1.033 F100
X-90.693
X-101.374 F300
G0 Z3
X-88.946 Y-21.058
G1 Z-1.033 F100
X-89.344
X-101.374 F300
G0 Z3
X89.95 Y-19.558
G1 Z-1.033 F100
X89.126
X-101.374 F300
G0 Z3
X89.999 Y-18.057
G1 Z-1.033 F100
X89.126
X-101.374 F300
G0 Z3
X89.999 Y-16.557
G1 Z-1.033 F100
X89.126
X-101.374 F300
G0 Z3
X89.999 Y-15.056
G1 Z-1.033 F100
X89.126
X-101.374 F300
G0 Z3
X89.999 Y-13.556
G1 Z-1.033 F100
X89.126
X-101.374 F300
G0 Z3
X89.999 Y-12.055
G1 Z-1.033 F100
X89.126
X-101.374 F300
G0 Z3
X89.999 Y-10.555
G1 Z-1.033 F100
X89.126
X-101.374 F300
G0 Z3
X89.964 Y-9.054
G1 Z-1.033 F100
X89.126
X-101.374 F300
G0 Z3
X-88.883 Y-7.554
G1 Z-1.033 F100
X-89.282
X-101.374 F300
G0 Z3
X-90.096 Y-6.053
G1 Z-1.033 F100
X-90.663
X-101.374 F300
G0 Z3
X-90.488 Y-4.553
G1 Z-1.033 F100
X-91.255
X-101.374 F300
G0 Z3
X-90.635 Y-3.052
G1 Z-1.033 F100
X-91.393
X-101.374 F300
G0 Z3
X-91.177 Y-1.552
G1 Z-1.033 F100
X-91.77
X-101.374 F300
G0 Z3
X-92.306 Y-0.051
G1 Z-1.033 F100
X-92.749
X-101.374 F300
G0 Z6
G28 G91 Z0
G90
G28 G91 X0 Y0
G90
M30
%
