
(1001)
(T1  D=1.587 CR=0 - ZMIN=-1.033 - flat end mill)
G90 G94
G17
G21
G28 G91 Z0
G90

(Face6)
M9
S20000 M3
G54
G0 X-92.09 Y-28.293
Z6
Z3
G1 Z-1.033 F300
X-92.547
X-101.374 F600
Y-26.528
X-91.595
X-91.361 Y-24.763
X-101.374
Y-22.998
X-90.921
X-89.572 Y-21.233
X-101.374
Y-19.468
X89.126
Y-17.703
X-101.374
Y-15.939
X89.126
Y-14.174
X-101.374
Y-12.409
X89.126
Y-10.644
X-101.374
Y-8.879
X89.126
G0 Z3
X-89.371 Y-7.114
G1 Z-1.033 F300
X-89.812
X-101.374 F600
Y-5.349
X-91.01
X-91.37 Y-3.584
X-101.374
Y-1.819
X-91.663
X-92.746 Y-0.054
X-101.374
G0 Z6
G28 G91 Z0
G90
G28 G91 X0 Y0
G90
M30
%
