(1001)
(T1  D=1.587 CR=0 - ZMIN=-1.033 - flat end mill)
G90 G94
G17
G21
G28 G91 Z0
G90

(Face6)
M9
S20000 M3
G54
G0 X-92.641 Y-28.812
Z6
Z3
G1 Z-1.033 F300
X-93.058
X-101.374 F800
Y-27.562
X-92.037
X-91.532 Y-26.311
X-101.374
Y-25.061
X-91.374
X-91.21 Y-23.81
X-101.374
Y-22.56
X-90.694
X-89.657 Y-21.309
X-101.374
Y-20.058
X89.126
Y-18.808
X-101.374
Y-17.557
X89.126
Y-16.307
X-101.374
Y-15.056
X89.126
Y-13.806
X-101.374
Y-12.555
X89.126
Y-11.304
X-101.374
Y-10.054
X89.126
Y-8.803
X-101.374
Y-7.553
X-89.283
X-90.505 Y-6.302
X-101.374
Y-5.052
X-91.119
X-91.361 Y-3.801
X-101.374
Y-2.55
X-91.466
X-91.882 Y-1.3
X-101.374
Y-0.049
X-92.75
G0 Z6
G28 G91 Z0
G90
G28 G91 X0 Y0
G90
M30
%
