(1001)
(T1  D=1.587 CR=0 - ZMIN=-1.3 - flat end mill)
G90 G94
G17
G21
G28 G91 Z0
G90

(Face6)
M9
S20000 M3
G54
G0 X92.839 Y-0.52
Z6
Z3
G1 Z-0.141 F100
X92.847 Z-0.19
X92.869 Z-0.235
X92.904 Z-0.27
X92.949 Z-0.292
X92.998 Z-0.3
X93.392
X101.374 F300
X101.423 Z-0.292 F100
X101.467 Z-0.27
X101.502 Z-0.235
X101.525 Z-0.19
X101.533 Z-0.141
G0 Z3
X91.379 Y0.957
G1 Z-0.141 F100
X91.387 Z-0.19
X91.41 Z-0.235
X91.445 Z-0.27
X91.489 Z-0.292
X91.538 Z-0.3
X92.064
X101.374 F300
X101.423 Z-0.292 F100
X101.467 Z-0.27
X101.502 Z-0.235
X101.525 Z-0.19
X101.533 Z-0.141
G0 Z3
X90.642 Y2.433
G1 Z-0.141 F100
X90.65 Z-0.19
X90.673 Z-0.235
X90.708 Z-0.27
X90.752 Z-0.292
X90.801 Z-0.3
X91.492
X101.374 F300
X101.423 Z-0.292 F100
X101.467 Z-0.27
X101.502 Z-0.235
X101.525 Z-0.19
X101.533 Z-0.141
G0 Z3
X90.357 Y3.91
G1 Z-0.141 F100
X90.365 Z-0.19
X90.387 Z-0.235
X90.422 Z-0.27
X90.467 Z-0.292
X90.516 Z-0.3
X91.356
X101.374 F300
X101.423 Z-0.292 F100
X101.467 Z-0.27
X101.502 Z-0.235
X101.525 Z-0.19
X101.533 Z-0.141
G0 Z3
X90.188 Y5.387
G1 Z-0.141 F100
X90.196 Z-0.19
X90.218 Z-0.235
X90.254 Z-0.27
X90.298 Z-0.292
X90.347 Z-0.3
X90.995
X101.374 F300
X101.423 Z-0.292 F100
X101.467 Z-0.27
X101.502 Z-0.235
X101.525 Z-0.19
X101.533 Z-0.141
G0 Z3
X89.433 Y6.863
G1 Z-0.141 F100
X89.441 Z-0.19
X89.463 Z-0.235
X89.498 Z-0.27
X89.543 Z-0.292
X89.592 Z-0.3
X90.057
X101.374 F300
X101.423 Z-0.292 F100
X101.467 Z-0.27
X101.502 Z-0.235
X101.525 Z-0.19
X101.533 Z-0.141
G0 Z3
X86.951 Y8.34
G1 Z-0.141 F100
X86.959 Z-0.19
X86.982 Z-0.235
X87.017 Z-0.27
X87.061 Z-0.292
X87.11 Z-0.3
X87.569
X101.374 F300
X101.423 Z-0.292 F100
X101.467 Z-0.27
X101.502 Z-0.235
X101.525 Z-0.19
X101.533 Z-0.141
G0 Z3
X-58.776 Y-0.52
G1 Z-0.141 F100
X-58.768 Z-0.19
X-58.746 Z-0.235
X-58.711 Z-0.27
X-58.666 Z-0.292
X-58.617 Z-0.3
X-58.186
X-51.065 F300
X-51.016 Z-0.292 F100
X-50.972 Z-0.27
X-50.937 Z-0.235
X-50.914 Z-0.19
X-50.906 Z-0.141
G0 Z3
X-59.928 Y0.957
G1 Z-0.141 F100
X-59.921 Z-0.19
X-59.898 Z-0.235
X-59.863 Z-0.27
X-59.819 Z-0.292
X-59.77 Z-0.3
X-59.191
X-50.06 F300
X-50.011 Z-0.292 F100
X-49.967 Z-0.27
X-49.932 Z-0.235
X-49.909 Z-0.19
X-49.902 Z-0.141
G0 Z3
X-60.5 Y2.433
G1 Z-0.141 F100
X-60.492 Z-0.19
X-60.469 Z-0.235
X-60.434 Z-0.27
X-60.39 Z-0.292
X-60.341 Z-0.3
X-59.591
X-49.66 F300
X-49.611 Z-0.292 F100
X-49.567 Z-0.27
X-49.532 Z-0.235
X-49.509 Z-0.19
X-49.502 Z-0.141
G0 Z3
X-60.652 Y3.91
G1 Z-0.141 F100
X-60.644 Z-0.19
X-60.622 Z-0.235
X-60.587 Z-0.27
X-60.543 Z-0.292
X-60.493 Z-0.3
X-59.626
X-49.626 F300
X-49.577 Z-0.292 F100
X-49.532 Z-0.27
X-49.497 Z-0.235
X-49.475 Z-0.19
X-49.467 Z-0.141
G0 Z3
X-60.429 Y5.387
G1 Z-0.141 F100
X-60.422 Z-0.19
X-60.399 Z-0.235
X-60.364 Z-0.27
X-60.32 Z-0.292
X-60.271 Z-0.3
X-59.559
X-49.692 F300
X-49.643 Z-0.292 F100
X-49.599 Z-0.27
X-49.564 Z-0.235
X-49.541 Z-0.19
X-49.533 Z-0.141
G0 Z3
X-60.037 Y6.863
G1 Z-0.141 F100
X-60.029 Z-0.19
X-60.007 Z-0.235
X-59.972 Z-0.27
X-59.927 Z-0.292
X-59.878 Z-0.3
X-59.158
X-50.093 F300
X-50.044 Z-0.292 F100
X-50 Z-0.27
X-49.965 Z-0.235
X-49.942 Z-0.19
X-49.934 Z-0.141
G0 Z3
X-61.192 Y8.34
G1 Z-0.141 F100
X-61.184 Z-0.19
X-61.161 Z-0.235
X-61.126 Z-0.27
X-61.082 Z-0.292
X-61.033 Z-0.3
X-60.658
X-48.593 F300
X-48.544 Z-0.292 F100
X-48.5 Z-0.27
X-48.465 Z-0.235
X-48.442 Z-0.19
X-48.434 Z-0.141
G0 Z3
X-98.599 Y9.817
G1 Z-0.141 F100
X-98.591 Z-0.19
X-98.569 Z-0.235
X-98.534 Z-0.27
X-98.489 Z-0.292
X-98.44 Z-0.3
X-98.012
X101.374 F300
X101.423 Z-0.292 F100
X101.467 Z-0.27
X101.502 Z-0.235
X101.525 Z-0.19
X101.533 Z-0.141
G0 Z3
X-99.837 Y11.293
G1 Z-0.141 F100
X-99.829 Z-0.19
X-99.806 Z-0.235
X-99.771 Z-0.27
X-99.727 Z-0.292
X-99.678 Z-0.3
X-99.114
X101.374 F300
X101.423 Z-0.292 F100
X101.467 Z-0.27
X101.502 Z-0.235
X101.525 Z-0.19
X101.533 Z-0.141
G0 Z3
X-100.455 Y12.77
G1 Z-0.141 F100
X-100.448 Z-0.19
X-100.425 Z-0.235
X-100.39 Z-0.27
X-100.346 Z-0.292
X-100.297 Z-0.3
X-99.569
X101.374 F300
X101.423 Z-0.292 F100
X101.467 Z-0.27
X101.502 Z-0.235
X101.525 Z-0.19
X101.533 Z-0.141
G0 Z3
X-100.656 Y14.247
G1 Z-0.141 F100
X-100.648 Z-0.19
X-100.626 Z-0.235
X-100.591 Z-0.27
X-100.546 Z-0.292
X-100.497 Z-0.3
X-99.626
X101.374 F300
X101.423 Z-0.292 F100
X101.467 Z-0.27
X101.502 Z-0.235
X101.525 Z-0.19
X101.533 Z-0.141
G0 Z3
X-100.475 Y15.723
G1 Z-0.141 F100
X-100.468 Z-0.19
X-100.445 Z-0.235
X-100.41 Z-0.27
X-100.366 Z-0.292
X-100.317 Z-0.3
X-99.579
X101.374 F300
X101.423 Z-0.292 F100
X101.467 Z-0.27
X101.502 Z-0.235
X101.525 Z-0.19
X101.533 Z-0.141
G0 Z3
X-99.877 Y17.2
G1 Z-0.141 F100
X-99.869 Z-0.19
X-99.846 Z-0.235
X-99.811 Z-0.27
X-99.767 Z-0.292
X-99.718 Z-0.3
X-99.151
X101.374 F300
X101.423 Z-0.292 F100
X101.467 Z-0.27
X101.502 Z-0.235
X101.525 Z-0.19
X101.533 Z-0.141
G0 Z3
X-98.676 Y18.677
G1 Z-0.141 F100
X-98.668 Z-0.19
X-98.646 Z-0.235
X-98.611 Z-0.27
X-98.566 Z-0.292
X-98.517 Z-0.3
X-98.09
X101.374 F300
X101.423 Z-0.292 F100
X101.467 Z-0.27
X101.502 Z-0.235
X101.525 Z-0.19
X101.533 Z-0.141
G0 Z3
X-94.839 Y20.153
G1 Z-0.141 F100
X-94.831 Z-0.19
X-94.809 Z-0.235
X-94.773 Z-0.27
X-94.729 Z-0.292
X-94.68 Z-0.3
X87.248
X101.374 F300
X101.423 Z-0.292 F100
X101.467 Z-0.27
X101.502 Z-0.235
X101.525 Z-0.19
X101.533 Z-0.141
G0 Z3
X89.375 Y21.63
G1 Z-0.141 F100
X89.382 Z-0.19
X89.405 Z-0.235
X89.44 Z-0.27
X89.484 Z-0.292
X89.533 Z-0.3
X89.992
X101.374 F300
X101.423 Z-0.292 F100
X101.467 Z-0.27
X101.502 Z-0.235
X101.525 Z-0.19
X101.533 Z-0.141
G0 Z3
X90.17 Y23.106
G1 Z-0.141 F100
X90.178 Z-0.19
X90.201 Z-0.235
X90.236 Z-0.27
X90.28 Z-0.292
X90.329 Z-0.3
X90.965
X101.374 F300
X101.423 Z-0.292 F100
X101.467 Z-0.27
X101.502 Z-0.235
X101.525 Z-0.19
X101.533 Z-0.141
G0 Z3
X90.354 Y24.583
G1 Z-0.141 F100
X90.362 Z-0.19
X90.385 Z-0.235
X90.42 Z-0.27
X90.464 Z-0.292
X90.513 Z-0.3
X91.348
X101.374 F300
X101.423 Z-0.292 F100
X101.467 Z-0.27
X101.502 Z-0.235
X101.525 Z-0.19
X101.533 Z-0.141
G0 Z3
X90.619 Y26.06
G1 Z-0.141 F100
X90.627 Z-0.19
X90.65 Z-0.235
X90.685 Z-0.27
X90.729 Z-0.292
X90.778 Z-0.3
X91.476
X101.374 F300
X101.423 Z-0.292 F100
X101.467 Z-0.27
X101.502 Z-0.235
X101.525 Z-0.19
X101.533 Z-0.141
G0 Z3
X91.332 Y27.536
G1 Z-0.141 F100
X91.34 Z-0.19
X91.362 Z-0.235
X91.397 Z-0.27
X91.442 Z-0.292
X91.491 Z-0.3
X92.024
X101.374 F300
X101.423 Z-0.292 F100
X101.467 Z-0.27
X101.502 Z-0.235
X101.525 Z-0.19
X101.533 Z-0.141
G0 Z3
X92.737 Y29.013
G1 Z-0.141 F100
X92.745 Z-0.19
X92.768 Z-0.235
X92.803 Z-0.27
X92.847 Z-0.292
X92.896 Z-0.3
X93.3
X101.374 F300
X101.423 Z-0.292 F100
X101.467 Z-0.27
X101.502 Z-0.235
X101.525 Z-0.19
X101.533 Z-0.141
G0 Z3
X-94.839 Y20.153
G1 Z-0.141 F100
X-94.831 Z-0.19
X-94.809 Z-0.235
X-94.773 Z-0.27
X-94.729 Z-0.292
X-94.68 Z-0.3
X-60.886
X-48.365 F300
X-48.316 Z-0.292 F100
X-48.272 Z-0.27
X-48.236 Z-0.235
X-48.214 Z-0.19
X-48.206 Z-0.141
G0 Z3
X-60.042 Y21.63
G1 Z-0.141 F100
X-60.034 Z-0.19
X-60.012 Z-0.235
X-59.977 Z-0.27
X-59.933 Z-0.292
X-59.884 Z-0.3
X-59.189
X-50.063 F300
X-50.013 Z-0.292 F100
X-49.969 Z-0.27
X-49.934 Z-0.235
X-49.912 Z-0.19
X-49.904 Z-0.141
G0 Z3
X-60.408 Y23.106
G1 Z-0.141 F100
X-60.4 Z-0.19
X-60.378 Z-0.235
X-60.343 Z-0.27
X-60.298 Z-0.292
X-60.249 Z-0.3
X-59.545
X-49.706 F300
X-49.657 Z-0.292 F100
X-49.613 Z-0.27
X-49.578 Z-0.235
X-49.555 Z-0.19
X-49.548 Z-0.141
G0 Z3
X-60.649 Y24.583
G1 Z-0.141 F100
X-60.642 Z-0.19
X-60.619 Z-0.235
X-60.584 Z-0.27
X-60.54 Z-0.292
X-60.491 Z-0.3
X-59.626
X-49.626 F300
X-49.577 Z-0.292 F100
X-49.532 Z-0.27
X-49.497 Z-0.235
X-49.475 Z-0.19
X-49.467 Z-0.141
G0 Z3
X-60.514 Y26.06
G1 Z-0.141 F100
X-60.506 Z-0.19
X-60.484 Z-0.235
X-60.448 Z-0.27
X-60.404 Z-0.292
X-60.355 Z-0.3
X-59.6
X-49.651 F300
X-49.602 Z-0.292 F100
X-49.558 Z-0.27
X-49.523 Z-0.235
X-49.5 Z-0.19
X-49.492 Z-0.141
G0 Z3
X-59.968 Y27.536
G1 Z-0.141 F100
X-59.96 Z-0.19
X-59.938 Z-0.235
X-59.903 Z-0.27
X-59.858 Z-0.292
X-59.809 Z-0.3
X-59.22
X-50.031 F300
X-49.982 Z-0.292 F100
X-49.938 Z-0.27
X-49.902 Z-0.235
X-49.88 Z-0.19
X-49.872 Z-0.141
G0 Z3
X-58.853 Y29.013
G1 Z-0.141 F100
X-58.845 Z-0.19
X-58.823 Z-0.235
X-58.788 Z-0.27
X-58.743 Z-0.292
X-58.694 Z-0.3
X-58.251
X-51 F300
X-50.951 Z-0.292 F100
X-50.907 Z-0.27
X-50.872 Z-0.235
X-50.849 Z-0.19
X-50.841 Z-0.141
G0 Z3
X-58.776 Y-0.52
G1 Z-1.141 F100
X-58.768 Z-1.19
X-58.746 Z-1.235
X-58.711 Z-1.27
X-58.666 Z-1.292
X-58.617 Z-1.3
X-58.186
X-51.065
X-51.016 Z-1.292
X-50.972 Z-1.27
X-50.937 Z-1.235
X-50.914 Z-1.19
X-50.906 Z-1.141
G0 Z3
X-59.928 Y0.957
G1 Z-1.141 F100
X-59.921 Z-1.19
X-59.898 Z-1.235
X-59.863 Z-1.27
X-59.819 Z-1.292
X-59.77 Z-1.3
X-59.191
X-50.06
X-50.011 Z-1.292
X-49.967 Z-1.27
X-49.932 Z-1.235
X-49.909 Z-1.19
X-49.902 Z-1.141
G0 Z3
X-60.5 Y2.433
G1 Z-1.141 F100
X-60.492 Z-1.19
X-60.469 Z-1.235
X-60.434 Z-1.27
X-60.39 Z-1.292
X-60.341 Z-1.3
X-59.591
X-49.66
X-49.611 Z-1.292
X-49.567 Z-1.27
X-49.532 Z-1.235
X-49.509 Z-1.19
X-49.502 Z-1.141
G0 Z3
X-60.652 Y3.91
G1 Z-1.141 F100
X-60.644 Z-1.19
X-60.622 Z-1.235
X-60.587 Z-1.27
X-60.543 Z-1.292
X-60.493 Z-1.3
X-59.626
X-49.626
X-49.577 Z-1.292
X-49.532 Z-1.27
X-49.497 Z-1.235
X-49.475 Z-1.19
X-49.467 Z-1.141
G0 Z3
X-60.429 Y5.387
G1 Z-1.141 F100
X-60.422 Z-1.19
X-60.399 Z-1.235
X-60.364 Z-1.27
X-60.32 Z-1.292
X-60.271 Z-1.3
X-59.559
X-49.692
X-49.643 Z-1.292
X-49.599 Z-1.27
X-49.564 Z-1.235
X-49.541 Z-1.19
X-49.533 Z-1.141
G0 Z3
X-60.037 Y6.863
G1 Z-1.141 F100
X-60.029 Z-1.19
X-60.007 Z-1.235
X-59.972 Z-1.27
X-59.927 Z-1.292
X-59.878 Z-1.3
X-59.158
X-50.093
X-50.044 Z-1.292
X-50 Z-1.27
X-49.965 Z-1.235
X-49.942 Z-1.19
X-49.934 Z-1.141
G0 Z3
X-61.192 Y8.34
G1 Z-1.141 F100
X-61.184 Z-1.19
X-61.161 Z-1.235
X-61.126 Z-1.27
X-61.082 Z-1.292
X-61.033 Z-1.3
X-60.658
X-48.593
X-48.544 Z-1.292
X-48.5 Z-1.27
X-48.465 Z-1.235
X-48.442 Z-1.19
X-48.434 Z-1.141
G0 Z3
X92.839 Y-0.52
G1 Z-1.141 F100
X92.847 Z-1.19
X92.869 Z-1.235
X92.904 Z-1.27
X92.949 Z-1.292
X92.998 Z-1.3
X93.392
X101.374
X101.423 Z-1.292
X101.467 Z-1.27
X101.502 Z-1.235
X101.525 Z-1.19
X101.533 Z-1.141
G0 Z3
X91.379 Y0.957
G1 Z-1.141 F100
X91.387 Z-1.19
X91.41 Z-1.235
X91.445 Z-1.27
X91.489 Z-1.292
X91.538 Z-1.3
X92.064
X101.374
X101.423 Z-1.292
X101.467 Z-1.27
X101.502 Z-1.235
X101.525 Z-1.19
X101.533 Z-1.141
G0 Z3
X90.642 Y2.433
G1 Z-1.141 F100
X90.65 Z-1.19
X90.673 Z-1.235
X90.708 Z-1.27
X90.752 Z-1.292
X90.801 Z-1.3
X91.492
X101.374
X101.423 Z-1.292
X101.467 Z-1.27
X101.502 Z-1.235
X101.525 Z-1.19
X101.533 Z-1.141
G0 Z3
X90.357 Y3.91
G1 Z-1.141 F100
X90.365 Z-1.19
X90.387 Z-1.235
X90.422 Z-1.27
X90.467 Z-1.292
X90.516 Z-1.3
X91.356
X101.374
X101.423 Z-1.292
X101.467 Z-1.27
X101.502 Z-1.235
X101.525 Z-1.19
X101.533 Z-1.141
G0 Z3
X90.188 Y5.387
G1 Z-1.141 F100
X90.196 Z-1.19
X90.218 Z-1.235
X90.254 Z-1.27
X90.298 Z-1.292
X90.347 Z-1.3
X90.995
X101.374
X101.423 Z-1.292
X101.467 Z-1.27
X101.502 Z-1.235
X101.525 Z-1.19
X101.533 Z-1.141
G0 Z3
X89.433 Y6.863
G1 Z-1.141 F100
X89.441 Z-1.19
X89.463 Z-1.235
X89.498 Z-1.27
X89.543 Z-1.292
X89.592 Z-1.3
X90.057
X101.374
X101.423 Z-1.292
X101.467 Z-1.27
X101.502 Z-1.235
X101.525 Z-1.19
X101.533 Z-1.141
G0 Z3
X86.951 Y8.34
G1 Z-1.141 F100
X86.959 Z-1.19
X86.982 Z-1.235
X87.017 Z-1.27
X87.061 Z-1.292
X87.11 Z-1.3
X87.569
X101.374
X101.423 Z-1.292
X101.467 Z-1.27
X101.502 Z-1.235
X101.525 Z-1.19
X101.533 Z-1.141
G0 Z3
X-98.599 Y9.817
G1 Z-1.141 F100
X-98.591 Z-1.19
X-98.569 Z-1.235
X-98.534 Z-1.27
X-98.489 Z-1.292
X-98.44 Z-1.3
X-98.012
X101.374
X101.423 Z-1.292
X101.467 Z-1.27
X101.502 Z-1.235
X101.525 Z-1.19
X101.533 Z-1.141
G0 Z3
X-99.837 Y11.293
G1 Z-1.141 F100
X-99.829 Z-1.19
X-99.806 Z-1.235
X-99.771 Z-1.27
X-99.727 Z-1.292
X-99.678 Z-1.3
X-99.114
X101.374
X101.423 Z-1.292
X101.467 Z-1.27
X101.502 Z-1.235
X101.525 Z-1.19
X101.533 Z-1.141
G0 Z3
X-100.455 Y12.77
G1 Z-1.141 F100
X-100.448 Z-1.19
X-100.425 Z-1.235
X-100.39 Z-1.27
X-100.346 Z-1.292
X-100.297 Z-1.3
X-99.569
X101.374
X101.423 Z-1.292
X101.467 Z-1.27
X101.502 Z-1.235
X101.525 Z-1.19
X101.533 Z-1.141
G0 Z3
X-100.656 Y14.247
G1 Z-1.141 F100
X-100.648 Z-1.19
X-100.626 Z-1.235
X-100.591 Z-1.27
X-100.546 Z-1.292
X-100.497 Z-1.3
X-99.626
X101.374
X101.423 Z-1.292
X101.467 Z-1.27
X101.502 Z-1.235
X101.525 Z-1.19
X101.533 Z-1.141
G0 Z3
X-100.475 Y15.723
G1 Z-1.141 F100
X-100.468 Z-1.19
X-100.445 Z-1.235
X-100.41 Z-1.27
X-100.366 Z-1.292
X-100.317 Z-1.3
X-99.579
X101.374
X101.423 Z-1.292
X101.467 Z-1.27
X101.502 Z-1.235
X101.525 Z-1.19
X101.533 Z-1.141
G0 Z3
X-99.877 Y17.2
G1 Z-1.141 F100
X-99.869 Z-1.19
X-99.846 Z-1.235
X-99.811 Z-1.27
X-99.767 Z-1.292
X-99.718 Z-1.3
X-99.151
X101.374
X101.423 Z-1.292
X101.467 Z-1.27
X101.502 Z-1.235
X101.525 Z-1.19
X101.533 Z-1.141
G0 Z3
X-98.676 Y18.677
G1 Z-1.141 F100
X-98.668 Z-1.19
X-98.646 Z-1.235
X-98.611 Z-1.27
X-98.566 Z-1.292
X-98.517 Z-1.3
X-98.09
X101.374
X101.423 Z-1.292
X101.467 Z-1.27
X101.502 Z-1.235
X101.525 Z-1.19
X101.533 Z-1.141
G0 Z3
X-94.839 Y20.153
G1 Z-1.141 F100
X-94.831 Z-1.19
X-94.809 Z-1.235
X-94.773 Z-1.27
X-94.729 Z-1.292
X-94.68 Z-1.3
X87.248
X101.374
X101.423 Z-1.292
X101.467 Z-1.27
X101.502 Z-1.235
X101.525 Z-1.19
X101.533 Z-1.141
G0 Z3
X89.375 Y21.63
G1 Z-1.141 F100
X89.382 Z-1.19
X89.405 Z-1.235
X89.44 Z-1.27
X89.484 Z-1.292
X89.533 Z-1.3
X89.992
X101.374
X101.423 Z-1.292
X101.467 Z-1.27
X101.502 Z-1.235
X101.525 Z-1.19
X101.533 Z-1.141
G0 Z3
X90.17 Y23.106
G1 Z-1.141 F100
X90.178 Z-1.19
X90.201 Z-1.235
X90.236 Z-1.27
X90.28 Z-1.292
X90.329 Z-1.3
X90.965
X101.374
X101.423 Z-1.292
X101.467 Z-1.27
X101.502 Z-1.235
X101.525 Z-1.19
X101.533 Z-1.141
G0 Z3
X90.354 Y24.583
G1 Z-1.141 F100
X90.362 Z-1.19
X90.385 Z-1.235
X90.42 Z-1.27
X90.464 Z-1.292
X90.513 Z-1.3
X91.348
X101.374
X101.423 Z-1.292
X101.467 Z-1.27
X101.502 Z-1.235
X101.525 Z-1.19
X101.533 Z-1.141
G0 Z3
X90.619 Y26.06
G1 Z-1.141 F100
X90.627 Z-1.19
X90.65 Z-1.235
X90.685 Z-1.27
X90.729 Z-1.292
X90.778 Z-1.3
X91.476
X101.374
X101.423 Z-1.292
X101.467 Z-1.27
X101.502 Z-1.235
X101.525 Z-1.19
X101.533 Z-1.141
G0 Z3
X91.332 Y27.536
G1 Z-1.141 F100
X91.34 Z-1.19
X91.362 Z-1.235
X91.397 Z-1.27
X91.442 Z-1.292
X91.491 Z-1.3
X92.024
X101.374
X101.423 Z-1.292
X101.467 Z-1.27
X101.502 Z-1.235
X101.525 Z-1.19
X101.533 Z-1.141
G0 Z3
X92.737 Y29.013
G1 Z-1.141 F100
X92.745 Z-1.19
X92.768 Z-1.235
X92.803 Z-1.27
X92.847 Z-1.292
X92.896 Z-1.3
X93.3
X101.374
X101.423 Z-1.292
X101.467 Z-1.27
X101.502 Z-1.235
X101.525 Z-1.19
X101.533 Z-1.141
G0 Z3
X-94.839 Y20.153
G1 Z-1.141 F100
X-94.831 Z-1.19
X-94.809 Z-1.235
X-94.773 Z-1.27
X-94.729 Z-1.292
X-94.68 Z-1.3
X-60.886
X-48.365
X-48.316 Z-1.292
X-48.272 Z-1.27
X-48.236 Z-1.235
X-48.214 Z-1.19
X-48.206 Z-1.141
G0 Z3
X-60.042 Y21.63
G1 Z-1.141 F100
X-60.034 Z-1.19
X-60.012 Z-1.235
X-59.977 Z-1.27
X-59.933 Z-1.292
X-59.884 Z-1.3
X-59.189
X-50.063
X-50.013 Z-1.292
X-49.969 Z-1.27
X-49.934 Z-1.235
X-49.912 Z-1.19
X-49.904 Z-1.141
G0 Z3
X-60.408 Y23.106
G1 Z-1.141 F100
X-60.4 Z-1.19
X-60.378 Z-1.235
X-60.343 Z-1.27
X-60.298 Z-1.292
X-60.249 Z-1.3
X-59.545
X-49.706
X-49.657 Z-1.292
X-49.613 Z-1.27
X-49.578 Z-1.235
X-49.555 Z-1.19
X-49.548 Z-1.141
G0 Z3
X-60.649 Y24.583
G1 Z-1.141 F100
X-60.642 Z-1.19
X-60.619 Z-1.235
X-60.584 Z-1.27
X-60.54 Z-1.292
X-60.491 Z-1.3
X-59.626
X-49.626
X-49.577 Z-1.292
X-49.532 Z-1.27
X-49.497 Z-1.235
X-49.475 Z-1.19
X-49.467 Z-1.141
G0 Z3
X-60.514 Y26.06
G1 Z-1.141 F100
X-60.506 Z-1.19
X-60.484 Z-1.235
X-60.448 Z-1.27
X-60.404 Z-1.292
X-60.355 Z-1.3
X-59.6
X-49.651
X-49.602 Z-1.292
X-49.558 Z-1.27
X-49.523 Z-1.235
X-49.5 Z-1.19
X-49.492 Z-1.141
G0 Z3
X-59.968 Y27.536
G1 Z-1.141 F100
X-59.96 Z-1.19
X-59.938 Z-1.235
X-59.903 Z-1.27
X-59.858 Z-1.292
X-59.809 Z-1.3
X-59.22
X-50.031
X-49.982 Z-1.292
X-49.938 Z-1.27
X-49.902 Z-1.235
X-49.88 Z-1.19
X-49.872 Z-1.141
G0 Z3
X-58.853 Y29.013
G1 Z-1.141 F100
X-58.845 Z-1.19
X-58.823 Z-1.235
X-58.788 Z-1.27
X-58.743 Z-1.292
X-58.694 Z-1.3
X-58.251
X-51
X-50.951 Z-1.292
X-50.907 Z-1.27
X-50.872 Z-1.235
X-50.849 Z-1.19
X-50.841 Z-1.141
G0 Z3
X-31.475 Y-4.131
G1 Z-0.141 F100
X-31.467 Z-0.19
X-31.444 Z-0.235
X-31.409 Z-0.27
X-31.365 Z-0.292
X-31.316 Z-0.3
X-30.889
X38.14 F300
X38.189 Z-0.292 F100
X38.234 Z-0.27
X38.269 Z-0.235
X38.291 Z-0.19
X38.299 Z-0.141
G0 Z3
X-32.625 Y-2.701
G1 Z-0.141 F100
X-32.617 Z-0.19
X-32.595 Z-0.235
X-32.56 Z-0.27
X-32.515 Z-0.292
X-32.466 Z-0.3
X-31.9
X39.151 F300
X39.2 Z-0.292 F100
X39.245 Z-0.27
X39.28 Z-0.235
X39.302 Z-0.19
X39.31 Z-0.141
G0 Z3
X-33.211 Y-1.271
G1 Z-0.141 F100
X-33.203 Z-0.19
X-33.181 Z-0.235
X-33.146 Z-0.27
X-33.101 Z-0.292
X-33.052 Z-0.3
X-32.322
X39.573 F300
X39.622 Z-0.292 F100
X39.666 Z-0.27
X39.701 Z-0.235
X39.724 Z-0.19
X39.732 Z-0.141
G0 Z3
X-33.404 Y0.159
G1 Z-0.141 F100
X-33.396 Z-0.19
X-33.374 Z-0.235
X-33.339 Z-0.27
X-33.295 Z-0.292
X-33.246 Z-0.3
X-32.375
X39.626 F300
X39.675 Z-0.292 F100
X39.719 Z-0.27
X39.754 Z-0.235
X39.777 Z-0.19
X39.785 Z-0.141
G0 Z3
X-33.244 Y1.589
G1 Z-0.141 F100
X-33.237 Z-0.19
X-33.214 Z-0.235
X-33.179 Z-0.27
X-33.135 Z-0.292
X-33.086 Z-0.3
X-32.337
X39.588 F300
X39.637 Z-0.292 F100
X39.682 Z-0.27
X39.717 Z-0.235
X39.739 Z-0.19
X39.747 Z-0.141
G0 Z3
X-32.691 Y3.019
G1 Z-0.141 F100
X-32.683 Z-0.19
X-32.661 Z-0.235
X-32.626 Z-0.27
X-32.581 Z-0.292
X-32.532 Z-0.3
X-31.95
X39.201 F300
X39.25 Z-0.292 F100
X39.295 Z-0.27
X39.33 Z-0.235
X39.352 Z-0.19
X39.36 Z-0.141
G0 Z3
X-31.602 Y4.449
G1 Z-0.141 F100
X-31.594 Z-0.19
X-31.572 Z-0.235
X-31.537 Z-0.27
X-31.492 Z-0.292
X-31.443 Z-0.3
X-31
X38.252 F300
X38.301 Z-0.292 F100
X38.345 Z-0.27
X38.38 Z-0.235
X38.403 Z-0.19
X38.41 Z-0.141
G0 Z3
X-31.475 Y-4.131
G1 Z-1.141 F100
X-31.467 Z-1.19
X-31.444 Z-1.235
X-31.409 Z-1.27
X-31.365 Z-1.292
X-31.316 Z-1.3
X-30.889
X38.14
X38.189 Z-1.292
X38.234 Z-1.27
X38.269 Z-1.235
X38.291 Z-1.19
X38.299 Z-1.141
G0 Z3
X-32.625 Y-2.701
G1 Z-1.141 F100
X-32.617 Z-1.19
X-32.595 Z-1.235
X-32.56 Z-1.27
X-32.515 Z-1.292
X-32.466 Z-1.3
X-31.9
X39.151
X39.2 Z-1.292
X39.245 Z-1.27
X39.28 Z-1.235
X39.302 Z-1.19
X39.31 Z-1.141
G0 Z3
X-33.211 Y-1.271
G1 Z-1.141 F100
X-33.203 Z-1.19
X-33.181 Z-1.235
X-33.146 Z-1.27
X-33.101 Z-1.292
X-33.052 Z-1.3
X-32.322
X39.573
X39.622 Z-1.292
X39.666 Z-1.27
X39.701 Z-1.235
X39.724 Z-1.19
X39.732 Z-1.141
G0 Z3
X-33.404 Y0.159
G1 Z-1.141 F100
X-33.396 Z-1.19
X-33.374 Z-1.235
X-33.339 Z-1.27
X-33.295 Z-1.292
X-33.246 Z-1.3
X-32.375
X39.626
X39.675 Z-1.292
X39.719 Z-1.27
X39.754 Z-1.235
X39.777 Z-1.19
X39.785 Z-1.141
G0 Z3
X-33.244 Y1.589
G1 Z-1.141 F100
X-33.237 Z-1.19
X-33.214 Z-1.235
X-33.179 Z-1.27
X-33.135 Z-1.292
X-33.086 Z-1.3
X-32.337
X39.588
X39.637 Z-1.292
X39.682 Z-1.27
X39.717 Z-1.235
X39.739 Z-1.19
X39.747 Z-1.141
G0 Z3
X-32.691 Y3.019
G1 Z-1.141 F100
X-32.683 Z-1.19
X-32.661 Z-1.235
X-32.626 Z-1.27
X-32.581 Z-1.292
X-32.532 Z-1.3
X-31.95
X39.201
X39.25 Z-1.292
X39.295 Z-1.27
X39.33 Z-1.235
X39.352 Z-1.19
X39.36 Z-1.141
G0 Z3
X-31.602 Y4.449
G1 Z-1.141 F100
X-31.594 Z-1.19
X-31.572 Z-1.235
X-31.537 Z-1.27
X-31.492 Z-1.292
X-31.443 Z-1.3
X-31
X38.252
X38.301 Z-1.292
X38.345 Z-1.27
X38.38 Z-1.235
X38.403 Z-1.19
X38.41 Z-1.141
G0 Z3
X50.475 Y-29.084
G1 Z-0.141 F100
X50.483 Z-0.19
X50.506 Z-0.235
X50.541 Z-0.27
X50.585 Z-0.292
X50.634 Z-0.3
X51.065
X58.186 F300
X58.235 Z-0.292 F100
X58.279 Z-0.27
X58.315 Z-0.235
X58.337 Z-0.19
X58.345 Z-0.141
G0 Z3
X49.323 Y-27.608
G1 Z-0.141 F100
X49.331 Z-0.19
X49.353 Z-0.235
X49.388 Z-0.27
X49.433 Z-0.292
X49.482 Z-0.3
X50.06
X59.191 F300
X59.24 Z-0.292 F100
X59.284 Z-0.27
X59.319 Z-0.235
X59.342 Z-0.19
X59.35 Z-0.141
G0 Z3
X48.752 Y-26.131
G1 Z-0.141 F100
X48.759 Z-0.19
X48.782 Z-0.235
X48.817 Z-0.27
X48.861 Z-0.292
X48.91 Z-0.3
X49.66
X59.591 F300
X59.64 Z-0.292 F100
X59.684 Z-0.27
X59.719 Z-0.235
X59.742 Z-0.19
X59.75 Z-0.141
G0 Z3
X48.599 Y-24.654
G1 Z-0.141 F100
X48.607 Z-0.19
X48.629 Z-0.235
X48.665 Z-0.27
X48.709 Z-0.292
X48.758 Z-0.3
X49.626
X59.626 F300
X59.675 Z-0.292 F100
X59.719 Z-0.27
X59.754 Z-0.235
X59.777 Z-0.19
X59.784 Z-0.141
G0 Z3
X48.822 Y-23.178
G1 Z-0.141 F100
X48.83 Z-0.19
X48.852 Z-0.235
X48.887 Z-0.27
X48.932 Z-0.292
X48.981 Z-0.3
X49.692
X59.559 F300
X59.608 Z-0.292 F100
X59.652 Z-0.27
X59.688 Z-0.235
X59.71 Z-0.19
X59.718 Z-0.141
G0 Z3
X49.214 Y-21.701
G1 Z-0.141 F100
X49.222 Z-0.19
X49.244 Z-0.235
X49.28 Z-0.27
X49.324 Z-0.292
X49.373 Z-0.3
X50.093
X59.158 F300
X59.207 Z-0.292 F100
X59.252 Z-0.27
X59.287 Z-0.235
X59.309 Z-0.19
X59.317 Z-0.141
G0 Z3
X48.06 Y-20.224
G1 Z-0.141 F100
X48.068 Z-0.19
X48.09 Z-0.235
X48.125 Z-0.27
X48.169 Z-0.292
X48.219 Z-0.3
X48.593
X60.658 F300
X60.707 Z-0.292 F100
X60.751 Z-0.27
X60.787 Z-0.235
X60.809 Z-0.19
X60.817 Z-0.141
G0 Z3
X-102.406 Y-29.084
G1 Z-0.141 F100
X-102.398 Z-0.19
X-102.376 Z-0.235
X-102.34 Z-0.27
X-102.296 Z-0.292
X-102.247 Z-0.3
X-101.374
X-93.392 F300
X-93.343 Z-0.292 F100
X-93.299 Z-0.27
X-93.264 Z-0.235
X-93.241 Z-0.19
X-93.234 Z-0.141
G0 Z3
X-102.406 Y-27.608
G1 Z-0.141 F100
X-102.398 Z-0.19
X-102.376 Z-0.235
X-102.34 Z-0.27
X-102.296 Z-0.292
X-102.247 Z-0.3
X-101.374
X-92.064 F300
X-92.015 Z-0.292 F100
X-91.971 Z-0.27
X-91.936 Z-0.235
X-91.913 Z-0.19
X-91.906 Z-0.141
G0 Z3
X-102.406 Y-26.131
G1 Z-0.141 F100
X-102.398 Z-0.19
X-102.376 Z-0.235
X-102.34 Z-0.27
X-102.296 Z-0.292
X-102.247 Z-0.3
X-101.374
X-91.492 F300
X-91.443 Z-0.292 F100
X-91.398 Z-0.27
X-91.363 Z-0.235
X-91.341 Z-0.19
X-91.333 Z-0.141
G0 Z3
X-102.406 Y-24.654
G1 Z-0.141 F100
X-102.398 Z-0.19
X-102.376 Z-0.235
X-102.34 Z-0.27
X-102.296 Z-0.292
X-102.247 Z-0.3
X-101.374
X-91.356 F300
X-91.307 Z-0.292 F100
X-91.263 Z-0.27
X-91.227 Z-0.235
X-91.205 Z-0.19
X-91.197 Z-0.141
G0 Z3
X-102.406 Y-23.178
G1 Z-0.141 F100
X-102.398 Z-0.19
X-102.376 Z-0.235
X-102.34 Z-0.27
X-102.296 Z-0.292
X-102.247 Z-0.3
X-101.374
X-90.995 F300
X-90.946 Z-0.292 F100
X-90.901 Z-0.27
X-90.866 Z-0.235
X-90.844 Z-0.19
X-90.836 Z-0.141
G0 Z3
X-102.406 Y-21.701
G1 Z-0.141 F100
X-102.398 Z-0.19
X-102.376 Z-0.235
X-102.34 Z-0.27
X-102.296 Z-0.292
X-102.247 Z-0.3
X-101.374
X-90.057 F300
X-90.008 Z-0.292 F100
X-89.964 Z-0.27
X-89.929 Z-0.235
X-89.906 Z-0.19
X-89.898 Z-0.141
G0 Z3
X-102.406 Y-20.224
G1 Z-0.141 F100
X-102.398 Z-0.19
X-102.376 Z-0.235
X-102.34 Z-0.27
X-102.296 Z-0.292
X-102.247 Z-0.3
X-101.374
X-87.569 F300
X-87.52 Z-0.292 F100
X-87.476 Z-0.27
X-87.441 Z-0.235
X-87.418 Z-0.19
X-87.411 Z-0.141
G0 Z3
X-102.406 Y-18.748
G1 Z-0.141 F100
X-102.398 Z-0.19
X-102.376 Z-0.235
X-102.34 Z-0.27
X-102.296 Z-0.292
X-102.247 Z-0.3
X-101.374
X98.012 F300
X98.062 Z-0.292 F100
X98.106 Z-0.27
X98.141 Z-0.235
X98.163 Z-0.19
X98.171 Z-0.141
G0 Z3
X-102.406 Y-17.271
G1 Z-0.141 F100
X-102.398 Z-0.19
X-102.376 Z-0.235
X-102.34 Z-0.27
X-102.296 Z-0.292
X-102.247 Z-0.3
X-101.374
X99.114 F300
X99.163 Z-0.292 F100
X99.208 Z-0.27
X99.243 Z-0.235
X99.265 Z-0.19
X99.273 Z-0.141
G0 Z3
X-102.406 Y-15.794
G1 Z-0.141 F100
X-102.398 Z-0.19
X-102.376 Z-0.235
X-102.34 Z-0.27
X-102.296 Z-0.292
X-102.247 Z-0.3
X-101.374
X99.569 F300
X99.618 Z-0.292 F100
X99.663 Z-0.27
X99.698 Z-0.235
X99.72 Z-0.19
X99.728 Z-0.141
G0 Z3
X-102.406 Y-14.318
G1 Z-0.141 F100
X-102.398 Z-0.19
X-102.376 Z-0.235
X-102.34 Z-0.27
X-102.296 Z-0.292
X-102.247 Z-0.3
X-101.374
X99.626 F300
X99.675 Z-0.292 F100
X99.719 Z-0.27
X99.754 Z-0.235
X99.777 Z-0.19
X99.784 Z-0.141
G0 Z3
X-102.406 Y-12.841
G1 Z-0.141 F100
X-102.398 Z-0.19
X-102.376 Z-0.235
X-102.34 Z-0.27
X-102.296 Z-0.292
X-102.247 Z-0.3
X-101.374
X99.579 F300
X99.628 Z-0.292 F100
X99.672 Z-0.27
X99.707 Z-0.235
X99.73 Z-0.19
X99.737 Z-0.141
G0 Z3
X-102.406 Y-11.365
G1 Z-0.141 F100
X-102.398 Z-0.19
X-102.376 Z-0.235
X-102.34 Z-0.27
X-102.296 Z-0.292
X-102.247 Z-0.3
X-101.374
X99.151 F300
X99.201 Z-0.292 F100
X99.245 Z-0.27
X99.28 Z-0.235
X99.302 Z-0.19
X99.31 Z-0.141
G0 Z3
X-102.406 Y-9.888
G1 Z-0.141 F100
X-102.398 Z-0.19
X-102.376 Z-0.235
X-102.34 Z-0.27
X-102.296 Z-0.292
X-102.247 Z-0.3
X-101.374
X98.09 F300
X98.139 Z-0.292 F100
X98.183 Z-0.27
X98.219 Z-0.235
X98.241 Z-0.19
X98.249 Z-0.141
G0 Z3
X-102.406 Y-8.411
G1 Z-0.141 F100
X-102.398 Z-0.19
X-102.376 Z-0.235
X-102.34 Z-0.27
X-102.296 Z-0.292
X-102.247 Z-0.3
X48.365
X60.886 F300
X60.936 Z-0.292 F100
X60.98 Z-0.27
X61.015 Z-0.235
X61.037 Z-0.19
X61.045 Z-0.141
G0 Z3
X49.209 Y-6.935
G1 Z-0.141 F100
X49.217 Z-0.19
X49.239 Z-0.235
X49.274 Z-0.27
X49.319 Z-0.292
X49.368 Z-0.3
X50.063
X59.189 F300
X59.238 Z-0.292 F100
X59.282 Z-0.27
X59.317 Z-0.235
X59.34 Z-0.19
X59.348 Z-0.141
G0 Z3
X48.843 Y-5.458
G1 Z-0.141 F100
X48.851 Z-0.19
X48.873 Z-0.235
X48.909 Z-0.27
X48.953 Z-0.292
X49.002 Z-0.3
X49.706
X59.545 F300
X59.594 Z-0.292 F100
X59.638 Z-0.27
X59.673 Z-0.235
X59.696 Z-0.19
X59.704 Z-0.141
G0 Z3
X48.602 Y-3.981
G1 Z-0.141 F100
X48.61 Z-0.19
X48.632 Z-0.235
X48.667 Z-0.27
X48.712 Z-0.292
X48.761 Z-0.3
X49.626
X59.626 F300
X59.675 Z-0.292 F100
X59.719 Z-0.27
X59.754 Z-0.235
X59.777 Z-0.19
X59.784 Z-0.141
G0 Z3
X48.737 Y-2.505
G1 Z-0.141 F100
X48.745 Z-0.19
X48.768 Z-0.235
X48.803 Z-0.27
X48.847 Z-0.292
X48.896 Z-0.3
X49.651
X59.6 F300
X59.649 Z-0.292 F100
X59.694 Z-0.27
X59.729 Z-0.235
X59.751 Z-0.19
X59.759 Z-0.141
G0 Z3
X49.283 Y-1.028
G1 Z-0.141 F100
X49.291 Z-0.19
X49.313 Z-0.235
X49.349 Z-0.27
X49.393 Z-0.292
X49.442 Z-0.3
X50.031
X59.22 F300
X59.269 Z-0.292 F100
X59.314 Z-0.27
X59.349 Z-0.235
X59.371 Z-0.19
X59.379 Z-0.141
G0 Z3
X50.398 Y0.449
G1 Z-0.141 F100
X50.406 Z-0.19
X50.429 Z-0.235
X50.464 Z-0.27
X50.508 Z-0.292
X50.557 Z-0.3
X51
X58.251 F300
X58.3 Z-0.292 F100
X58.345 Z-0.27
X58.38 Z-0.235
X58.402 Z-0.19
X58.41 Z-0.141
G0 Z3
X-102.406 Y-8.411
G1 Z-0.141 F100
X-102.398 Z-0.19
X-102.376 Z-0.235
X-102.34 Z-0.27
X-102.296 Z-0.292
X-102.247 Z-0.3
X-101.374
X-87.248 F300
X-87.199 Z-0.292 F100
X-87.155 Z-0.27
X-87.12 Z-0.235
X-87.097 Z-0.19
X-87.089 Z-0.141
G0 Z3
X-102.406 Y-6.935
G1 Z-0.141 F100
X-102.398 Z-0.19
X-102.376 Z-0.235
X-102.34 Z-0.27
X-102.296 Z-0.292
X-102.247 Z-0.3
X-101.374
X-89.992 F300
X-89.943 Z-0.292 F100
X-89.898 Z-0.27
X-89.863 Z-0.235
X-89.841 Z-0.19
X-89.833 Z-0.141
G0 Z3
X-102.406 Y-5.458
G1 Z-0.141 F100
X-102.398 Z-0.19
X-102.376 Z-0.235
X-102.34 Z-0.27
X-102.296 Z-0.292
X-102.247 Z-0.3
X-101.374
X-90.965 F300
X-90.916 Z-0.292 F100
X-90.872 Z-0.27
X-90.837 Z-0.235
X-90.814 Z-0.19
X-90.807 Z-0.141
G0 Z3
X-102.406 Y-3.981
G1 Z-0.141 F100
X-102.398 Z-0.19
X-102.376 Z-0.235
X-102.34 Z-0.27
X-102.296 Z-0.292
X-102.247 Z-0.3
X-101.374
X-91.348 F300
X-91.299 Z-0.292 F100
X-91.254 Z-0.27
X-91.219 Z-0.235
X-91.197 Z-0.19
X-91.189 Z-0.141
G0 Z3
X-102.406 Y-2.505
G1 Z-0.141 F100
X-102.398 Z-0.19
X-102.376 Z-0.235
X-102.34 Z-0.27
X-102.296 Z-0.292
X-102.247 Z-0.3
X-101.374
X-91.476 F300
X-91.427 Z-0.292 F100
X-91.383 Z-0.27
X-91.347 Z-0.235
X-91.325 Z-0.19
X-91.317 Z-0.141
G0 Z3
X-102.406 Y-1.028
G1 Z-0.141 F100
X-102.398 Z-0.19
X-102.376 Z-0.235
X-102.34 Z-0.27
X-102.296 Z-0.292
X-102.247 Z-0.3
X-101.374
X-92.024 F300
X-91.975 Z-0.292 F100
X-91.93 Z-0.27
X-91.895 Z-0.235
X-91.873 Z-0.19
X-91.865 Z-0.141
G0 Z3
X-102.406 Y0.449
G1 Z-0.141 F100
X-102.398 Z-0.19
X-102.376 Z-0.235
X-102.34 Z-0.27
X-102.296 Z-0.292
X-102.247 Z-0.3
X-101.374
X-93.3 F300
X-93.251 Z-0.292 F100
X-93.206 Z-0.27
X-93.171 Z-0.235
X-93.149 Z-0.19
X-93.141 Z-0.141
G0 Z3
X-102.406 Y-29.084
G1 Z-1.141 F100
X-102.398 Z-1.19
X-102.376 Z-1.235
X-102.34 Z-1.27
X-102.296 Z-1.292
X-102.247 Z-1.3
X-101.374
X-93.392
X-93.343 Z-1.292
X-93.299 Z-1.27
X-93.264 Z-1.235
X-93.241 Z-1.19
X-93.234 Z-1.141
G0 Z3
X-102.406 Y-27.608
G1 Z-1.141 F100
X-102.398 Z-1.19
X-102.376 Z-1.235
X-102.34 Z-1.27
X-102.296 Z-1.292
X-102.247 Z-1.3
X-101.374
X-92.064
X-92.015 Z-1.292
X-91.971 Z-1.27
X-91.936 Z-1.235
X-91.913 Z-1.19
X-91.906 Z-1.141
G0 Z3
X-102.406 Y-26.131
G1 Z-1.141 F100
X-102.398 Z-1.19
X-102.376 Z-1.235
X-102.34 Z-1.27
X-102.296 Z-1.292
X-102.247 Z-1.3
X-101.374
X-91.492
X-91.443 Z-1.292
X-91.398 Z-1.27
X-91.363 Z-1.235
X-91.341 Z-1.19
X-91.333 Z-1.141
G0 Z3
X-102.406 Y-24.654
G1 Z-1.141 F100
X-102.398 Z-1.19
X-102.376 Z-1.235
X-102.34 Z-1.27
X-102.296 Z-1.292
X-102.247 Z-1.3
X-101.374
X-91.356
X-91.307 Z-1.292
X-91.263 Z-1.27
X-91.227 Z-1.235
X-91.205 Z-1.19
X-91.197 Z-1.141
G0 Z3
X-102.406 Y-23.178
G1 Z-1.141 F100
X-102.398 Z-1.19
X-102.376 Z-1.235
X-102.34 Z-1.27
X-102.296 Z-1.292
X-102.247 Z-1.3
X-101.374
X-90.995
X-90.946 Z-1.292
X-90.901 Z-1.27
X-90.866 Z-1.235
X-90.844 Z-1.19
X-90.836 Z-1.141
G0 Z3
X-102.406 Y-21.701
G1 Z-1.141 F100
X-102.398 Z-1.19
X-102.376 Z-1.235
X-102.34 Z-1.27
X-102.296 Z-1.292
X-102.247 Z-1.3
X-101.374
X-90.057
X-90.008 Z-1.292
X-89.964 Z-1.27
X-89.929 Z-1.235
X-89.906 Z-1.19
X-89.898 Z-1.141
G0 Z3
X-102.406 Y-20.224
G1 Z-1.141 F100
X-102.398 Z-1.19
X-102.376 Z-1.235
X-102.34 Z-1.27
X-102.296 Z-1.292
X-102.247 Z-1.3
X-101.374
X-87.569
X-87.52 Z-1.292
X-87.476 Z-1.27
X-87.441 Z-1.235
X-87.418 Z-1.19
X-87.411 Z-1.141
G0 Z3
X50.475 Y-29.084
G1 Z-1.141 F100
X50.483 Z-1.19
X50.506 Z-1.235
X50.541 Z-1.27
X50.585 Z-1.292
X50.634 Z-1.3
X51.065
X58.186
X58.235 Z-1.292
X58.279 Z-1.27
X58.315 Z-1.235
X58.337 Z-1.19
X58.345 Z-1.141
G0 Z3
X49.323 Y-27.608
G1 Z-1.141 F100
X49.331 Z-1.19
X49.353 Z-1.235
X49.388 Z-1.27
X49.433 Z-1.292
X49.482 Z-1.3
X50.06
X59.191
X59.24 Z-1.292
X59.284 Z-1.27
X59.319 Z-1.235
X59.342 Z-1.19
X59.35 Z-1.141
G0 Z3
X48.752 Y-26.131
G1 Z-1.141 F100
X48.759 Z-1.19
X48.782 Z-1.235
X48.817 Z-1.27
X48.861 Z-1.292
X48.91 Z-1.3
X49.66
X59.591
X59.64 Z-1.292
X59.684 Z-1.27
X59.719 Z-1.235
X59.742 Z-1.19
X59.75 Z-1.141
G0 Z3
X48.599 Y-24.654
G1 Z-1.141 F100
X48.607 Z-1.19
X48.629 Z-1.235
X48.665 Z-1.27
X48.709 Z-1.292
X48.758 Z-1.3
X49.626
X59.626
X59.675 Z-1.292
X59.719 Z-1.27
X59.754 Z-1.235
X59.777 Z-1.19
X59.784 Z-1.141
G0 Z3
X48.822 Y-23.178
G1 Z-1.141 F100
X48.83 Z-1.19
X48.852 Z-1.235
X48.887 Z-1.27
X48.932 Z-1.292
X48.981 Z-1.3
X49.692
X59.559
X59.608 Z-1.292
X59.652 Z-1.27
X59.688 Z-1.235
X59.71 Z-1.19
X59.718 Z-1.141
G0 Z3
X49.214 Y-21.701
G1 Z-1.141 F100
X49.222 Z-1.19
X49.244 Z-1.235
X49.28 Z-1.27
X49.324 Z-1.292
X49.373 Z-1.3
X50.093
X59.158
X59.207 Z-1.292
X59.252 Z-1.27
X59.287 Z-1.235
X59.309 Z-1.19
X59.317 Z-1.141
G0 Z3
X48.06 Y-20.224
G1 Z-1.141 F100
X48.068 Z-1.19
X48.09 Z-1.235
X48.125 Z-1.27
X48.169 Z-1.292
X48.219 Z-1.3
X48.593
X60.658
X60.707 Z-1.292
X60.751 Z-1.27
X60.787 Z-1.235
X60.809 Z-1.19
X60.817 Z-1.141
G0 Z3
X-102.406 Y-18.748
G1 Z-1.141 F100
X-102.398 Z-1.19
X-102.376 Z-1.235
X-102.34 Z-1.27
X-102.296 Z-1.292
X-102.247 Z-1.3
X-101.374
X98.012
X98.062 Z-1.292
X98.106 Z-1.27
X98.141 Z-1.235
X98.163 Z-1.19
X98.171 Z-1.141
G0 Z3
X-102.406 Y-17.271
G1 Z-1.141 F100
X-102.398 Z-1.19
X-102.376 Z-1.235
X-102.34 Z-1.27
X-102.296 Z-1.292
X-102.247 Z-1.3
X-101.374
X99.114
X99.163 Z-1.292
X99.208 Z-1.27
X99.243 Z-1.235
X99.265 Z-1.19
X99.273 Z-1.141
G0 Z3
X-102.406 Y-15.794
G1 Z-1.141 F100
X-102.398 Z-1.19
X-102.376 Z-1.235
X-102.34 Z-1.27
X-102.296 Z-1.292
X-102.247 Z-1.3
X-101.374
X99.569
X99.618 Z-1.292
X99.663 Z-1.27
X99.698 Z-1.235
X99.72 Z-1.19
X99.728 Z-1.141
G0 Z3
X-102.406 Y-14.318
G1 Z-1.141 F100
X-102.398 Z-1.19
X-102.376 Z-1.235
X-102.34 Z-1.27
X-102.296 Z-1.292
X-102.247 Z-1.3
X-101.374
X99.626
X99.675 Z-1.292
X99.719 Z-1.27
X99.754 Z-1.235
X99.777 Z-1.19
X99.784 Z-1.141
G0 Z3
X-102.406 Y-12.841
G1 Z-1.141 F100
X-102.398 Z-1.19
X-102.376 Z-1.235
X-102.34 Z-1.27
X-102.296 Z-1.292
X-102.247 Z-1.3
X-101.374
X99.579
X99.628 Z-1.292
X99.672 Z-1.27
X99.707 Z-1.235
X99.73 Z-1.19
X99.737 Z-1.141
G0 Z3
X-102.406 Y-11.365
G1 Z-1.141 F100
X-102.398 Z-1.19
X-102.376 Z-1.235
X-102.34 Z-1.27
X-102.296 Z-1.292
X-102.247 Z-1.3
X-101.374
X99.151
X99.201 Z-1.292
X99.245 Z-1.27
X99.28 Z-1.235
X99.302 Z-1.19
X99.31 Z-1.141
G0 Z3
X-102.406 Y-9.888
G1 Z-1.141 F100
X-102.398 Z-1.19
X-102.376 Z-1.235
X-102.34 Z-1.27
X-102.296 Z-1.292
X-102.247 Z-1.3
X-101.374
X98.09
X98.139 Z-1.292
X98.183 Z-1.27
X98.219 Z-1.235
X98.241 Z-1.19
X98.249 Z-1.141
G0 Z3
X-102.406 Y-8.411
G1 Z-1.141 F100
X-102.398 Z-1.19
X-102.376 Z-1.235
X-102.34 Z-1.27
X-102.296 Z-1.292
X-102.247 Z-1.3
X48.365
X60.886
X60.936 Z-1.292
X60.98 Z-1.27
X61.015 Z-1.235
X61.037 Z-1.19
X61.045 Z-1.141
G0 Z3
X49.209 Y-6.935
G1 Z-1.141 F100
X49.217 Z-1.19
X49.239 Z-1.235
X49.274 Z-1.27
X49.319 Z-1.292
X49.368 Z-1.3
X50.063
X59.189
X59.238 Z-1.292
X59.282 Z-1.27
X59.317 Z-1.235
X59.34 Z-1.19
X59.348 Z-1.141
G0 Z3
X48.843 Y-5.458
G1 Z-1.141 F100
X48.851 Z-1.19
X48.873 Z-1.235
X48.909 Z-1.27
X48.953 Z-1.292
X49.002 Z-1.3
X49.706
X59.545
X59.594 Z-1.292
X59.638 Z-1.27
X59.673 Z-1.235
X59.696 Z-1.19
X59.704 Z-1.141
G0 Z3
X48.602 Y-3.981
G1 Z-1.141 F100
X48.61 Z-1.19
X48.632 Z-1.235
X48.667 Z-1.27
X48.712 Z-1.292
X48.761 Z-1.3
X49.626
X59.626
X59.675 Z-1.292
X59.719 Z-1.27
X59.754 Z-1.235
X59.777 Z-1.19
X59.784 Z-1.141
G0 Z3
X48.737 Y-2.505
G1 Z-1.141 F100
X48.745 Z-1.19
X48.768 Z-1.235
X48.803 Z-1.27
X48.847 Z-1.292
X48.896 Z-1.3
X49.651
X59.6
X59.649 Z-1.292
X59.694 Z-1.27
X59.729 Z-1.235
X59.751 Z-1.19
X59.759 Z-1.141
G0 Z3
X49.283 Y-1.028
G1 Z-1.141 F100
X49.291 Z-1.19
X49.313 Z-1.235
X49.349 Z-1.27
X49.393 Z-1.292
X49.442 Z-1.3
X50.031
X59.22
X59.269 Z-1.292
X59.314 Z-1.27
X59.349 Z-1.235
X59.371 Z-1.19
X59.379 Z-1.141
G0 Z3
X50.398 Y0.449
G1 Z-1.141 F100
X50.406 Z-1.19
X50.429 Z-1.235
X50.464 Z-1.27
X50.508 Z-1.292
X50.557 Z-1.3
X51
X58.251
X58.3 Z-1.292
X58.345 Z-1.27
X58.38 Z-1.235
X58.402 Z-1.19
X58.41 Z-1.141
G0 Z3
X-102.406 Y-8.411
G1 Z-1.141 F100
X-102.398 Z-1.19
X-102.376 Z-1.235
X-102.34 Z-1.27
X-102.296 Z-1.292
X-102.247 Z-1.3
X-101.374
X-87.248
X-87.199 Z-1.292
X-87.155 Z-1.27
X-87.12 Z-1.235
X-87.097 Z-1.19
X-87.089 Z-1.141
G0 Z3
X-102.406 Y-6.935
G1 Z-1.141 F100
X-102.398 Z-1.19
X-102.376 Z-1.235
X-102.34 Z-1.27
X-102.296 Z-1.292
X-102.247 Z-1.3
X-101.374
X-89.992
X-89.943 Z-1.292
X-89.898 Z-1.27
X-89.863 Z-1.235
X-89.841 Z-1.19
X-89.833 Z-1.141
G0 Z3
X-102.406 Y-5.458
G1 Z-1.141 F100
X-102.398 Z-1.19
X-102.376 Z-1.235
X-102.34 Z-1.27
X-102.296 Z-1.292
X-102.247 Z-1.3
X-101.374
X-90.965
X-90.916 Z-1.292
X-90.872 Z-1.27
X-90.837 Z-1.235
X-90.814 Z-1.19
X-90.807 Z-1.141
G0 Z3
X-102.406 Y-3.981
G1 Z-1.141 F100
X-102.398 Z-1.19
X-102.376 Z-1.235
X-102.34 Z-1.27
X-102.296 Z-1.292
X-102.247 Z-1.3
X-101.374
X-91.348
X-91.299 Z-1.292
X-91.254 Z-1.27
X-91.219 Z-1.235
X-91.197 Z-1.19
X-91.189 Z-1.141
G0 Z3
X-102.406 Y-2.505
G1 Z-1.141 F100
X-102.398 Z-1.19
X-102.376 Z-1.235
X-102.34 Z-1.27
X-102.296 Z-1.292
X-102.247 Z-1.3
X-101.374
X-91.476
X-91.427 Z-1.292
X-91.383 Z-1.27
X-91.347 Z-1.235
X-91.325 Z-1.19
X-91.317 Z-1.141
G0 Z3
X-102.406 Y-1.028
G1 Z-1.141 F100
X-102.398 Z-1.19
X-102.376 Z-1.235
X-102.34 Z-1.27
X-102.296 Z-1.292
X-102.247 Z-1.3
X-101.374
X-92.024
X-91.975 Z-1.292
X-91.93 Z-1.27
X-91.895 Z-1.235
X-91.873 Z-1.19
X-91.865 Z-1.141
G0 Z3
X-102.406 Y0.449
G1 Z-1.141 F100
X-102.398 Z-1.19
X-102.376 Z-1.235
X-102.34 Z-1.27
X-102.296 Z-1.292
X-102.247 Z-1.3
X-101.374
X-93.3
X-93.251 Z-1.292
X-93.206 Z-1.27
X-93.171 Z-1.235
X-93.149 Z-1.19
X-93.141 Z-1.141
G0 Z6
G28 G91 Z0
G90
G28 G91 X0 Y0
G90
M30
%
