(clean_face)
(T1  D=1.587 CR=0 - ZMIN=-1.3 - flat end mill)
G90 G94
G17
G21
G28 G91 Z0
G90

(Face6)
M9
S20000 M3
G54
G0 X102.406 Y-0.52
Z6
Z3
G1 Z-0.141 F100
X102.398 Z-0.19
X102.376 Z-0.235
X102.34 Z-0.27
X102.296 Z-0.292
X102.247 Z-0.3
X101.374
X93.392 F300
X92.064
G2 Y0.957 J0.738
G1 X101.374
G3 Y2.433 J0.738
G1 X91.492
X91.356
G2 Y3.91 J0.738
G1 X101.374
G3 Y5.387 J0.738
G1 X90.995
X90.057
G2 Y6.863 J0.738
G1 X101.374
G3 Y8.34 J0.738
G1 X87.569
X87.52 Z-0.292 F100
X87.476 Z-0.27
X87.441 Z-0.235
X87.418 Z-0.19
X87.411 Z-0.141
G0 Z3
X-50.475 Y-0.52
G1 Z-0.141 F100
X-50.483 Z-0.19
X-50.506 Z-0.235
X-50.541 Z-0.27
X-50.585 Z-0.292
X-50.634 Z-0.3
X-51.065
X-58.186 F300
X-59.191
G2 Y0.957 J0.738
G1 X-50.06
X-49.66
G3 Y2.433 J0.738
G1 X-59.591
X-59.626
G2 Y3.91 J0.738
G1 X-49.626
G3 Y5.387 J0.738
G1 X-49.692
X-59.559
G2 Y6.863 J0.738
G1 X-59.158
X-50.093
X-48.593
G3 Y8.34 J0.738
G1 X-60.658
X-60.707 Z-0.292 F100
X-60.751 Z-0.27
X-60.787 Z-0.235
X-60.809 Z-0.19
X-60.817 Z-0.141
G0 Z3
X-98.599 Y9.817
G1 Z-0.141 F100
X-98.591 Z-0.19
X-98.569 Z-0.235
X-98.534 Z-0.27
X-98.489 Z-0.292
X-98.44 Z-0.3
X-98.012
X101.374 F300
G3 Y11.293 J0.738
G1 X-99.114
X-99.569
G2 Y12.77 J0.738
G1 X101.374
G3 Y14.247 J0.738
G1 X-99.626
G2 Y15.723 J0.738
G1 X-99.579
X101.374
G3 Y17.2 J0.738
G1 X-99.151
G2 Y18.677 J0.738
G1 X-98.09
X101.374
G3 Y20.153 J0.738
G1 X87.248
G2 Y21.63 J0.738
G1 X89.992
X101.374
G3 Y23.106 J0.738
G1 X90.965
G2 Y24.583 J0.738
G1 X91.348
X101.374
G3 Y26.06 J0.738
G1 X91.476
G2 Y27.536 J0.738
G1 X92.024
X101.374
G3 Y29.013 J0.738
G1 X93.3
X93.251 Z-0.292 F100
X93.206 Z-0.27
X93.171 Z-0.235
X93.149 Z-0.19
X93.141 Z-0.141
G0 Z3
X-94.839 Y20.153
G1 Z-0.141 F100
X-94.831 Z-0.19
X-94.809 Z-0.235
X-94.773 Z-0.27
X-94.729 Z-0.292
X-94.68 Z-0.3
X-60.886
X-48.365 F300
X-48.316 Z-0.292 F100
X-48.272 Z-0.27
X-48.236 Z-0.235
X-48.214 Z-0.19
X-48.206 Z-0.141
G0 Z3
X-60.042 Y21.63
G1 Z-0.141 F100
X-60.034 Z-0.19
X-60.012 Z-0.235
X-59.977 Z-0.27
X-59.933 Z-0.292
X-59.884 Z-0.3
X-59.189
X-50.063 F300
X-49.706
G3 Y23.106 J0.738
G1 X-59.545
X-59.626
G2 Y24.583 J0.738
G1 X-49.626
G3 Y26.06 J0.738
G1 X-49.651
X-59.6
G2 Y27.536 J0.738
G1 X-59.22
X-50.031
G3 Y29.013 J0.738
G1 X-51
X-58.251
X-58.3 Z-0.292 F100
X-58.345 Z-0.27
X-58.38 Z-0.235
X-58.402 Z-0.19
X-58.41 Z-0.141
G0 Z3
X-58.776 Y-0.52
G1 Z-1.141 F100
X-58.768 Z-1.19
X-58.746 Z-1.235
X-58.711 Z-1.27
X-58.666 Z-1.292
X-58.617 Z-1.3
X-58.186
X-51.065 F300
X-50.06
G3 Y0.957 J0.738
G1 X-59.191
X-59.591
G2 Y2.433 J0.738
G1 X-49.66
X-49.626
G3 Y3.91 J0.738
G1 X-59.626
G2 Y5.387 J0.738
G1 X-59.559
X-49.692
G3 Y6.863 J0.738
G1 X-50.093
X-59.158
X-60.658
G2 Y8.34 J0.738
G1 X-48.593
X-48.544 Z-1.292 F100
X-48.5 Z-1.27
X-48.465 Z-1.235
X-48.442 Z-1.19
X-48.434 Z-1.141
G0 Z3
X92.839 Y-0.52
G1 Z-1.141 F100
X92.847 Z-1.19
X92.869 Z-1.235
X92.904 Z-1.27
X92.949 Z-1.292
X92.998 Z-1.3
X93.392
X101.374 F300
G3 Y0.957 J0.738
G1 X92.064
X91.492
G2 Y2.433 J0.738
G1 X101.374
G3 Y3.91 J0.738
G1 X91.356
X90.995
G2 Y5.387 J0.738
G1 X101.374
G3 Y6.863 J0.738
G1 X90.057
X87.569
G2 Y8.34 J0.738
G1 X101.374
G3 Y9.817 J0.738
G1 X-98.012
X-99.114
G2 Y11.293 J0.738
G1 X101.374
G3 Y12.77 J0.738
G1 X-99.569
X-99.626
G2 Y14.247 J0.738
G1 X101.374
G3 Y15.723 J0.738
G1 X-99.579
G2 Y17.2 J0.738
G1 X-99.151
X101.374
G3 Y18.677 J0.738
G1 X-98.09
X-98.139 Z-1.292 F100
X-98.183 Z-1.27
X-98.219 Z-1.235
X-98.241 Z-1.19
X-98.249 Z-1.141
G0 Z3
X-94.839 Y20.153
G1 Z-1.141 F100
X-94.831 Z-1.19
X-94.809 Z-1.235
X-94.773 Z-1.27
X-94.729 Z-1.292
X-94.68 Z-1.3
X-60.886
X-48.365 F300
G3 Y21.63 J0.738
G1 X-50.063
X-59.189
X-59.545
G2 Y23.106 J0.738
G1 X-49.706
X-49.626
G3 Y24.583 J0.738
G1 X-59.626
G2 Y26.06 J0.738
G1 X-59.6
X-49.651
G3 Y27.536 J0.738
G1 X-50.031
X-59.22
G2 Y29.013 J0.738
G1 X-58.251
X-51
X-50.951 Z-1.292 F100
X-50.907 Z-1.27
X-50.872 Z-1.235
X-50.849 Z-1.19
X-50.841 Z-1.141
G0 Z3
X102.406 Y20.153
G1 Z-1.141 F100
X102.398 Z-1.19
X102.376 Z-1.235
X102.34 Z-1.27
X102.296 Z-1.292
X102.247 Z-1.3
X101.374
X87.248 F300
X87.199 Z-1.292 F100
X87.155 Z-1.27
X87.12 Z-1.235
X87.097 Z-1.19
X87.09 Z-1.141
G0 Z3
X102.406 Y21.63
G1 Z-1.141 F100
X102.398 Z-1.19
X102.376 Z-1.235
X102.34 Z-1.27
X102.296 Z-1.292
X102.247 Z-1.3
X101.374
X89.992 F300
G2 Y23.106 J0.738
G1 X90.965
X101.374
G3 Y24.583 J0.738
G1 X91.348
G2 Y26.06 J0.738
G1 X91.476
X101.374
G3 Y27.536 J0.738
G1 X92.024
G2 Y29.013 J0.738
G1 X93.3
X101.374
X101.423 Z-1.292 F100
X101.467 Z-1.27
X101.502 Z-1.235
X101.525 Z-1.19
X101.533 Z-1.141
G0 Z3
X38.726 Y-4.131
G1 Z-0.141 F100
X38.718 Z-0.19
X38.696 Z-0.235
X38.66 Z-0.27
X38.616 Z-0.292
X38.567 Z-0.3
X38.14
X-30.889 F300
X-31.9
G2 Y-2.701 J0.715
G1 X39.151
X39.573
G3 Y-1.271 J0.715
G1 X-32.322
X-32.375
G2 Y0.159 J0.715
G1 X39.626
G3 Y1.589 J0.715
G1 X39.588
X-32.337
G2 Y3.019 J0.715
G1 X-31.95
X39.201
G3 Y4.449 J0.715
G1 X38.252
X-31
X-31.049 Z-0.292 F100
X-31.094 Z-0.27
X-31.129 Z-0.235
X-31.151 Z-0.19
X-31.159 Z-0.141
G0 Z3
X-31.475 Y-4.131
G1 Z-1.141 F100
X-31.467 Z-1.19
X-31.444 Z-1.235
X-31.409 Z-1.27
X-31.365 Z-1.292
X-31.316 Z-1.3
X-30.889
X38.14 F300
X39.151
G3 Y-2.701 J0.715
G1 X-31.9
X-32.322
G2 Y-1.271 J0.715
G1 X39.573
X39.626
G3 Y0.159 J0.715
G1 X-32.375
G2 Y1.589 J0.715
G1 X-32.337
X39.588
G3 Y3.019 J0.715
G1 X39.201
X-31.95
G2 Y4.449 J0.715
G1 X-31
X38.252
X38.301 Z-1.292 F100
X38.345 Z-1.27
X38.38 Z-1.235
X38.403 Z-1.19
X38.41 Z-1.141
G0 Z3
X50.475 Y-29.084
G1 Z-0.141 F100
X50.483 Z-0.19
X50.506 Z-0.235
X50.541 Z-0.27
X50.585 Z-0.292
X50.634 Z-0.3
X51.065
X58.186 F300
X59.191
G3 Y-27.608 J0.738
G1 X50.06
X49.66
G2 Y-26.131 J0.738
G1 X59.591
X59.626
G3 Y-24.654 J0.738
G1 X49.626
G2 Y-23.178 J0.738
G1 X49.692
X59.559
G3 Y-21.701 J0.738
G1 X59.158
X50.093
X48.593
G2 Y-20.224 J0.738
G1 X60.658
X60.707 Z-0.292 F100
X60.751 Z-0.27
X60.787 Z-0.235
X60.809 Z-0.19
X60.817 Z-0.141
G0 Z3
X-92.839 Y-29.084
G1 Z-0.141 F100
X-92.847 Z-0.19
X-92.869 Z-0.235
X-92.904 Z-0.27
X-92.949 Z-0.292
X-92.998 Z-0.3
X-93.392
X-101.374 F300
G2 Y-27.608 J0.738
G1 X-92.064
X-91.492
G3 Y-26.131 J0.738
G1 X-101.374
G2 Y-24.654 J0.738
G1 X-91.356
X-90.995
G3 Y-23.178 J0.738
G1 X-101.374
G2 Y-21.701 J0.738
G1 X-90.057
X-87.569
G3 Y-20.224 J0.738
G1 X-101.374
G2 Y-18.748 J0.738
G1 X98.012
X99.114
G3 Y-17.271 J0.738
G1 X-101.374
G2 Y-15.794 J0.738
G1 X99.569
X99.626
G3 Y-14.318 J0.738
G1 X-101.374
G2 Y-12.841 J0.738
G1 X99.579
G3 Y-11.365 J0.738
G1 X99.151
X-101.374
G2 Y-9.888 J0.738
G1 X98.09
X98.139 Z-0.292 F100
X98.183 Z-0.27
X98.219 Z-0.235
X98.241 Z-0.19
X98.249 Z-0.141
G0 Z3
X94.839 Y-8.411
G1 Z-0.141 F100
X94.831 Z-0.19
X94.808 Z-0.235
X94.773 Z-0.27
X94.729 Z-0.292
X94.68 Z-0.3
X60.886
X48.365 F300
G2 Y-6.935 J0.738
G1 X50.063
X59.189
X59.545
G3 Y-5.458 J0.738
G1 X49.706
X49.626
G2 Y-3.981 J0.738
G1 X59.626
G3 Y-2.505 J0.738
G1 X59.6
X49.651
G2 Y-1.028 J0.738
G1 X50.031
X59.22
G3 Y0.449 J0.738
G1 X58.251
X51
X50.951 Z-0.292 F100
X50.907 Z-0.27
X50.872 Z-0.235
X50.849 Z-0.19
X50.841 Z-0.141
G0 Z3
X-102.406 Y-8.411
G1 Z-0.141 F100
X-102.398 Z-0.19
X-102.376 Z-0.235
X-102.34 Z-0.27
X-102.296 Z-0.292
X-102.247 Z-0.3
X-101.374
X-87.248 F300
X-87.199 Z-0.292 F100
X-87.155 Z-0.27
X-87.12 Z-0.235
X-87.097 Z-0.19
X-87.089 Z-0.141
G0 Z3
X-102.406 Y-6.935
G1 Z-0.141 F100
X-102.398 Z-0.19
X-102.376 Z-0.235
X-102.34 Z-0.27
X-102.296 Z-0.292
X-102.247 Z-0.3
X-101.374
X-89.992 F300
G3 Y-5.458 J0.738
G1 X-90.965
X-101.374
G2 Y-3.981 J0.738
G1 X-91.348
G3 Y-2.505 J0.738
G1 X-91.476
X-101.374
G2 Y-1.028 J0.738
G1 X-92.024
G3 Y0.449 J0.738
G1 X-93.3
X-101.374
X-101.423 Z-0.292 F100
X-101.467 Z-0.27
X-101.502 Z-0.235
X-101.525 Z-0.19
X-101.533 Z-0.141
G0 Z3
X-102.406 Y-29.084
G1 Z-1.141 F100
X-102.398 Z-1.19
X-102.376 Z-1.235
X-102.34 Z-1.27
X-102.296 Z-1.292
X-102.247 Z-1.3
X-101.374
X-93.392 F300
X-92.064
G3 Y-27.608 J0.738
G1 X-101.374
G2 Y-26.131 J0.738
G1 X-91.492
X-91.356
G3 Y-24.654 J0.738
G1 X-101.374
G2 Y-23.178 J0.738
G1 X-90.995
X-90.057
G3 Y-21.701 J0.738
G1 X-101.374
G2 Y-20.224 J0.738
G1 X-87.569
X-87.52 Z-1.292 F100
X-87.476 Z-1.27
X-87.441 Z-1.235
X-87.418 Z-1.19
X-87.411 Z-1.141
G0 Z3
X50.475 Y-29.084
G1 Z-1.141 F100
X50.483 Z-1.19
X50.506 Z-1.235
X50.541 Z-1.27
X50.585 Z-1.292
X50.634 Z-1.3
X51.065
X58.186 F300
X59.191
G3 Y-27.608 J0.738
G1 X50.06
X49.66
G2 Y-26.131 J0.738
G1 X59.591
X59.626
G3 Y-24.654 J0.738
G1 X49.626
G2 Y-23.178 J0.738
G1 X49.692
X59.559
G3 Y-21.701 J0.738
G1 X59.158
X50.093
X48.593
G2 Y-20.224 J0.738
G1 X60.658
X60.707 Z-1.292 F100
X60.751 Z-1.27
X60.787 Z-1.235
X60.809 Z-1.19
X60.817 Z-1.141
G0 Z3
X98.599 Y-18.748
G1 Z-1.141 F100
X98.591 Z-1.19
X98.569 Z-1.235
X98.534 Z-1.27
X98.489 Z-1.292
X98.44 Z-1.3
X98.012
X-101.374 F300
G2 Y-17.271 J0.738
G1 X99.114
X99.569
G3 Y-15.794 J0.738
G1 X-101.374
G2 Y-14.318 J0.738
G1 X99.626
G3 Y-12.841 J0.738
G1 X99.579
X-101.374
G2 Y-11.365 J0.738
G1 X99.151
G3 Y-9.888 J0.738
G1 X98.09
X-101.374
G2 Y-8.411 J0.738
G1 X-87.248
G3 Y-6.935 J0.738
G1 X-89.992
X-101.374
G2 Y-5.458 J0.738
G1 X-90.965
G3 Y-3.981 J0.738
G1 X-91.348
X-101.374
G2 Y-2.505 J0.738
G1 X-91.476
G3 Y-1.028 J0.738
G1 X-92.024
X-101.374
G2 Y0.449 J0.738
G1 X-93.3
X-93.251 Z-1.292 F100
X-93.206 Z-1.27
X-93.171 Z-1.235
X-93.149 Z-1.19
X-93.141 Z-1.141
G0 Z3
X94.839 Y-8.411
G1 Z-1.141 F100
X94.831 Z-1.19
X94.808 Z-1.235
X94.773 Z-1.27
X94.729 Z-1.292
X94.68 Z-1.3
X60.886
X48.365 F300
X48.316 Z-1.292 F100
X48.272 Z-1.27
X48.236 Z-1.235
X48.214 Z-1.19
X48.206 Z-1.141
G0 Z3
X60.042 Y-6.935
G1 Z-1.141 F100
X60.034 Z-1.19
X60.012 Z-1.235
X59.977 Z-1.27
X59.933 Z-1.292
X59.884 Z-1.3
X59.189
X50.063 F300
X49.706
G2 Y-5.458 J0.738
G1 X59.545
X59.626
G3 Y-3.981 J0.738
G1 X49.626
G2 Y-2.505 J0.738
G1 X49.651
X59.6
G3 Y-1.028 J0.738
G1 X59.22
X50.031
G2 Y0.449 J0.738
G1 X51
X58.251
X58.3 Z-1.292 F100
X58.345 Z-1.27
X58.38 Z-1.235
X58.402 Z-1.19
X58.41 Z-1.141
G0 Z6
G28 G91 Z0
G90
G28 G91 X0 Y0
G90
M30
%
