(1001)
(T1  D=1.587 CR=0 - ZMIN=-1.3 - flat end mill)
G90 G94
G17
G21
G28 G91 Z0
G90

(Face6)
M9
S20000 M3
G54
G0 X102.247 Y0.004
Z6
Z3
G1 Z-1.3 F100
X101.374
X92.792 F300
G0 Z3
X102.247 Y1.504
G1 Z-1.3 F100
X101.374
X91.789 F300
G0 Z3
X102.247 Y3.005
G1 Z-1.3 F100
X101.374
X91.4 F300
G0 Z3
X102.247 Y4.505
G1 Z-1.3 F100
X101.374
X91.265 F300
G0 Z3
X102.247 Y6.006
G1 Z-1.3 F100
X101.374
X90.693 F300
G0 Z3
X102.247 Y7.506
G1 Z-1.3 F100
X101.374
X89.344 F300
G0 Z3
X102.247 Y9.007
G1 Z-1.3 F100
X101.374
X-89.126 F300
G0 Z3
X102.247 Y10.507
G1 Z-1.3 F100
X101.374
X-89.126 F300
G0 Z3
X102.247 Y12.008
G1 Z-1.3 F100
X101.374
X-89.126 F300
G0 Z3
X102.247 Y13.508
G1 Z-1.3 F100
X101.374
X-89.126 F300
G0 Z3
X102.247 Y15.009
G1 Z-1.3 F100
X101.374
X-89.126 F300
G0 Z3
X102.247 Y16.509
G1 Z-1.3 F100
X101.374
X-89.126 F300
G0 Z3
X102.247 Y18.01
G1 Z-1.3 F100
X101.374
X-89.126 F300
G0 Z3
X102.247 Y19.51
G1 Z-1.3 F100
X101.374
X-89.126 F300
G0 Z3
X102.247 Y21.011
G1 Z-1.3 F100
X101.374
X89.282 F300
G0 Z3
X102.247 Y22.511
G1 Z-1.3 F100
X101.374
X90.663 F300
G0 Z3
X102.247 Y24.012
G1 Z-1.3 F100
X101.374
X91.255 F300
G0 Z3
X102.247 Y25.512
G1 Z-1.3 F100
X101.374
X91.393 F300
G0 Z3
X102.247 Y27.013
G1 Z-1.3 F100
X101.374
X91.77 F300
G0 Z3
X102.247 Y28.513
G1 Z-1.3 F100
X101.374
X92.749 F300
G0 Z6
G28 G91 Z0
G90
G28 G91 X0 Y0
G90
M30
%
