(1001)
(T1  D=1.587 CR=0 - ZMIN=-6.3 - flat end mill)
G90 G94
G17
G21
G28 G91 Z0
G90

(2D Contour3)
M9
S20000 M3
G54
G0 X-41.012 Y-8.012
Z6
Z4
G1 Z-2.841 F100
Y-8.02 Z-2.89
Y-8.043 Z-2.935
Y-8.078 Z-2.97
Y-8.122 Z-2.992
Y-8.171 Z-3
Y-8.33
X-41.004 Y-8.379
X-40.982 Y-8.423
X-40.946 Y-8.458
X-40.902 Y-8.481
X-40.853 Y-8.488
X47.752 F300
G3 X49.316 Y-6.1 J1.706
G2 X59.936 Y-1.465 I5.31 J2.317
Y-6.1 I-5.31 J-2.317
G3 X61.5 Y-8.488 I1.564 J-0.682
G1 X89.126
X94.626
G2 X100.419 Y-14.282 J-5.794
X94.626 Y-20.076 I-5.794
G1 X61.5
G3 X59.936 Y-22.465 J-1.706
G2 X49.316 Y-27.1 I-5.31 J-2.317
Y-22.465 I5.31 J2.317
G3 X47.752 Y-20.076 I-1.564 J0.682
G1 X-86.36
X-86.362
G3 X-90.581 Y-24.282 I-0.012 J-4.206
G2 X-96.374 Y-30.076 I-5.794
G1 X-101.374
G2 X-102.168 Y-29.282 J0.794
G1 Y0.718
G2 X-101.374 Y1.512 I0.794
G1 X-96.374
G2 X-90.581 Y-4.282 J-5.794
G3 X-86.374 Y-8.488 I4.206
G1 X-40.853
X-40.804 Y-8.481 F100
X-40.76 Y-8.458
X-40.725 Y-8.423
X-40.702 Y-8.379
X-40.694 Y-8.33
Y-8.171
Y-8.122 Z-2.992
Y-8.078 Z-2.97
Y-8.043 Z-2.935
Y-8.02 Z-2.89
Y-8.012 Z-2.841
G0 Z3
X-41.012
G1 Z1 F100
Z-4.358
Y-8.02 Z-4.407
Y-8.043 Z-4.451
Y-8.078 Z-4.486
Y-8.122 Z-4.509
Y-8.171 Z-4.516
Y-8.33
X-41.004 Y-8.379
X-40.982 Y-8.423
X-40.946 Y-8.458
X-40.902 Y-8.481
X-40.853 Y-8.488
X47.752 F300
G3 X49.316 Y-6.1 J1.706
G2 X59.936 Y-1.465 I5.31 J2.317
Y-6.1 I-5.31 J-2.317
G3 X61.5 Y-8.488 I1.564 J-0.682
G1 X89.126
X94.626
G2 X100.419 Y-14.282 J-5.794
X94.626 Y-20.076 I-5.794
G1 X61.5
G3 X59.936 Y-22.465 J-1.706
G2 X49.316 Y-27.1 I-5.31 J-2.317
Y-22.465 I5.31 J2.317
G3 X47.752 Y-20.076 I-1.564 J0.682
G1 X-86.36
X-86.362
G3 X-90.581 Y-24.282 I-0.012 J-4.206
G2 X-96.374 Y-30.076 I-5.794
G1 X-101.374
G2 X-102.168 Y-29.282 J0.794
G1 Y0.718
G2 X-101.374 Y1.512 I0.794
G1 X-96.374
G2 X-90.581 Y-4.282 J-5.794
G3 X-86.374 Y-8.488 I4.206
G1 X-40.853
X-40.804 Y-8.481 F100
X-40.76 Y-8.458
X-40.725 Y-8.423
X-40.702 Y-8.379
X-40.694 Y-8.33
Y-8.171
Y-8.122 Z-4.509
Y-8.078 Z-4.486
Y-8.043 Z-4.451
Y-8.02 Z-4.407
Y-8.012 Z-4.358
G0 Z3
X-41.012
G1 Z-0.516 F100
Z-5.874
Y-8.02 Z-5.923
Y-8.043 Z-5.968
Y-8.078 Z-6.003
Y-8.122 Z-6.025
Y-8.171 Z-6.033
Y-8.33
X-41.004 Y-8.379
X-40.982 Y-8.423
X-40.946 Y-8.458
X-40.902 Y-8.481
X-40.853 Y-8.488
X47.752 F300
G3 X49.316 Y-6.1 J1.706
G2 X59.936 Y-1.465 I5.31 J2.317
Y-6.1 I-5.31 J-2.317
G3 X61.5 Y-8.488 I1.564 J-0.682
G1 X89.126
X94.626
G2 X100.419 Y-14.282 J-5.794
X94.626 Y-20.076 I-5.794
G1 X61.5
G3 X59.936 Y-22.465 J-1.706
G2 X49.316 Y-27.1 I-5.31 J-2.317
Y-22.465 I5.31 J2.317
G3 X47.752 Y-20.076 I-1.564 J0.682
G1 X-86.36
X-86.362
G3 X-90.581 Y-24.282 I-0.012 J-4.206
G2 X-96.374 Y-30.076 I-5.794
G1 X-101.374
G2 X-102.168 Y-29.282 J0.794
G1 Y0.718
G2 X-101.374 Y1.512 I0.794
G1 X-96.374
G2 X-90.581 Y-4.282 J-5.794
G3 X-86.374 Y-8.488 I4.206
G1 X-40.853
X-40.804 Y-8.481 F100
X-40.76 Y-8.458
X-40.725 Y-8.423
X-40.702 Y-8.379
X-40.694 Y-8.33
Y-8.171
Y-8.122 Z-6.025
Y-8.078 Z-6.003
Y-8.043 Z-5.968
Y-8.02 Z-5.923
Y-8.012 Z-5.874
G0 Z4
X-54.432 Y-2.487
G1 Z-2.841 F100
Y-2.479 Z-2.89
Y-2.456 Z-2.935
Y-2.421 Z-2.97
Y-2.377 Z-2.992
X-54.433 Y-2.328 Z-3
X-54.434 Y-2.169
X-54.442 Y-2.12
X-54.464 Y-2.076
X-54.5 Y-2.041
X-54.544 Y-2.019
X-54.593 Y-2.011
G2 X-59.936 Y6.1 I-0.032 J5.794 F300
G3 X-61.5 Y8.488 I-1.564 J0.682
G1 X-89.126
X-94.626
G2 X-100.419 Y14.282 J5.794
X-94.626 Y20.076 I5.794
G1 X-61.5
G3 X-59.936 Y22.465 J1.706
G2 X-49.316 Y27.1 I5.31 J2.317
Y22.465 I-5.31 J-2.317
G3 X-47.752 Y20.076 I1.564 J-0.682
G1 X86.36
X86.362
G3 X90.581 Y24.282 I0.012 J4.206
G2 X96.374 Y30.076 I5.794
G1 X101.374
G2 X102.168 Y29.282 J-0.794
G1 Y-0.718
G2 X101.374 Y-1.512 I-0.794
G1 X96.374
G2 X90.581 Y4.282 J5.794
G3 X86.374 Y8.488 I-4.206
G1 X-47.752
G3 X-49.316 Y6.1 J-1.706
G2 X-54.593 Y-2.011 I-5.31 J-2.317
G1 X-54.642 Y-2.019 F100
X-54.686 Y-2.042
X-54.721 Y-2.078
X-54.744 Y-2.122
X-54.751 Y-2.171
X-54.75 Y-2.33
Y-2.379 Z-2.992
Y-2.423 Z-2.97
X-54.749 Y-2.458 Z-2.935
Y-2.481 Z-2.89
Y-2.489 Z-2.841
G0 Z3
X-54.432 Y-2.487
G1 Z1 F100
Z-4.358
Y-2.479 Z-4.407
Y-2.456 Z-4.451
Y-2.421 Z-4.486
Y-2.377 Z-4.509
X-54.433 Y-2.328 Z-4.516
X-54.434 Y-2.169
X-54.442 Y-2.12
X-54.464 Y-2.076
X-54.5 Y-2.041
X-54.544 Y-2.019
X-54.593 Y-2.011
G2 X-59.936 Y6.1 I-0.032 J5.794 F300
G3 X-61.5 Y8.488 I-1.564 J0.682
G1 X-89.126
X-94.626
G2 X-100.419 Y14.282 J5.794
X-94.626 Y20.076 I5.794
G1 X-61.5
G3 X-59.936 Y22.465 J1.706
G2 X-49.316 Y27.1 I5.31 J2.317
Y22.465 I-5.31 J-2.317
G3 X-47.752 Y20.076 I1.564 J-0.682
G1 X86.36
X86.362
G3 X90.581 Y24.282 I0.012 J4.206
G2 X96.374 Y30.076 I5.794
G1 X101.374
G2 X102.168 Y29.282 J-0.794
G1 Y-0.718
G2 X101.374 Y-1.512 I-0.794
G1 X96.374
G2 X90.581 Y4.282 J5.794
G3 X86.374 Y8.488 I-4.206
G1 X-47.752
G3 X-49.316 Y6.1 J-1.706
G2 X-54.593 Y-2.011 I-5.31 J-2.317
G1 X-54.642 Y-2.019 F100
X-54.686 Y-2.042
X-54.721 Y-2.078
X-54.744 Y-2.122
X-54.751 Y-2.171
X-54.75 Y-2.33
Y-2.379 Z-4.509
Y-2.423 Z-4.486
X-54.749 Y-2.458 Z-4.451
Y-2.481 Z-4.407
Y-2.489 Z-4.358
G0 Z3
X-54.432 Y-2.487
G1 Z-0.516 F100
Z-5.874
Y-2.479 Z-5.923
Y-2.456 Z-5.968
Y-2.421 Z-6.003
Y-2.377 Z-6.025
X-54.433 Y-2.328 Z-6.033
X-54.434 Y-2.169
X-54.442 Y-2.12
X-54.464 Y-2.076
X-54.5 Y-2.041
X-54.544 Y-2.019
X-54.593 Y-2.011
G2 X-59.936 Y6.1 I-0.032 J5.794 F300
G3 X-61.5 Y8.488 I-1.564 J0.682
G1 X-89.126
X-94.626
G2 X-100.419 Y14.282 J5.794
X-94.626 Y20.076 I5.794
G1 X-61.5
G3 X-59.936 Y22.465 J1.706
G2 X-49.316 Y27.1 I5.31 J2.317
Y22.465 I-5.31 J-2.317
G3 X-47.752 Y20.076 I1.564 J-0.682
G1 X86.36
X86.362
G3 X90.581 Y24.282 I0.012 J4.206
G2 X96.374 Y30.076 I5.794
G1 X101.374
G2 X102.168 Y29.282 J-0.794
G1 Y-0.718
G2 X101.374 Y-1.512 I-0.794
G1 X96.374
G2 X90.581 Y4.282 J5.794
G3 X86.374 Y8.488 I-4.206
G1 X-47.752
G3 X-49.316 Y6.1 J-1.706
G2 X-54.593 Y-2.011 I-5.31 J-2.317
G1 X-54.642 Y-2.019 F100
X-54.686 Y-2.042
X-54.721 Y-2.078
X-54.744 Y-2.122
X-54.751 Y-2.171
X-54.75 Y-2.33
Y-2.379 Z-6.025
Y-2.423 Z-6.003
X-54.749 Y-2.458 Z-5.968
Y-2.481 Z-5.923
Y-2.489 Z-5.874
G0 Z6
X34.783 Y-6.052
Z4
G1 Z-2.841 F100
Y-6.044 Z-2.89
Y-6.022 Z-2.935
Y-5.987 Z-2.97
Y-5.942 Z-2.992
Y-5.893 Z-3
Y-5.735
X34.775 Y-5.686
X34.752 Y-5.641
X34.717 Y-5.606
X34.673 Y-5.584
X34.624 Y-5.576
X3.626 F300
X-27.374
G2 X-33.168 Y0.218 J5.794
X-27.374 Y6.012 I5.794
G1 X3.626
X34.626
G2 X40.42 Y0.218 J-5.794
X34.626 Y-5.576 I-5.794
G1 X34.624
X34.575 Y-5.584 F100
X34.53 Y-5.606
X34.495 Y-5.641
X34.473 Y-5.686
X34.465 Y-5.735
Y-5.893
Y-5.942 Z-2.992
Y-5.987 Z-2.97
Y-6.022 Z-2.935
Y-6.044 Z-2.89
Y-6.052 Z-2.841
G0 Z3
X34.783
G1 Z1 F100
Z-4.491
Y-6.044 Z-4.54
Y-6.022 Z-4.585
Y-5.987 Z-4.62
Y-5.942 Z-4.642
Y-5.893 Z-4.65
Y-5.735
X34.775 Y-5.686
X34.752 Y-5.641
X34.717 Y-5.606
X34.673 Y-5.584
X34.624 Y-5.576
X3.626 F300
X-27.374
G2 X-33.168 Y0.218 J5.794
X-27.374 Y6.012 I5.794
G1 X3.626
X34.626
G2 X40.42 Y0.218 J-5.794
X34.626 Y-5.576 I-5.794
G1 X34.624
X34.575 Y-5.584 F100
X34.53 Y-5.606
X34.495 Y-5.641
X34.473 Y-5.686
X34.465 Y-5.735
Y-5.893
Y-5.942 Z-4.642
Y-5.987 Z-4.62
Y-6.022 Z-4.585
Y-6.044 Z-4.54
Y-6.052 Z-4.491
G0 Z3
X34.783
G1 Z-0.65 F100
Z-6.141
Y-6.044 Z-6.19
Y-6.022 Z-6.235
Y-5.987 Z-6.27
Y-5.942 Z-6.292
Y-5.893 Z-6.3
Y-5.735
X34.775 Y-5.686
X34.752 Y-5.641
X34.717 Y-5.606
X34.673 Y-5.584
X34.624 Y-5.576
X3.626 F300
X-27.374
G2 X-33.168 Y0.218 J5.794
X-27.374 Y6.012 I5.794
G1 X3.626
X34.626
G2 X40.42 Y0.218 J-5.794
X34.626 Y-5.576 I-5.794
G1 X34.624
X34.575 Y-5.584 F100
X34.53 Y-5.606
X34.495 Y-5.641
X34.473 Y-5.686
X34.465 Y-5.735
Y-5.893
Y-5.942 Z-6.292
Y-5.987 Z-6.27
Y-6.022 Z-6.235
Y-6.044 Z-6.19
Y-6.052 Z-6.141
G0 Z6
G28 G91 Z0
G90
G28 G91 X0 Y0
G90
M30
%
