(1001)
(T1  D=1.587 CR=0 - ZMIN=-6.3 - flat end mill)
G90 G94
G17
G21
G28 G91 Z0
G90

(2D Contour3)
M9
S20000 M3
G54
G0 X-27.531 Y-6.052
Z6
Z3
G1 Z-1.841 F1000
Y-6.044 Z-1.89
Y-6.022 Z-1.935
Y-5.987 Z-1.97
Y-5.942 Z-1.992
Y-5.893 Z-2
Y-5.735
X-27.523 Y-5.686
X-27.501 Y-5.641
X-27.466 Y-5.606
X-27.422 Y-5.584
X-27.372 Y-5.576
X3.626 F200
X34.626
G3 X40.42 Y0.218 J5.794
X34.626 Y6.012 I-5.794
G1 X3.626
X-27.374
X-27.375
G3 X-33.168 Y0.218 J-5.794
X-27.375 Y-5.576 I5.794
G1 X-27.374
X-27.372
X-27.323 Y-5.584 F1000
X-27.279 Y-5.606
X-27.244 Y-5.641
X-27.221 Y-5.686
X-27.214 Y-5.735
Y-5.893
Y-5.942 Z-1.992
Y-5.987 Z-1.97
Y-6.022 Z-1.935
Y-6.044 Z-1.89
Y-6.052 Z-1.841
G0 Z3
X-27.531
G1 Z1 F1000
Z-3.841
Y-6.044 Z-3.89
Y-6.022 Z-3.935
Y-5.987 Z-3.97
Y-5.942 Z-3.992
Y-5.893 Z-4
Y-5.735
X-27.523 Y-5.686
X-27.501 Y-5.641
X-27.466 Y-5.606
X-27.422 Y-5.584
X-27.372 Y-5.576
X3.626 F200
X34.626
G3 X40.42 Y0.218 J5.794
X34.626 Y6.012 I-5.794
G1 X3.626
X-27.374
X-27.375
G3 X-33.168 Y0.218 J-5.794
X-27.375 Y-5.576 I5.794
G1 X-27.374
X-27.372
X-27.323 Y-5.584 F1000
X-27.279 Y-5.606
X-27.244 Y-5.641
X-27.221 Y-5.686
X-27.214 Y-5.735
Y-5.893
Y-5.942 Z-3.992
Y-5.987 Z-3.97
Y-6.022 Z-3.935
Y-6.044 Z-3.89
Y-6.052 Z-3.841
G0 Z3
X-27.531
G1 Z-1 F1000
Z-4.991
Y-6.044 Z-5.04
Y-6.022 Z-5.085
Y-5.987 Z-5.12
Y-5.942 Z-5.142
Y-5.893 Z-5.15
Y-5.735
X-27.523 Y-5.686
X-27.501 Y-5.641
X-27.466 Y-5.606
X-27.422 Y-5.584
X-27.372 Y-5.576
X3.626 F200
X34.626
G3 X40.42 Y0.218 J5.794
X34.626 Y6.012 I-5.794
G1 X3.626
X-27.374
X-27.375
G3 X-33.168 Y0.218 J-5.794
X-27.375 Y-5.576 I5.794
G1 X-27.374
X-27.372
X-27.323 Y-5.584 F1000
X-27.279 Y-5.606
X-27.244 Y-5.641
X-27.221 Y-5.686
X-27.214 Y-5.735
Y-5.893
Y-5.942 Z-5.142
Y-5.987 Z-5.12
Y-6.022 Z-5.085
Y-6.044 Z-5.04
Y-6.052 Z-4.991
G0 Z3
X-27.531
G1 Z-2.15 F1000
Z-6.141
Y-6.044 Z-6.19
Y-6.022 Z-6.235
Y-5.987 Z-6.27
Y-5.942 Z-6.292
Y-5.893 Z-6.3
Y-5.735
X-27.523 Y-5.686
X-27.501 Y-5.641
X-27.466 Y-5.606
X-27.422 Y-5.584
X-27.372 Y-5.576
X3.626 F200
X34.626
G3 X40.42 Y0.218 J5.794
X34.626 Y6.012 I-5.794
G1 X3.626
X-27.374
X-27.375
G3 X-33.168 Y0.218 J-5.794
X-27.375 Y-5.576 I5.794
G1 X-27.374
X-27.372
X-27.323 Y-5.584 F1000
X-27.279 Y-5.606
X-27.244 Y-5.641
X-27.221 Y-5.686
X-27.214 Y-5.735
Y-5.893
Y-5.942 Z-6.292
Y-5.987 Z-6.27
Y-6.022 Z-6.235
Y-6.044 Z-6.19
Y-6.052 Z-6.141
G0 Z6
G28 G91 Z0
G90
G28 G91 X0 Y0
G90
M30
%
