%
(1001)
(T1  D=1.587 CR=0 - ZMIN=-6.3 - flat end mill)
G90 G94
G17
G21
G28 G91 Z0
G90

(2D Contour3)
M9
T1 M6
S20000 M3
G54
G0 X-56.985 Y-2.029
Z6
Z3
G1 Z2 F1000
Z-0.841
X-56.982 Y-2.022 Z-0.89
X-56.974 Y-2.001 Z-0.935
X-56.962 Y-1.968 Z-0.97
X-56.946 Y-1.927 Z-0.992
X-56.929 Y-1.881 Z-1
X-56.873 Y-1.732
X-56.848 Y-1.689
X-56.812 Y-1.655
X-56.766 Y-1.635
X-56.717 Y-1.629
X-56.668 Y-1.64
G3 X-49.316 Y6.1 I2.043 J5.422 F200
G2 X-47.752 Y8.488 I1.564 J0.682
G1 X86.374
G2 X90.581 Y4.282 J-4.206
G3 X96.374 Y-1.512 I5.794
G1 X101.374
G3 X102.168 Y-0.718 J0.794
G1 Y29.282
G3 X101.374 Y30.076 I-0.794
G1 X96.374
G3 X90.581 Y24.282 J-5.794
G2 X86.362 Y20.076 I-4.206
G1 X86.36
X-47.752
G2 X-49.316 Y22.465 J1.706
G3 X-59.936 Y27.1 I-5.31 J2.317
Y22.465 I5.31 J-2.318
G2 X-61.499 Y20.076 I-1.564 J-0.682
G1 X-61.5
X-94.626
G3 X-100.419 Y14.282 J-5.794
X-94.626 Y8.488 I5.794
G1 X-89.126
X-61.5
X-61.499
G2 X-59.936 Y6.1 J-1.706
G3 X-56.668 Y-1.64 I5.31 J-2.317
G1 X-56.625 Y-1.664 F1000
X-56.592 Y-1.701
X-56.571 Y-1.746
X-56.566 Y-1.795
X-56.576 Y-1.844
X-56.632 Y-1.993
X-56.649 Y-2.039 Z-0.992
X-56.665 Y-2.08 Z-0.97
X-56.677 Y-2.113 Z-0.935
X-56.685 Y-2.134 Z-0.89
X-56.688 Y-2.141 Z-0.841
G0 Z3
X-56.985 Y-2.029
G1 Z1 F1000
Z-1.841
X-56.982 Y-2.022 Z-1.89
X-56.974 Y-2.001 Z-1.935
X-56.962 Y-1.968 Z-1.97
X-56.946 Y-1.927 Z-1.992
X-56.929 Y-1.881 Z-2
X-56.873 Y-1.732
X-56.848 Y-1.689
X-56.812 Y-1.655
X-56.766 Y-1.635
X-56.717 Y-1.629
X-56.668 Y-1.64
G3 X-49.316 Y6.1 I2.043 J5.422 F200
G2 X-47.752 Y8.488 I1.564 J0.682
G1 X86.374
G2 X90.581 Y4.282 J-4.206
G3 X96.374 Y-1.512 I5.794
G1 X101.374
G3 X102.168 Y-0.718 J0.794
G1 Y29.282
G3 X101.374 Y30.076 I-0.794
G1 X96.374
G3 X90.581 Y24.282 J-5.794
G2 X86.362 Y20.076 I-4.206
G1 X86.36
X-47.752
G2 X-49.316 Y22.465 J1.706
G3 X-59.936 Y27.1 I-5.31 J2.317
Y22.465 I5.31 J-2.318
G2 X-61.499 Y20.076 I-1.564 J-0.682
G1 X-61.5
X-94.626
G3 X-100.419 Y14.282 J-5.794
X-94.626 Y8.488 I5.794
G1 X-89.126
X-61.5
X-61.499
G2 X-59.936 Y6.1 J-1.706
G3 X-56.668 Y-1.64 I5.31 J-2.317
G1 X-56.625 Y-1.664 F1000
X-56.592 Y-1.701
X-56.571 Y-1.746
X-56.566 Y-1.795
X-56.576 Y-1.844
X-56.632 Y-1.993
X-56.649 Y-2.039 Z-1.992
X-56.665 Y-2.08 Z-1.97
X-56.677 Y-2.113 Z-1.935
X-56.685 Y-2.134 Z-1.89
X-56.688 Y-2.141 Z-1.841
G0 Z3
X-56.985 Y-2.029
G1 Z0 F1000
Z-2.841
X-56.982 Y-2.022 Z-2.89
X-56.974 Y-2.001 Z-2.935
X-56.962 Y-1.968 Z-2.97
X-56.946 Y-1.927 Z-2.992
X-56.929 Y-1.881 Z-3
X-56.873 Y-1.732
X-56.848 Y-1.689
X-56.812 Y-1.655
X-56.766 Y-1.635
X-56.717 Y-1.629
X-56.668 Y-1.64
G3 X-49.316 Y6.1 I2.043 J5.422 F200
G2 X-47.752 Y8.488 I1.564 J0.682
G1 X86.374
G2 X90.581 Y4.282 J-4.206
G3 X96.374 Y-1.512 I5.794
G1 X101.374
G3 X102.168 Y-0.718 J0.794
G1 Y29.282
G3 X101.374 Y30.076 I-0.794
G1 X96.374
G3 X90.581 Y24.282 J-5.794
G2 X86.362 Y20.076 I-4.206
G1 X86.36
X-47.752
G2 X-49.316 Y22.465 J1.706
G3 X-59.936 Y27.1 I-5.31 J2.317
Y22.465 I5.31 J-2.318
G2 X-61.499 Y20.076 I-1.564 J-0.682
G1 X-61.5
X-94.626
G3 X-100.419 Y14.282 J-5.794
X-94.626 Y8.488 I5.794
G1 X-89.126
X-61.5
X-61.499
G2 X-59.936 Y6.1 J-1.706
G3 X-56.668 Y-1.64 I5.31 J-2.317
G1 X-56.625 Y-1.664 F1000
X-56.592 Y-1.701
X-56.571 Y-1.746
X-56.566 Y-1.795
X-56.576 Y-1.844
X-56.632 Y-1.993
X-56.649 Y-2.039 Z-2.992
X-56.665 Y-2.08 Z-2.97
X-56.677 Y-2.113 Z-2.935
X-56.685 Y-2.134 Z-2.89
X-56.688 Y-2.141 Z-2.841
G0 Z3
X-56.985 Y-2.029
G1 Z-1 F1000
Z-3.841
X-56.982 Y-2.022 Z-3.89
X-56.974 Y-2.001 Z-3.935
X-56.962 Y-1.968 Z-3.97
X-56.946 Y-1.927 Z-3.992
X-56.929 Y-1.881 Z-4
X-56.873 Y-1.732
X-56.848 Y-1.689
X-56.812 Y-1.655
X-56.766 Y-1.635
X-56.717 Y-1.629
X-56.668 Y-1.64
G3 X-49.316 Y6.1 I2.043 J5.422 F200
G2 X-47.752 Y8.488 I1.564 J0.682
G1 X86.374
G2 X90.581 Y4.282 J-4.206
G3 X96.374 Y-1.512 I5.794
G1 X101.374
G3 X102.168 Y-0.718 J0.794
G1 Y29.282
G3 X101.374 Y30.076 I-0.794
G1 X96.374
G3 X90.581 Y24.282 J-5.794
G2 X86.362 Y20.076 I-4.206
G1 X86.36
X-47.752
G2 X-49.316 Y22.465 J1.706
G3 X-59.936 Y27.1 I-5.31 J2.317
Y22.465 I5.31 J-2.318
G2 X-61.499 Y20.076 I-1.564 J-0.682
G1 X-61.5
X-94.626
G3 X-100.419 Y14.282 J-5.794
X-94.626 Y8.488 I5.794
G1 X-89.126
X-61.5
X-61.499
G2 X-59.936 Y6.1 J-1.706
G3 X-56.668 Y-1.64 I5.31 J-2.317
G1 X-56.625 Y-1.664 F1000
X-56.592 Y-1.701
X-56.571 Y-1.746
X-56.566 Y-1.795
X-56.576 Y-1.844
X-56.632 Y-1.993
X-56.649 Y-2.039 Z-3.992
X-56.665 Y-2.08 Z-3.97
X-56.677 Y-2.113 Z-3.935
X-56.685 Y-2.134 Z-3.89
X-56.688 Y-2.141 Z-3.841
G0 Z3
X-56.985 Y-2.029
G1 Z-2 F1000
Z-4.841
X-56.982 Y-2.022 Z-4.89
X-56.974 Y-2.001 Z-4.935
X-56.962 Y-1.968 Z-4.97
X-56.946 Y-1.927 Z-4.992
X-56.929 Y-1.881 Z-5
X-56.873 Y-1.732
X-56.848 Y-1.689
X-56.812 Y-1.655
X-56.766 Y-1.635
X-56.717 Y-1.629
X-56.668 Y-1.64
G3 X-49.316 Y6.1 I2.043 J5.422 F200
G2 X-47.752 Y8.488 I1.564 J0.682
G1 X86.374
G2 X90.581 Y4.282 J-4.206
G3 X96.374 Y-1.512 I5.794
G1 X101.374
G3 X102.168 Y-0.718 J0.794
G1 Y29.282
G3 X101.374 Y30.076 I-0.794
G1 X96.374
G3 X90.581 Y24.282 J-5.794
G2 X86.362 Y20.076 I-4.206
G1 X86.36
X-47.752
G2 X-49.316 Y22.465 J1.706
G3 X-59.936 Y27.1 I-5.31 J2.317
Y22.465 I5.31 J-2.318
G2 X-61.499 Y20.076 I-1.564 J-0.682
G1 X-61.5
X-94.626
G3 X-100.419 Y14.282 J-5.794
X-94.626 Y8.488 I5.794
G1 X-89.126
X-61.5
X-61.499
G2 X-59.936 Y6.1 J-1.706
G3 X-56.668 Y-1.64 I5.31 J-2.317
G1 X-56.625 Y-1.664 F1000
X-56.592 Y-1.701
X-56.571 Y-1.746
X-56.566 Y-1.795
X-56.576 Y-1.844
X-56.632 Y-1.993
X-56.649 Y-2.039 Z-4.992
X-56.665 Y-2.08 Z-4.97
X-56.677 Y-2.113 Z-4.935
X-56.685 Y-2.134 Z-4.89
X-56.688 Y-2.141 Z-4.841
G0 Z3
X-56.985 Y-2.029
G1 Z-3 F1000
Z-5.358
X-56.982 Y-2.022 Z-5.407
X-56.974 Y-2.001 Z-5.451
X-56.962 Y-1.968 Z-5.486
X-56.946 Y-1.927 Z-5.509
X-56.929 Y-1.881 Z-5.516
X-56.873 Y-1.732
X-56.848 Y-1.689
X-56.812 Y-1.655
X-56.766 Y-1.635
X-56.717 Y-1.629
X-56.668 Y-1.64
G3 X-49.316 Y6.1 I2.043 J5.422 F200
G2 X-47.752 Y8.488 I1.564 J0.682
G1 X86.374
G2 X90.581 Y4.282 J-4.206
G3 X96.374 Y-1.512 I5.794
G1 X101.374
G3 X102.168 Y-0.718 J0.794
G1 Y29.282
G3 X101.374 Y30.076 I-0.794
G1 X96.374
G3 X90.581 Y24.282 J-5.794
G2 X86.362 Y20.076 I-4.206
G1 X86.36
X-47.752
G2 X-49.316 Y22.465 J1.706
G3 X-59.936 Y27.1 I-5.31 J2.317
Y22.465 I5.31 J-2.318
G2 X-61.499 Y20.076 I-1.564 J-0.682
G1 X-61.5
X-94.626
G3 X-100.419 Y14.282 J-5.794
X-94.626 Y8.488 I5.794
G1 X-89.126
X-61.5
X-61.499
G2 X-59.936 Y6.1 J-1.706
G3 X-56.668 Y-1.64 I5.31 J-2.317
G1 X-56.625 Y-1.664 F1000
X-56.592 Y-1.701
X-56.571 Y-1.746
X-56.566 Y-1.795
X-56.576 Y-1.844
X-56.632 Y-1.993
X-56.649 Y-2.039 Z-5.509
X-56.665 Y-2.08 Z-5.486
X-56.677 Y-2.113 Z-5.451
X-56.685 Y-2.134 Z-5.407
X-56.688 Y-2.141 Z-5.358
G0 Z3
X-56.985 Y-2.029
G1 Z-3.516 F1000
Z-5.874
X-56.982 Y-2.022 Z-5.923
X-56.974 Y-2.001 Z-5.968
X-56.962 Y-1.968 Z-6.003
X-56.946 Y-1.927 Z-6.025
X-56.929 Y-1.881 Z-6.033
X-56.873 Y-1.732
X-56.848 Y-1.689
X-56.812 Y-1.655
X-56.766 Y-1.635
X-56.717 Y-1.629
X-56.668 Y-1.64
G3 X-49.316 Y6.1 I2.043 J5.422 F200
G2 X-47.752 Y8.488 I1.564 J0.682
G1 X86.374
G2 X90.581 Y4.282 J-4.206
G3 X96.374 Y-1.512 I5.794
G1 X101.374
G3 X102.168 Y-0.718 J0.794
G1 Y29.282
G3 X101.374 Y30.076 I-0.794
G1 X96.374
G3 X90.581 Y24.282 J-5.794
G2 X86.362 Y20.076 I-4.206
G1 X86.36
X-47.752
G2 X-49.316 Y22.465 J1.706
G3 X-59.936 Y27.1 I-5.31 J2.317
Y22.465 I5.31 J-2.318
G2 X-61.499 Y20.076 I-1.564 J-0.682
G1 X-61.5
X-94.626
G3 X-100.419 Y14.282 J-5.794
X-94.626 Y8.488 I5.794
G1 X-89.126
X-61.5
X-61.499
G2 X-59.936 Y6.1 J-1.706
G3 X-56.668 Y-1.64 I5.31 J-2.317
G1 X-56.625 Y-1.664 F1000
X-56.592 Y-1.701
X-56.571 Y-1.746
X-56.566 Y-1.795
X-56.576 Y-1.844
X-56.632 Y-1.993
X-56.649 Y-2.039 Z-6.025
X-56.665 Y-2.08 Z-6.003
X-56.677 Y-2.113 Z-5.968
X-56.685 Y-2.134 Z-5.923
X-56.688 Y-2.141 Z-5.874
G0 Z6
X-27.531 Y-6.052
Z3
G1 Z2 F1000
Z-0.841
Y-6.044 Z-0.89
Y-6.022 Z-0.935
Y-5.987 Z-0.97
Y-5.942 Z-0.992
Y-5.893 Z-1
Y-5.735
X-27.523 Y-5.686
X-27.501 Y-5.641
X-27.466 Y-5.606
X-27.422 Y-5.584
X-27.372 Y-5.576
X3.626 F200
X34.626
G3 X40.42 Y0.218 J5.794
X34.626 Y6.012 I-5.794
G1 X3.626
X-27.374
X-27.375
G3 X-33.168 Y0.218 J-5.794
X-27.375 Y-5.576 I5.794
G1 X-27.374
X-27.372
X-27.323 Y-5.584 F1000
X-27.279 Y-5.606
X-27.244 Y-5.641
X-27.221 Y-5.686
X-27.214 Y-5.735
Y-5.893
Y-5.942 Z-0.992
Y-5.987 Z-0.97
Y-6.022 Z-0.935
Y-6.044 Z-0.89
Y-6.052 Z-0.841
G0 Z3
X-27.531
G1 Z1 F1000
Z-1.841
Y-6.044 Z-1.89
Y-6.022 Z-1.935
Y-5.987 Z-1.97
Y-5.942 Z-1.992
Y-5.893 Z-2
Y-5.735
X-27.523 Y-5.686
X-27.501 Y-5.641
X-27.466 Y-5.606
X-27.422 Y-5.584
X-27.372 Y-5.576
X3.626 F200
X34.626
G3 X40.42 Y0.218 J5.794
X34.626 Y6.012 I-5.794
G1 X3.626
X-27.374
X-27.375
G3 X-33.168 Y0.218 J-5.794
X-27.375 Y-5.576 I5.794
G1 X-27.374
X-27.372
X-27.323 Y-5.584 F1000
X-27.279 Y-5.606
X-27.244 Y-5.641
X-27.221 Y-5.686
X-27.214 Y-5.735
Y-5.893
Y-5.942 Z-1.992
Y-5.987 Z-1.97
Y-6.022 Z-1.935
Y-6.044 Z-1.89
Y-6.052 Z-1.841
G0 Z3
X-27.531
G1 Z0 F1000
Z-2.841
Y-6.044 Z-2.89
Y-6.022 Z-2.935
Y-5.987 Z-2.97
Y-5.942 Z-2.992
Y-5.893 Z-3
Y-5.735
X-27.523 Y-5.686
X-27.501 Y-5.641
X-27.466 Y-5.606
X-27.422 Y-5.584
X-27.372 Y-5.576
X3.626 F200
X34.626
G3 X40.42 Y0.218 J5.794
X34.626 Y6.012 I-5.794
G1 X3.626
X-27.374
X-27.375
G3 X-33.168 Y0.218 J-5.794
X-27.375 Y-5.576 I5.794
G1 X-27.374
X-27.372
X-27.323 Y-5.584 F1000
X-27.279 Y-5.606
X-27.244 Y-5.641
X-27.221 Y-5.686
X-27.214 Y-5.735
Y-5.893
Y-5.942 Z-2.992
Y-5.987 Z-2.97
Y-6.022 Z-2.935
Y-6.044 Z-2.89
Y-6.052 Z-2.841
G0 Z3
X-27.531
G1 Z-1 F1000
Z-3.841
Y-6.044 Z-3.89
Y-6.022 Z-3.935
Y-5.987 Z-3.97
Y-5.942 Z-3.992
Y-5.893 Z-4
Y-5.735
X-27.523 Y-5.686
X-27.501 Y-5.641
X-27.466 Y-5.606
X-27.422 Y-5.584
X-27.372 Y-5.576
X3.626 F200
X34.626
G3 X40.42 Y0.218 J5.794
X34.626 Y6.012 I-5.794
G1 X3.626
X-27.374
X-27.375
G3 X-33.168 Y0.218 J-5.794
X-27.375 Y-5.576 I5.794
G1 X-27.374
X-27.372
X-27.323 Y-5.584 F1000
X-27.279 Y-5.606
X-27.244 Y-5.641
X-27.221 Y-5.686
X-27.214 Y-5.735
Y-5.893
Y-5.942 Z-3.992
Y-5.987 Z-3.97
Y-6.022 Z-3.935
Y-6.044 Z-3.89
Y-6.052 Z-3.841
G0 Z3
X-27.531
G1 Z-2 F1000
Z-4.841
Y-6.044 Z-4.89
Y-6.022 Z-4.935
Y-5.987 Z-4.97
Y-5.942 Z-4.992
Y-5.893 Z-5
Y-5.735
X-27.523 Y-5.686
X-27.501 Y-5.641
X-27.466 Y-5.606
X-27.422 Y-5.584
X-27.372 Y-5.576
X3.626 F200
X34.626
G3 X40.42 Y0.218 J5.794
X34.626 Y6.012 I-5.794
G1 X3.626
X-27.374
X-27.375
G3 X-33.168 Y0.218 J-5.794
X-27.375 Y-5.576 I5.794
G1 X-27.374
X-27.372
X-27.323 Y-5.584 F1000
X-27.279 Y-5.606
X-27.244 Y-5.641
X-27.221 Y-5.686
X-27.214 Y-5.735
Y-5.893
Y-5.942 Z-4.992
Y-5.987 Z-4.97
Y-6.022 Z-4.935
Y-6.044 Z-4.89
Y-6.052 Z-4.841
G0 Z3
X-27.531
G1 Z-3 F1000
Z-5.841
Y-6.044 Z-5.89
Y-6.022 Z-5.935
Y-5.987 Z-5.97
Y-5.942 Z-5.992
Y-5.893 Z-6
Y-5.735
X-27.523 Y-5.686
X-27.501 Y-5.641
X-27.466 Y-5.606
X-27.422 Y-5.584
X-27.372 Y-5.576
X3.626 F200
X34.626
G3 X40.42 Y0.218 J5.794
X34.626 Y6.012 I-5.794
G1 X3.626
X-27.374
X-27.375
G3 X-33.168 Y0.218 J-5.794
X-27.375 Y-5.576 I5.794
G1 X-27.374
X-27.372
X-27.323 Y-5.584 F1000
X-27.279 Y-5.606
X-27.244 Y-5.641
X-27.221 Y-5.686
X-27.214 Y-5.735
Y-5.893
Y-5.942 Z-5.992
Y-5.987 Z-5.97
Y-6.022 Z-5.935
Y-6.044 Z-5.89
Y-6.052 Z-5.841
G0 Z3
X-27.531
G1 Z-4 F1000
Z-6.141
Y-6.044 Z-6.19
Y-6.022 Z-6.235
Y-5.987 Z-6.27
Y-5.942 Z-6.292
Y-5.893 Z-6.3
Y-5.735
X-27.523 Y-5.686
X-27.501 Y-5.641
X-27.466 Y-5.606
X-27.422 Y-5.584
X-27.372 Y-5.576
X3.626 F200
X34.626
G3 X40.42 Y0.218 J5.794
X34.626 Y6.012 I-5.794
G1 X3.626
X-27.374
X-27.375
G3 X-33.168 Y0.218 J-5.794
X-27.375 Y-5.576 I5.794
G1 X-27.374
X-27.372
X-27.323 Y-5.584 F1000
X-27.279 Y-5.606
X-27.244 Y-5.641
X-27.221 Y-5.686
X-27.214 Y-5.735
Y-5.893
Y-5.942 Z-6.292
Y-5.987 Z-6.27
Y-6.022 Z-6.235
Y-6.044 Z-6.19
Y-6.052 Z-6.141
G0 Z6
G28 G91 Z0
G90
G28 G91 X0 Y0
G90
M30
%
