(1001)
(T1  D=1.587 CR=0 - ZMIN=-6.3 - flat end mill)
G90 G94
G17
G21
G28 G91 Z0
G90

(2D Contour3)
M9
S20000 M3
G54
G0 X56.985 Y2.029
Z6
Z3
G1 Z2 F1000
Z-0.841
X56.982 Y2.022 Z-0.89
X56.974 Y2.001 Z-0.935
X56.962 Y1.968 Z-0.97
X56.946 Y1.927 Z-0.992
X56.929 Y1.881 Z-1
X56.873 Y1.732
X56.848 Y1.689
X56.812 Y1.655
X56.766 Y1.635
X56.717 Y1.629
X56.668 Y1.64
G3 X49.316 Y-6.1 I-2.043 J-5.422 F200
G2 X47.752 Y-8.488 I-1.564 J-0.682
G1 X-86.374
G2 X-90.581 Y-4.282 J4.206
G3 X-96.374 Y1.512 I-5.794
G1 X-101.374
G3 X-102.168 Y0.718 J-0.794
G1 Y-29.282
G3 X-101.374 Y-30.076 I0.794
G1 X-96.374
G3 X-90.581 Y-24.282 J5.794
G2 X-86.362 Y-20.076 I4.206
G1 X-86.36
X47.752
G2 X49.316 Y-22.465 J-1.706
G3 X59.936 Y-27.1 I5.31 J-2.317
Y-22.465 I-5.31 J2.318
G2 X61.499 Y-20.076 I1.564 J0.682
G1 X61.5
X94.626
G3 X100.419 Y-14.282 J5.794
X94.626 Y-8.488 I-5.794
G1 X89.126
X61.5
X61.499
G2 X59.936 Y-6.1 J1.706
G3 X56.668 Y1.64 I-5.31 J2.317
G1 X56.625 Y1.664 F1000
X56.592 Y1.701
X56.571 Y1.746
X56.566 Y1.795
X56.576 Y1.844
X56.632 Y1.993
X56.649 Y2.039 Z-0.992
X56.665 Y2.08 Z-0.97
X56.677 Y2.113 Z-0.935
X56.685 Y2.134 Z-0.89
X56.688 Y2.141 Z-0.841
G0 Z3
X56.985 Y2.029
G1 Z1 F1000
Z-1.841
X56.982 Y2.022 Z-1.89
X56.974 Y2.001 Z-1.935
X56.962 Y1.968 Z-1.97
X56.946 Y1.927 Z-1.992
X56.929 Y1.881 Z-2
X56.873 Y1.732
X56.848 Y1.689
X56.812 Y1.655
X56.766 Y1.635
X56.717 Y1.629
X56.668 Y1.64
G3 X49.316 Y-6.1 I-2.043 J-5.422 F200
G2 X47.752 Y-8.488 I-1.564 J-0.682
G1 X-86.374
G2 X-90.581 Y-4.282 J4.206
G3 X-96.374 Y1.512 I-5.794
G1 X-101.374
G3 X-102.168 Y0.718 J-0.794
G1 Y-29.282
G3 X-101.374 Y-30.076 I0.794
G1 X-96.374
G3 X-90.581 Y-24.282 J5.794
G2 X-86.362 Y-20.076 I4.206
G1 X-86.36
X47.752
G2 X49.316 Y-22.465 J-1.706
G3 X59.936 Y-27.1 I5.31 J-2.317
Y-22.465 I-5.31 J2.318
G2 X61.499 Y-20.076 I1.564 J0.682
G1 X61.5
X94.626
G3 X100.419 Y-14.282 J5.794
X94.626 Y-8.488 I-5.794
G1 X89.126
X61.5
X61.499
G2 X59.936 Y-6.1 J1.706
G3 X56.668 Y1.64 I-5.31 J2.317
G1 X56.625 Y1.664 F1000
X56.592 Y1.701
X56.571 Y1.746
X56.566 Y1.795
X56.576 Y1.844
X56.632 Y1.993
X56.649 Y2.039 Z-1.992
X56.665 Y2.08 Z-1.97
X56.677 Y2.113 Z-1.935
X56.685 Y2.134 Z-1.89
X56.688 Y2.141 Z-1.841
G0 Z3
X56.985 Y2.029
G1 Z0 F1000
Z-2.841
X56.982 Y2.022 Z-2.89
X56.974 Y2.001 Z-2.935
X56.962 Y1.968 Z-2.97
X56.946 Y1.927 Z-2.992
X56.929 Y1.881 Z-3
X56.873 Y1.732
X56.848 Y1.689
X56.812 Y1.655
X56.766 Y1.635
X56.717 Y1.629
X56.668 Y1.64
G3 X49.316 Y-6.1 I-2.043 J-5.422 F200
G2 X47.752 Y-8.488 I-1.564 J-0.682
G1 X-86.374
G2 X-90.581 Y-4.282 J4.206
G3 X-96.374 Y1.512 I-5.794
G1 X-101.374
G3 X-102.168 Y0.718 J-0.794
G1 Y-29.282
G3 X-101.374 Y-30.076 I0.794
G1 X-96.374
G3 X-90.581 Y-24.282 J5.794
G2 X-86.362 Y-20.076 I4.206
G1 X-86.36
X47.752
G2 X49.316 Y-22.465 J-1.706
G3 X59.936 Y-27.1 I5.31 J-2.317
Y-22.465 I-5.31 J2.318
G2 X61.499 Y-20.076 I1.564 J0.682
G1 X61.5
X94.626
G3 X100.419 Y-14.282 J5.794
X94.626 Y-8.488 I-5.794
G1 X89.126
X61.5
X61.499
G2 X59.936 Y-6.1 J1.706
G3 X56.668 Y1.64 I-5.31 J2.317
G1 X56.625 Y1.664 F1000
X56.592 Y1.701
X56.571 Y1.746
X56.566 Y1.795
X56.576 Y1.844
X56.632 Y1.993
X56.649 Y2.039 Z-2.992
X56.665 Y2.08 Z-2.97
X56.677 Y2.113 Z-2.935
X56.685 Y2.134 Z-2.89
X56.688 Y2.141 Z-2.841
G0 Z3
X56.985 Y2.029
G1 Z-1 F1000
Z-3.841
X56.982 Y2.022 Z-3.89
X56.974 Y2.001 Z-3.935
X56.962 Y1.968 Z-3.97
X56.946 Y1.927 Z-3.992
X56.929 Y1.881 Z-4
X56.873 Y1.732
X56.848 Y1.689
X56.812 Y1.655
X56.766 Y1.635
X56.717 Y1.629
X56.668 Y1.64
G3 X49.316 Y-6.1 I-2.043 J-5.422 F200
G2 X47.752 Y-8.488 I-1.564 J-0.682
G1 X-86.374
G2 X-90.581 Y-4.282 J4.206
G3 X-96.374 Y1.512 I-5.794
G1 X-101.374
G3 X-102.168 Y0.718 J-0.794
G1 Y-29.282
G3 X-101.374 Y-30.076 I0.794
G1 X-96.374
G3 X-90.581 Y-24.282 J5.794
G2 X-86.362 Y-20.076 I4.206
G1 X-86.36
X47.752
G2 X49.316 Y-22.465 J-1.706
G3 X59.936 Y-27.1 I5.31 J-2.317
Y-22.465 I-5.31 J2.318
G2 X61.499 Y-20.076 I1.564 J0.682
G1 X61.5
X94.626
G3 X100.419 Y-14.282 J5.794
X94.626 Y-8.488 I-5.794
G1 X89.126
X61.5
X61.499
G2 X59.936 Y-6.1 J1.706
G3 X56.668 Y1.64 I-5.31 J2.317
G1 X56.625 Y1.664 F1000
X56.592 Y1.701
X56.571 Y1.746
X56.566 Y1.795
X56.576 Y1.844
X56.632 Y1.993
X56.649 Y2.039 Z-3.992
X56.665 Y2.08 Z-3.97
X56.677 Y2.113 Z-3.935
X56.685 Y2.134 Z-3.89
X56.688 Y2.141 Z-3.841
G0 Z3
X56.985 Y2.029
G1 Z-2 F1000
Z-4.841
X56.982 Y2.022 Z-4.89
X56.974 Y2.001 Z-4.935
X56.962 Y1.968 Z-4.97
X56.946 Y1.927 Z-4.992
X56.929 Y1.881 Z-5
X56.873 Y1.732
X56.848 Y1.689
X56.812 Y1.655
X56.766 Y1.635
X56.717 Y1.629
X56.668 Y1.64
G3 X49.316 Y-6.1 I-2.043 J-5.422 F200
G2 X47.752 Y-8.488 I-1.564 J-0.682
G1 X-86.374
G2 X-90.581 Y-4.282 J4.206
G3 X-96.374 Y1.512 I-5.794
G1 X-101.374
G3 X-102.168 Y0.718 J-0.794
G1 Y-29.282
G3 X-101.374 Y-30.076 I0.794
G1 X-96.374
G3 X-90.581 Y-24.282 J5.794
G2 X-86.362 Y-20.076 I4.206
G1 X-86.36
X47.752
G2 X49.316 Y-22.465 J-1.706
G3 X59.936 Y-27.1 I5.31 J-2.317
Y-22.465 I-5.31 J2.318
G2 X61.499 Y-20.076 I1.564 J0.682
G1 X61.5
X94.626
G3 X100.419 Y-14.282 J5.794
X94.626 Y-8.488 I-5.794
G1 X89.126
X61.5
X61.499
G2 X59.936 Y-6.1 J1.706
G3 X56.668 Y1.64 I-5.31 J2.317
G1 X56.625 Y1.664 F1000
X56.592 Y1.701
X56.571 Y1.746
X56.566 Y1.795
X56.576 Y1.844
X56.632 Y1.993
X56.649 Y2.039 Z-4.992
X56.665 Y2.08 Z-4.97
X56.677 Y2.113 Z-4.935
X56.685 Y2.134 Z-4.89
X56.688 Y2.141 Z-4.841
G0 Z3
X56.985 Y2.029
G1 Z-3 F1000
Z-5.358
X56.982 Y2.022 Z-5.407
X56.974 Y2.001 Z-5.451
X56.962 Y1.968 Z-5.486
X56.946 Y1.927 Z-5.509
X56.929 Y1.881 Z-5.516
X56.873 Y1.732
X56.848 Y1.689
X56.812 Y1.655
X56.766 Y1.635
X56.717 Y1.629
X56.668 Y1.64
G3 X49.316 Y-6.1 I-2.043 J-5.422 F200
G2 X47.752 Y-8.488 I-1.564 J-0.682
G1 X-86.374
G2 X-90.581 Y-4.282 J4.206
G3 X-96.374 Y1.512 I-5.794
G1 X-101.374
G3 X-102.168 Y0.718 J-0.794
G1 Y-29.282
G3 X-101.374 Y-30.076 I0.794
G1 X-96.374
G3 X-90.581 Y-24.282 J5.794
G2 X-86.362 Y-20.076 I4.206
G1 X-86.36
X47.752
G2 X49.316 Y-22.465 J-1.706
G3 X59.936 Y-27.1 I5.31 J-2.317
Y-22.465 I-5.31 J2.318
G2 X61.499 Y-20.076 I1.564 J0.682
G1 X61.5
X94.626
G3 X100.419 Y-14.282 J5.794
X94.626 Y-8.488 I-5.794
G1 X89.126
X61.5
X61.499
G2 X59.936 Y-6.1 J1.706
G3 X56.668 Y1.64 I-5.31 J2.317
G1 X56.625 Y1.664 F1000
X56.592 Y1.701
X56.571 Y1.746
X56.566 Y1.795
X56.576 Y1.844
X56.632 Y1.993
X56.649 Y2.039 Z-5.509
X56.665 Y2.08 Z-5.486
X56.677 Y2.113 Z-5.451
X56.685 Y2.134 Z-5.407
X56.688 Y2.141 Z-5.358
G0 Z3
X56.985 Y2.029
G1 Z-3.516 F1000
Z-5.874
X56.982 Y2.022 Z-5.923
X56.974 Y2.001 Z-5.968
X56.962 Y1.968 Z-6.003
X56.946 Y1.927 Z-6.025
X56.929 Y1.881 Z-6.033
X56.873 Y1.732
X56.848 Y1.689
X56.812 Y1.655
X56.766 Y1.635
X56.717 Y1.629
X56.668 Y1.64
G3 X49.316 Y-6.1 I-2.043 J-5.422 F200
G2 X47.752 Y-8.488 I-1.564 J-0.682
G1 X-86.374
G2 X-90.581 Y-4.282 J4.206
G3 X-96.374 Y1.512 I-5.794
G1 X-101.374
G3 X-102.168 Y0.718 J-0.794
G1 Y-29.282
G3 X-101.374 Y-30.076 I0.794
G1 X-96.374
G3 X-90.581 Y-24.282 J5.794
G2 X-86.362 Y-20.076 I4.206
G1 X-86.36
X47.752
G2 X49.316 Y-22.465 J-1.706
G3 X59.936 Y-27.1 I5.31 J-2.317
Y-22.465 I-5.31 J2.318
G2 X61.499 Y-20.076 I1.564 J0.682
G1 X61.5
X94.626
G3 X100.419 Y-14.282 J5.794
X94.626 Y-8.488 I-5.794
G1 X89.126
X61.5
X61.499
G2 X59.936 Y-6.1 J1.706
G3 X56.668 Y1.64 I-5.31 J2.317
G1 X56.625 Y1.664 F1000
X56.592 Y1.701
X56.571 Y1.746
X56.566 Y1.795
X56.576 Y1.844
X56.632 Y1.993
X56.649 Y2.039 Z-6.025
X56.665 Y2.08 Z-6.003
X56.677 Y2.113 Z-5.968
X56.685 Y2.134 Z-5.923
X56.688 Y2.141 Z-5.874
G0 Z6
X-27.531 Y-6.052
Z3
G1 Z2 F1000
Z-0.841
Y-6.044 Z-0.89
Y-6.022 Z-0.935
Y-5.987 Z-0.97
Y-5.942 Z-0.992
Y-5.893 Z-1
Y-5.735
X-27.523 Y-5.686
X-27.501 Y-5.641
X-27.466 Y-5.606
X-27.422 Y-5.584
X-27.372 Y-5.576
X3.626 F200
X34.626
G3 X40.42 Y0.218 J5.794
X34.626 Y6.012 I-5.794
G1 X3.626
X-27.374
X-27.375
G3 X-33.168 Y0.218 J-5.794
X-27.375 Y-5.576 I5.794
G1 X-27.374
X-27.372
X-27.323 Y-5.584 F1000
X-27.279 Y-5.606
X-27.244 Y-5.641
X-27.221 Y-5.686
X-27.214 Y-5.735
Y-5.893
Y-5.942 Z-0.992
Y-5.987 Z-0.97
Y-6.022 Z-0.935
Y-6.044 Z-0.89
Y-6.052 Z-0.841
G0 Z3
X-27.531
G1 Z1 F1000
Z-1.841
Y-6.044 Z-1.89
Y-6.022 Z-1.935
Y-5.987 Z-1.97
Y-5.942 Z-1.992
Y-5.893 Z-2
Y-5.735
X-27.523 Y-5.686
X-27.501 Y-5.641
X-27.466 Y-5.606
X-27.422 Y-5.584
X-27.372 Y-5.576
X3.626 F200
X34.626
G3 X40.42 Y0.218 J5.794
X34.626 Y6.012 I-5.794
G1 X3.626
X-27.374
X-27.375
G3 X-33.168 Y0.218 J-5.794
X-27.375 Y-5.576 I5.794
G1 X-27.374
X-27.372
X-27.323 Y-5.584 F1000
X-27.279 Y-5.606
X-27.244 Y-5.641
X-27.221 Y-5.686
X-27.214 Y-5.735
Y-5.893
Y-5.942 Z-1.992
Y-5.987 Z-1.97
Y-6.022 Z-1.935
Y-6.044 Z-1.89
Y-6.052 Z-1.841
G0 Z3
X-27.531
G1 Z0 F1000
Z-2.841
Y-6.044 Z-2.89
Y-6.022 Z-2.935
Y-5.987 Z-2.97
Y-5.942 Z-2.992
Y-5.893 Z-3
Y-5.735
X-27.523 Y-5.686
X-27.501 Y-5.641
X-27.466 Y-5.606
X-27.422 Y-5.584
X-27.372 Y-5.576
X3.626 F200
X34.626
G3 X40.42 Y0.218 J5.794
X34.626 Y6.012 I-5.794
G1 X3.626
X-27.374
X-27.375
G3 X-33.168 Y0.218 J-5.794
X-27.375 Y-5.576 I5.794
G1 X-27.374
X-27.372
X-27.323 Y-5.584 F1000
X-27.279 Y-5.606
X-27.244 Y-5.641
X-27.221 Y-5.686
X-27.214 Y-5.735
Y-5.893
Y-5.942 Z-2.992
Y-5.987 Z-2.97
Y-6.022 Z-2.935
Y-6.044 Z-2.89
Y-6.052 Z-2.841
G0 Z3
X-27.531
G1 Z-1 F1000
Z-3.841
Y-6.044 Z-3.89
Y-6.022 Z-3.935
Y-5.987 Z-3.97
Y-5.942 Z-3.992
Y-5.893 Z-4
Y-5.735
X-27.523 Y-5.686
X-27.501 Y-5.641
X-27.466 Y-5.606
X-27.422 Y-5.584
X-27.372 Y-5.576
X3.626 F200
X34.626
G3 X40.42 Y0.218 J5.794
X34.626 Y6.012 I-5.794
G1 X3.626
X-27.374
X-27.375
G3 X-33.168 Y0.218 J-5.794
X-27.375 Y-5.576 I5.794
G1 X-27.374
X-27.372
X-27.323 Y-5.584 F1000
X-27.279 Y-5.606
X-27.244 Y-5.641
X-27.221 Y-5.686
X-27.214 Y-5.735
Y-5.893
Y-5.942 Z-3.992
Y-5.987 Z-3.97
Y-6.022 Z-3.935
Y-6.044 Z-3.89
Y-6.052 Z-3.841
G0 Z3
X-27.531
G1 Z-2 F1000
Z-4.841
Y-6.044 Z-4.89
Y-6.022 Z-4.935
Y-5.987 Z-4.97
Y-5.942 Z-4.992
Y-5.893 Z-5
Y-5.735
X-27.523 Y-5.686
X-27.501 Y-5.641
X-27.466 Y-5.606
X-27.422 Y-5.584
X-27.372 Y-5.576
X3.626 F200
X34.626
G3 X40.42 Y0.218 J5.794
X34.626 Y6.012 I-5.794
G1 X3.626
X-27.374
X-27.375
G3 X-33.168 Y0.218 J-5.794
X-27.375 Y-5.576 I5.794
G1 X-27.374
X-27.372
X-27.323 Y-5.584 F1000
X-27.279 Y-5.606
X-27.244 Y-5.641
X-27.221 Y-5.686
X-27.214 Y-5.735
Y-5.893
Y-5.942 Z-4.992
Y-5.987 Z-4.97
Y-6.022 Z-4.935
Y-6.044 Z-4.89
Y-6.052 Z-4.841
G0 Z3
X-27.531
G1 Z-3 F1000
Z-5.841
Y-6.044 Z-5.89
Y-6.022 Z-5.935
Y-5.987 Z-5.97
Y-5.942 Z-5.992
Y-5.893 Z-6
Y-5.735
X-27.523 Y-5.686
X-27.501 Y-5.641
X-27.466 Y-5.606
X-27.422 Y-5.584
X-27.372 Y-5.576
X3.626 F200
X34.626
G3 X40.42 Y0.218 J5.794
X34.626 Y6.012 I-5.794
G1 X3.626
X-27.374
X-27.375
G3 X-33.168 Y0.218 J-5.794
X-27.375 Y-5.576 I5.794
G1 X-27.374
X-27.372
X-27.323 Y-5.584 F1000
X-27.279 Y-5.606
X-27.244 Y-5.641
X-27.221 Y-5.686
X-27.214 Y-5.735
Y-5.893
Y-5.942 Z-5.992
Y-5.987 Z-5.97
Y-6.022 Z-5.935
Y-6.044 Z-5.89
Y-6.052 Z-5.841
G0 Z3
X-27.531
G1 Z-4 F1000
Z-6.141
Y-6.044 Z-6.19
Y-6.022 Z-6.235
Y-5.987 Z-6.27
Y-5.942 Z-6.292
Y-5.893 Z-6.3
Y-5.735
X-27.523 Y-5.686
X-27.501 Y-5.641
X-27.466 Y-5.606
X-27.422 Y-5.584
X-27.372 Y-5.576
X3.626 F200
X34.626
G3 X40.42 Y0.218 J5.794
X34.626 Y6.012 I-5.794
G1 X3.626
X-27.374
X-27.375
G3 X-33.168 Y0.218 J-5.794
X-27.375 Y-5.576 I5.794
G1 X-27.374
X-27.372
X-27.323 Y-5.584 F1000
X-27.279 Y-5.606
X-27.244 Y-5.641
X-27.221 Y-5.686
X-27.214 Y-5.735
Y-5.893
Y-5.942 Z-6.292
Y-5.987 Z-6.27
Y-6.022 Z-6.235
Y-6.044 Z-6.19
Y-6.052 Z-6.141
G0 Z6
G28 G91 Z0
G90
G28 G91 X0 Y0
G90
M30
%
