(1001)
(T1  D=1.587 CR=0 - ZMIN=-6.3 - flat end mill)
G90 G94
G17
G21
G28 G91 Z0
G90

(2D Contour3)
M9
S20000 M3
G54
G0 X41.012 Y-8.012
Z6
Z3
G1 Z2.5 F1000
Z-1.341
Y-8.02 Z-1.39
Y-8.043 Z-1.435
Y-8.078 Z-1.47
Y-8.122 Z-1.492
Y-8.171 Z-1.5
Y-8.33
X41.004 Y-8.379
X40.982 Y-8.423
X40.946 Y-8.458
X40.902 Y-8.481
X40.853 Y-8.488
X-86.374 F500
G2 X-90.581 Y-4.282 J4.206
G3 X-96.374 Y1.512 I-5.794
G1 X-101.374
G3 X-102.168 Y0.718 J-0.794
G1 Y-29.282
G3 X-101.374 Y-30.076 I0.794
G1 X-96.374
G3 X-90.581 Y-24.282 J5.794
G2 X-86.362 Y-20.076 I4.206
G1 X-86.36
X47.752
G2 X49.316 Y-22.465 J-1.706
G3 X59.936 Y-27.1 I5.31 J-2.317
Y-22.465 I-5.31 J2.318
G2 X61.499 Y-20.076 I1.564 J0.682
G1 X61.5
X94.626
G3 X100.419 Y-14.282 J5.794
X94.626 Y-8.488 I-5.794
G1 X89.126
X61.5
X61.499
G2 X59.936 Y-6.1 J1.706
G3 X49.316 Y-1.465 I-5.31 J2.317
Y-6.1 I5.31 J-2.317
G2 X47.752 Y-8.488 I-1.564 J-0.682
G1 X40.853
X40.804 Y-8.481 F1000
X40.76 Y-8.458
X40.725 Y-8.423
X40.702 Y-8.379
X40.694 Y-8.33
Y-8.171
Y-8.122 Z-1.492
Y-8.078 Z-1.47
Y-8.043 Z-1.435
Y-8.02 Z-1.39
Y-8.012 Z-1.341
G0 Z3
X41.012
G1 Z1 F1000
Z-2.841
Y-8.02 Z-2.89
Y-8.043 Z-2.935
Y-8.078 Z-2.97
Y-8.122 Z-2.992
Y-8.171 Z-3
Y-8.33
X41.004 Y-8.379
X40.982 Y-8.423
X40.946 Y-8.458
X40.902 Y-8.481
X40.853 Y-8.488
X-86.374 F500
G2 X-90.581 Y-4.282 J4.206
G3 X-96.374 Y1.512 I-5.794
G1 X-101.374
G3 X-102.168 Y0.718 J-0.794
G1 Y-29.282
G3 X-101.374 Y-30.076 I0.794
G1 X-96.374
G3 X-90.581 Y-24.282 J5.794
G2 X-86.362 Y-20.076 I4.206
G1 X-86.36
X47.752
G2 X49.316 Y-22.465 J-1.706
G3 X59.936 Y-27.1 I5.31 J-2.317
Y-22.465 I-5.31 J2.318
G2 X61.499 Y-20.076 I1.564 J0.682
G1 X61.5
X94.626
G3 X100.419 Y-14.282 J5.794
X94.626 Y-8.488 I-5.794
G1 X89.126
X61.5
X61.499
G2 X59.936 Y-6.1 J1.706
G3 X49.316 Y-1.465 I-5.31 J2.317
Y-6.1 I5.31 J-2.317
G2 X47.752 Y-8.488 I-1.564 J-0.682
G1 X40.853
X40.804 Y-8.481 F1000
X40.76 Y-8.458
X40.725 Y-8.423
X40.702 Y-8.379
X40.694 Y-8.33
Y-8.171
Y-8.122 Z-2.992
Y-8.078 Z-2.97
Y-8.043 Z-2.935
Y-8.02 Z-2.89
Y-8.012 Z-2.841
G0 Z3
X41.012
G1 Z-0.5 F1000
Z-4.341
Y-8.02 Z-4.39
Y-8.043 Z-4.435
Y-8.078 Z-4.47
Y-8.122 Z-4.492
Y-8.171 Z-4.5
Y-8.33
X41.004 Y-8.379
X40.982 Y-8.423
X40.946 Y-8.458
X40.902 Y-8.481
X40.853 Y-8.488
X-86.374 F500
G2 X-90.581 Y-4.282 J4.206
G3 X-96.374 Y1.512 I-5.794
G1 X-101.374
G3 X-102.168 Y0.718 J-0.794
G1 Y-29.282
G3 X-101.374 Y-30.076 I0.794
G1 X-96.374
G3 X-90.581 Y-24.282 J5.794
G2 X-86.362 Y-20.076 I4.206
G1 X-86.36
X47.752
G2 X49.316 Y-22.465 J-1.706
G3 X59.936 Y-27.1 I5.31 J-2.317
Y-22.465 I-5.31 J2.318
G2 X61.499 Y-20.076 I1.564 J0.682
G1 X61.5
X94.626
G3 X100.419 Y-14.282 J5.794
X94.626 Y-8.488 I-5.794
G1 X89.126
X61.5
X61.499
G2 X59.936 Y-6.1 J1.706
G3 X49.316 Y-1.465 I-5.31 J2.317
Y-6.1 I5.31 J-2.317
G2 X47.752 Y-8.488 I-1.564 J-0.682
G1 X40.853
X40.804 Y-8.481 F1000
X40.76 Y-8.458
X40.725 Y-8.423
X40.702 Y-8.379
X40.694 Y-8.33
Y-8.171
Y-8.122 Z-4.492
Y-8.078 Z-4.47
Y-8.043 Z-4.435
Y-8.02 Z-4.39
Y-8.012 Z-4.341
G0 Z3
X41.012
G1 Z-2 F1000
Z-5.108
Y-8.02 Z-5.157
Y-8.043 Z-5.201
Y-8.078 Z-5.236
Y-8.122 Z-5.259
Y-8.171 Z-5.266
Y-8.33
X41.004 Y-8.379
X40.982 Y-8.423
X40.946 Y-8.458
X40.902 Y-8.481
X40.853 Y-8.488
X-86.374 F500
G2 X-90.581 Y-4.282 J4.206
G3 X-96.374 Y1.512 I-5.794
G1 X-101.374
G3 X-102.168 Y0.718 J-0.794
G1 Y-29.282
G3 X-101.374 Y-30.076 I0.794
G1 X-96.374
G3 X-90.581 Y-24.282 J5.794
G2 X-86.362 Y-20.076 I4.206
G1 X-86.36
X47.752
G2 X49.316 Y-22.465 J-1.706
G3 X59.936 Y-27.1 I5.31 J-2.317
Y-22.465 I-5.31 J2.318
G2 X61.499 Y-20.076 I1.564 J0.682
G1 X61.5
X94.626
G3 X100.419 Y-14.282 J5.794
X94.626 Y-8.488 I-5.794
G1 X89.126
X61.5
X61.499
G2 X59.936 Y-6.1 J1.706
G3 X49.316 Y-1.465 I-5.31 J2.317
Y-6.1 I5.31 J-2.317
G2 X47.752 Y-8.488 I-1.564 J-0.682
G1 X40.853
X40.804 Y-8.481 F1000
X40.76 Y-8.458
X40.725 Y-8.423
X40.702 Y-8.379
X40.694 Y-8.33
Y-8.171
Y-8.122 Z-5.259
Y-8.078 Z-5.236
Y-8.043 Z-5.201
Y-8.02 Z-5.157
Y-8.012 Z-5.108
G0 Z3
X41.012
G1 Z-2.766 F1000
Z-5.874
Y-8.02 Z-5.923
Y-8.043 Z-5.968
Y-8.078 Z-6.003
Y-8.122 Z-6.025
Y-8.171 Z-6.033
Y-8.33
X41.004 Y-8.379
X40.982 Y-8.423
X40.946 Y-8.458
X40.902 Y-8.481
X40.853 Y-8.488
X-86.374 F500
G2 X-90.581 Y-4.282 J4.206
G3 X-96.374 Y1.512 I-5.794
G1 X-101.374
G3 X-102.168 Y0.718 J-0.794
G1 Y-29.282
G3 X-101.374 Y-30.076 I0.794
G1 X-96.374
G3 X-90.581 Y-24.282 J5.794
G2 X-86.362 Y-20.076 I4.206
G1 X-86.36
X47.752
G2 X49.316 Y-22.465 J-1.706
G3 X59.936 Y-27.1 I5.31 J-2.317
Y-22.465 I-5.31 J2.318
G2 X61.499 Y-20.076 I1.564 J0.682
G1 X61.5
X94.626
G3 X100.419 Y-14.282 J5.794
X94.626 Y-8.488 I-5.794
G1 X89.126
X61.5
X61.499
G2 X59.936 Y-6.1 J1.706
G3 X49.316 Y-1.465 I-5.31 J2.317
Y-6.1 I5.31 J-2.317
G2 X47.752 Y-8.488 I-1.564 J-0.682
G1 X40.853
X40.804 Y-8.481 F1000
X40.76 Y-8.458
X40.725 Y-8.423
X40.702 Y-8.379
X40.694 Y-8.33
Y-8.171
Y-8.122 Z-6.025
Y-8.078 Z-6.003
Y-8.043 Z-5.968
Y-8.02 Z-5.923
Y-8.012 Z-5.874
G0 Z3
X68.239 Y8.012
G1 Z2.5 F1000
Z-1.341
Y8.02 Z-1.39
Y8.043 Z-1.435
Y8.078 Z-1.47
Y8.122 Z-1.492
Y8.171 Z-1.5
Y8.33
X68.247 Y8.379
X68.27 Y8.423
X68.305 Y8.458
X68.349 Y8.481
X68.398 Y8.488
X86.374 F500
G2 X90.581 Y4.282 J-4.206
G3 X96.374 Y-1.512 I5.794
G1 X101.374
G3 X102.168 Y-0.718 J0.794
G1 Y29.282
G3 X101.374 Y30.076 I-0.794
G1 X96.374
G3 X90.581 Y24.282 J-5.794
G2 X86.362 Y20.076 I-4.206
G1 X86.36
X-47.752
G2 X-49.316 Y22.465 J1.706
G3 X-59.936 Y27.1 I-5.31 J2.317
Y22.465 I5.31 J-2.318
G2 X-61.499 Y20.076 I-1.564 J-0.682
G1 X-61.5
X-94.626
G3 X-100.419 Y14.282 J-5.794
X-94.626 Y8.488 I5.794
G1 X-89.126
X-61.5
X-61.499
G2 X-59.936 Y6.1 J-1.706
G3 X-49.316 Y1.465 I5.31 J-2.317
Y6.1 I-5.31 J2.317
G2 X-47.752 Y8.488 I1.564 J0.682
G1 X54.626
X68.398
X68.447 Y8.481 F1000
X68.491 Y8.458
X68.527 Y8.423
X68.549 Y8.379
X68.557 Y8.33
Y8.171
Y8.122 Z-1.492
Y8.078 Z-1.47
Y8.043 Z-1.435
Y8.02 Z-1.39
Y8.012 Z-1.341
G0 Z3
X68.239
G1 Z1 F1000
Z-2.841
Y8.02 Z-2.89
Y8.043 Z-2.935
Y8.078 Z-2.97
Y8.122 Z-2.992
Y8.171 Z-3
Y8.33
X68.247 Y8.379
X68.27 Y8.423
X68.305 Y8.458
X68.349 Y8.481
X68.398 Y8.488
X86.374 F500
G2 X90.581 Y4.282 J-4.206
G3 X96.374 Y-1.512 I5.794
G1 X101.374
G3 X102.168 Y-0.718 J0.794
G1 Y29.282
G3 X101.374 Y30.076 I-0.794
G1 X96.374
G3 X90.581 Y24.282 J-5.794
G2 X86.362 Y20.076 I-4.206
G1 X86.36
X-47.752
G2 X-49.316 Y22.465 J1.706
G3 X-59.936 Y27.1 I-5.31 J2.317
Y22.465 I5.31 J-2.318
G2 X-61.499 Y20.076 I-1.564 J-0.682
G1 X-61.5
X-94.626
G3 X-100.419 Y14.282 J-5.794
X-94.626 Y8.488 I5.794
G1 X-89.126
X-61.5
X-61.499
G2 X-59.936 Y6.1 J-1.706
G3 X-49.316 Y1.465 I5.31 J-2.317
Y6.1 I-5.31 J2.317
G2 X-47.752 Y8.488 I1.564 J0.682
G1 X54.626
X68.398
X68.447 Y8.481 F1000
X68.491 Y8.458
X68.527 Y8.423
X68.549 Y8.379
X68.557 Y8.33
Y8.171
Y8.122 Z-2.992
Y8.078 Z-2.97
Y8.043 Z-2.935
Y8.02 Z-2.89
Y8.012 Z-2.841
G0 Z3
X68.239
G1 Z-0.5 F1000
Z-4.341
Y8.02 Z-4.39
Y8.043 Z-4.435
Y8.078 Z-4.47
Y8.122 Z-4.492
Y8.171 Z-4.5
Y8.33
X68.247 Y8.379
X68.27 Y8.423
X68.305 Y8.458
X68.349 Y8.481
X68.398 Y8.488
X86.374 F500
G2 X90.581 Y4.282 J-4.206
G3 X96.374 Y-1.512 I5.794
G1 X101.374
G3 X102.168 Y-0.718 J0.794
G1 Y29.282
G3 X101.374 Y30.076 I-0.794
G1 X96.374
G3 X90.581 Y24.282 J-5.794
G2 X86.362 Y20.076 I-4.206
G1 X86.36
X-47.752
G2 X-49.316 Y22.465 J1.706
G3 X-59.936 Y27.1 I-5.31 J2.317
Y22.465 I5.31 J-2.318
G2 X-61.499 Y20.076 I-1.564 J-0.682
G1 X-61.5
X-94.626
G3 X-100.419 Y14.282 J-5.794
X-94.626 Y8.488 I5.794
G1 X-89.126
X-61.5
X-61.499
G2 X-59.936 Y6.1 J-1.706
G3 X-49.316 Y1.465 I5.31 J-2.317
Y6.1 I-5.31 J2.317
G2 X-47.752 Y8.488 I1.564 J0.682
G1 X54.626
X68.398
X68.447 Y8.481 F1000
X68.491 Y8.458
X68.527 Y8.423
X68.549 Y8.379
X68.557 Y8.33
Y8.171
Y8.122 Z-4.492
Y8.078 Z-4.47
Y8.043 Z-4.435
Y8.02 Z-4.39
Y8.012 Z-4.341
G0 Z3
X68.239
G1 Z-2 F1000
Z-5.108
Y8.02 Z-5.157
Y8.043 Z-5.201
Y8.078 Z-5.236
Y8.122 Z-5.259
Y8.171 Z-5.266
Y8.33
X68.247 Y8.379
X68.27 Y8.423
X68.305 Y8.458
X68.349 Y8.481
X68.398 Y8.488
X86.374 F500
G2 X90.581 Y4.282 J-4.206
G3 X96.374 Y-1.512 I5.794
G1 X101.374
G3 X102.168 Y-0.718 J0.794
G1 Y29.282
G3 X101.374 Y30.076 I-0.794
G1 X96.374
G3 X90.581 Y24.282 J-5.794
G2 X86.362 Y20.076 I-4.206
G1 X86.36
X-47.752
G2 X-49.316 Y22.465 J1.706
G3 X-59.936 Y27.1 I-5.31 J2.317
Y22.465 I5.31 J-2.318
G2 X-61.499 Y20.076 I-1.564 J-0.682
G1 X-61.5
X-94.626
G3 X-100.419 Y14.282 J-5.794
X-94.626 Y8.488 I5.794
G1 X-89.126
X-61.5
X-61.499
G2 X-59.936 Y6.1 J-1.706
G3 X-49.316 Y1.465 I5.31 J-2.317
Y6.1 I-5.31 J2.317
G2 X-47.752 Y8.488 I1.564 J0.682
G1 X54.626
X68.398
X68.447 Y8.481 F1000
X68.491 Y8.458
X68.527 Y8.423
X68.549 Y8.379
X68.557 Y8.33
Y8.171
Y8.122 Z-5.259
Y8.078 Z-5.236
Y8.043 Z-5.201
Y8.02 Z-5.157
Y8.012 Z-5.108
G0 Z3
X68.239
G1 Z-2.766 F1000
Z-5.874
Y8.02 Z-5.923
Y8.043 Z-5.968
Y8.078 Z-6.003
Y8.122 Z-6.025
Y8.171 Z-6.033
Y8.33
X68.247 Y8.379
X68.27 Y8.423
X68.305 Y8.458
X68.349 Y8.481
X68.398 Y8.488
X86.374 F500
G2 X90.581 Y4.282 J-4.206
G3 X96.374 Y-1.512 I5.794
G1 X101.374
G3 X102.168 Y-0.718 J0.794
G1 Y29.282
G3 X101.374 Y30.076 I-0.794
G1 X96.374
G3 X90.581 Y24.282 J-5.794
G2 X86.362 Y20.076 I-4.206
G1 X86.36
X-47.752
G2 X-49.316 Y22.465 J1.706
G3 X-59.936 Y27.1 I-5.31 J2.317
Y22.465 I5.31 J-2.318
G2 X-61.499 Y20.076 I-1.564 J-0.682
G1 X-61.5
X-94.626
G3 X-100.419 Y14.282 J-5.794
X-94.626 Y8.488 I5.794
G1 X-89.126
X-61.5
X-61.499
G2 X-59.936 Y6.1 J-1.706
G3 X-49.316 Y1.465 I5.31 J-2.317
Y6.1 I-5.31 J2.317
G2 X-47.752 Y8.488 I1.564 J0.682
G1 X54.626
X68.398
X68.447 Y8.481 F1000
X68.491 Y8.458
X68.527 Y8.423
X68.549 Y8.379
X68.557 Y8.33
Y8.171
Y8.122 Z-6.025
Y8.078 Z-6.003
Y8.043 Z-5.968
Y8.02 Z-5.923
Y8.012 Z-5.874
G0 Z6
X-27.531 Y-6.052
Z3
G1 Z2.5 F1000
Z-1.341
Y-6.044 Z-1.39
Y-6.022 Z-1.435
Y-5.987 Z-1.47
Y-5.942 Z-1.492
Y-5.893 Z-1.5
Y-5.735
X-27.523 Y-5.686
X-27.501 Y-5.641
X-27.466 Y-5.606
X-27.422 Y-5.584
X-27.372 Y-5.576
X3.626 F500
X34.626
G3 X40.42 Y0.218 J5.794
X34.626 Y6.012 I-5.794
G1 X3.626
X-27.374
X-27.375
G3 X-33.168 Y0.218 J-5.794
X-27.375 Y-5.576 I5.794
G1 X-27.374
X-27.372
X-27.323 Y-5.584 F1000
X-27.279 Y-5.606
X-27.244 Y-5.641
X-27.221 Y-5.686
X-27.214 Y-5.735
Y-5.893
Y-5.942 Z-1.492
Y-5.987 Z-1.47
Y-6.022 Z-1.435
Y-6.044 Z-1.39
Y-6.052 Z-1.341
G0 Z3
X-27.531
G1 Z1 F1000
Z-2.841
Y-6.044 Z-2.89
Y-6.022 Z-2.935
Y-5.987 Z-2.97
Y-5.942 Z-2.992
Y-5.893 Z-3
Y-5.735
X-27.523 Y-5.686
X-27.501 Y-5.641
X-27.466 Y-5.606
X-27.422 Y-5.584
X-27.372 Y-5.576
X3.626 F500
X34.626
G3 X40.42 Y0.218 J5.794
X34.626 Y6.012 I-5.794
G1 X3.626
X-27.374
X-27.375
G3 X-33.168 Y0.218 J-5.794
X-27.375 Y-5.576 I5.794
G1 X-27.374
X-27.372
X-27.323 Y-5.584 F1000
X-27.279 Y-5.606
X-27.244 Y-5.641
X-27.221 Y-5.686
X-27.214 Y-5.735
Y-5.893
Y-5.942 Z-2.992
Y-5.987 Z-2.97
Y-6.022 Z-2.935
Y-6.044 Z-2.89
Y-6.052 Z-2.841
G0 Z3
X-27.531
G1 Z-0.5 F1000
Z-4.341
Y-6.044 Z-4.39
Y-6.022 Z-4.435
Y-5.987 Z-4.47
Y-5.942 Z-4.492
Y-5.893 Z-4.5
Y-5.735
X-27.523 Y-5.686
X-27.501 Y-5.641
X-27.466 Y-5.606
X-27.422 Y-5.584
X-27.372 Y-5.576
X3.626 F500
X34.626
G3 X40.42 Y0.218 J5.794
X34.626 Y6.012 I-5.794
G1 X3.626
X-27.374
X-27.375
G3 X-33.168 Y0.218 J-5.794
X-27.375 Y-5.576 I5.794
G1 X-27.374
X-27.372
X-27.323 Y-5.584 F1000
X-27.279 Y-5.606
X-27.244 Y-5.641
X-27.221 Y-5.686
X-27.214 Y-5.735
Y-5.893
Y-5.942 Z-4.492
Y-5.987 Z-4.47
Y-6.022 Z-4.435
Y-6.044 Z-4.39
Y-6.052 Z-4.341
G0 Z3
X-27.531
G1 Z-2 F1000
Z-5.241
Y-6.044 Z-5.29
Y-6.022 Z-5.335
Y-5.987 Z-5.37
Y-5.942 Z-5.392
Y-5.893 Z-5.4
Y-5.735
X-27.523 Y-5.686
X-27.501 Y-5.641
X-27.466 Y-5.606
X-27.422 Y-5.584
X-27.372 Y-5.576
X3.626 F500
X34.626
G3 X40.42 Y0.218 J5.794
X34.626 Y6.012 I-5.794
G1 X3.626
X-27.374
X-27.375
G3 X-33.168 Y0.218 J-5.794
X-27.375 Y-5.576 I5.794
G1 X-27.374
X-27.372
X-27.323 Y-5.584 F1000
X-27.279 Y-5.606
X-27.244 Y-5.641
X-27.221 Y-5.686
X-27.214 Y-5.735
Y-5.893
Y-5.942 Z-5.392
Y-5.987 Z-5.37
Y-6.022 Z-5.335
Y-6.044 Z-5.29
Y-6.052 Z-5.241
G0 Z3
X-27.531
G1 Z-2.9 F1000
Z-6.141
Y-6.044 Z-6.19
Y-6.022 Z-6.235
Y-5.987 Z-6.27
Y-5.942 Z-6.292
Y-5.893 Z-6.3
Y-5.735
X-27.523 Y-5.686
X-27.501 Y-5.641
X-27.466 Y-5.606
X-27.422 Y-5.584
X-27.372 Y-5.576
X3.626 F500
X34.626
G3 X40.42 Y0.218 J5.794
X34.626 Y6.012 I-5.794
G1 X3.626
X-27.374
X-27.375
G3 X-33.168 Y0.218 J-5.794
X-27.375 Y-5.576 I5.794
G1 X-27.374
X-27.372
X-27.323 Y-5.584 F1000
X-27.279 Y-5.606
X-27.244 Y-5.641
X-27.221 Y-5.686
X-27.214 Y-5.735
Y-5.893
Y-5.942 Z-6.292
Y-5.987 Z-6.27
Y-6.022 Z-6.235
Y-6.044 Z-6.19
Y-6.052 Z-6.141
G0 Z6
G28 G91 Z0
G90
G28 G91 X0 Y0
G90
M30
%
