(Extentions)
(T1  D=1 CR=0 - ZMIN=-3.3 - flat end mill)
G90 G94
G17
G21
(When using Fusion 360 for Personal Use, the feedrate of)
(rapid moves is reduced to match the feedrate of cutting)
(moves, which can increase machining time. Unrestricted rapid)
(moves are available with a Fusion 360 Subscription.)

(Holes)
S20000 M3
G54
G0 X-14.475 Y0
Z3
G1 Z1 F50
Z0.5 F20
Z-0.6
G3 X-15.525 Y0 I-0.525 J0 F50
X-14.475 Y0 I0.525 J0
G1 Z-1.2 F20
G3 X-15.525 Y0 I-0.525 J0 F50
X-14.475 Y0 I0.525 J0
G1 Z-1.8 F20
G3 X-15.525 Y0 I-0.525 J0 F50
X-14.475 Y0 I0.525 J0
G1 Z-2.4 F20
G3 X-15.525 Y0 I-0.525 J0 F50
X-14.475 Y0 I0.525 J0
G1 Z-3 F20
G3 X-15.525 Y0 I-0.525 J0 F50
X-14.475 Y0 I0.525 J0
G1 Z-3.3 F20
G3 X-15.525 Y0 I-0.525 J0 F50
X-14.475 Y0 I0.525 J0
G1 Z-2.5
Z1
Z2
X15.525
Z1
Z0.5 F20
Z-0.6
G3 X14.475 Y0 I-0.525 J0 F50
X15.525 Y0 I0.525 J0
G1 Z-1.2 F20
G3 X14.475 Y0 I-0.525 J0 F50
X15.525 Y0 I0.525 J0
G1 Z-1.8 F20
G3 X14.475 Y0 I-0.525 J0 F50
X15.525 Y0 I0.525 J0
G1 Z-2.4 F20
G3 X14.475 Y0 I-0.525 J0 F50
X15.525 Y0 I0.525 J0
G1 Z-3 F20
G3 X14.475 Y0 I-0.525 J0 F50
X15.525 Y0 I0.525 J0
G1 Z-3.3 F20
G3 X14.475 Y0 I-0.525 J0 F50
X15.525 Y0 I0.525 J0
G1 Z1
Z3
M5
M30
