(Extentions_large)
(T1  D=1 CR=0 - ZMIN=-3.3 - flat end mill)
G90 G94
G17
G21
(When using Fusion 360 for Personal Use, the feedrate of)
(rapid moves is reduced to match the feedrate of cutting)
(moves, which can increase machining time. Unrestricted rapid)
(moves are available with a Fusion 360 Subscription.)

(Holes 2)
T1
S20000 M3
G54
G0 X-5.95 Y-8.05
Z3
G1 Z1 F300
Z0.5 F20
Z-0.6
G3 X-7.95 Y-8.05 I-1 J0 F300
X-5.95 Y-8.05 I1 J0
G1 Z-1.2 F20
G3 X-7.95 Y-8.05 I-1 J0 F300
X-5.95 Y-8.05 I1 J0
G1 Z-1.8 F20
G3 X-7.95 Y-8.05 I-1 J0 F300
X-5.95 Y-8.05 I1 J0
G1 Z-2.4 F20
G3 X-7.95 Y-8.05 I-1 J0 F300
X-5.95 Y-8.05 I1 J0
G1 Z-3 F20
G3 X-7.95 Y-8.05 I-1 J0 F300
X-5.95 Y-8.05 I1 J0
G1 Z-3.3 F20
G3 X-7.95 Y-8.05 I-1 J0 F300
X-5.95 Y-8.05 I1 J0
G1 Z-2.5
Z1
Z2
X7.95
Z1
Z0.5 F20
Z-0.6
G3 X5.95 Y-8.05 I-1 J0 F300
X7.95 Y-8.05 I1 J0
G1 Z-1.2 F20
G3 X5.95 Y-8.05 I-1 J0 F300
X7.95 Y-8.05 I1 J0
G1 Z-1.8 F20
G3 X5.95 Y-8.05 I-1 J0 F300
X7.95 Y-8.05 I1 J0
G1 Z-2.4 F20
G3 X5.95 Y-8.05 I-1 J0 F300
X7.95 Y-8.05 I1 J0
G1 Z-3 F20
G3 X5.95 Y-8.05 I-1 J0 F300
X7.95 Y-8.05 I1 J0
G1 Z-3.3 F20
G3 X5.95 Y-8.05 I-1 J0 F300
X7.95 Y-8.05 I1 J0
G1 Z-2.5
Z1
Z2
X24.05
Z1
Z0.5 F20
Z-0.6
G3 X22.05 Y-8.05 I-1 J0 F300
X24.05 Y-8.05 I1 J0
G1 Z-1.2 F20
G3 X22.05 Y-8.05 I-1 J0 F300
X24.05 Y-8.05 I1 J0
G1 Z-1.8 F20
G3 X22.05 Y-8.05 I-1 J0 F300
X24.05 Y-8.05 I1 J0
G1 Z-2.4 F20
G3 X22.05 Y-8.05 I-1 J0 F300
X24.05 Y-8.05 I1 J0
G1 Z-3 F20
G3 X22.05 Y-8.05 I-1 J0 F300
X24.05 Y-8.05 I1 J0
G1 Z-3.3 F20
G3 X22.05 Y-8.05 I-1 J0 F300
X24.05 Y-8.05 I1 J0
G1 Z-2.5
Z1
Z2
Y8.05
Z1
Z0.5 F20
Z-0.6
G3 X22.05 Y8.05 I-1 J0 F300
X24.05 Y8.05 I1 J0
G1 Z-1.2 F20
G3 X22.05 Y8.05 I-1 J0 F300
X24.05 Y8.05 I1 J0
G1 Z-1.8 F20
G3 X22.05 Y8.05 I-1 J0 F300
X24.05 Y8.05 I1 J0
G1 Z-2.4 F20
G3 X22.05 Y8.05 I-1 J0 F300
X24.05 Y8.05 I1 J0
G1 Z-3 F20
G3 X22.05 Y8.05 I-1 J0 F300
X24.05 Y8.05 I1 J0
G1 Z-3.3 F20
G3 X22.05 Y8.05 I-1 J0 F300
X24.05 Y8.05 I1 J0
G1 Z-2.5
Z1
Z2
X7.931 Y8.245
Z1
Z0.5 F20
Z-0.6
G3 X5.969 Y7.855 I-0.981 J-0.195 F300
X7.931 Y8.245 I0.981 J0.195
G1 Z-1.2 F20
G3 X5.969 Y7.855 I-0.981 J-0.195 F300
X7.931 Y8.245 I0.981 J0.195
G1 Z-1.8 F20
G3 X5.969 Y7.855 I-0.981 J-0.195 F300
X7.931 Y8.245 I0.981 J0.195
G1 Z-2.4 F20
G3 X5.969 Y7.855 I-0.981 J-0.195 F300
X7.931 Y8.245 I0.981 J0.195
G1 Z-3 F20
G3 X5.969 Y7.855 I-0.981 J-0.195 F300
X7.931 Y8.245 I0.981 J0.195
G1 Z-3.3 F20
G3 X5.969 Y7.855 I-0.981 J-0.195 F300
X7.931 Y8.245 I0.981 J0.195
G1 Z-2.5
Z1
Z2
X-5.95 Y8.05
Z1
Z0.5 F20
Z-0.6
G3 X-7.95 Y8.05 I-1 J0 F300
X-5.95 Y8.05 I1 J0
G1 Z-1.2 F20
G3 X-7.95 Y8.05 I-1 J0 F300
X-5.95 Y8.05 I1 J0
G1 Z-1.8 F20
G3 X-7.95 Y8.05 I-1 J0 F300
X-5.95 Y8.05 I1 J0
G1 Z-2.4 F20
G3 X-7.95 Y8.05 I-1 J0 F300
X-5.95 Y8.05 I1 J0
G1 Z-3 F20
G3 X-7.95 Y8.05 I-1 J0 F300
X-5.95 Y8.05 I1 J0
G1 Z-3.3 F20
G3 X-7.95 Y8.05 I-1 J0 F300
X-5.95 Y8.05 I1 J0
G1 Z-2.5
Z1
Z2
X-22.05
Z1
Z0.5 F20
Z-0.6
G3 X-24.05 Y8.05 I-1 J0 F300
X-22.05 Y8.05 I1 J0
G1 Z-1.2 F20
G3 X-24.05 Y8.05 I-1 J0 F300
X-22.05 Y8.05 I1 J0
G1 Z-1.8 F20
G3 X-24.05 Y8.05 I-1 J0 F300
X-22.05 Y8.05 I1 J0
G1 Z-2.4 F20
G3 X-24.05 Y8.05 I-1 J0 F300
X-22.05 Y8.05 I1 J0
G1 Z-3 F20
G3 X-24.05 Y8.05 I-1 J0 F300
X-22.05 Y8.05 I1 J0
G1 Z-3.3 F20
G3 X-24.05 Y8.05 I-1 J0 F300
X-22.05 Y8.05 I1 J0
G1 Z-2.5
Z1
Z2
Y-8.05
Z1
Z0.5 F20
Z-0.6
G3 X-24.05 Y-8.05 I-1 J0 F300
X-22.05 Y-8.05 I1 J0
G1 Z-1.2 F20
G3 X-24.05 Y-8.05 I-1 J0 F300
X-22.05 Y-8.05 I1 J0
G1 Z-1.8 F20
G3 X-24.05 Y-8.05 I-1 J0 F300
X-22.05 Y-8.05 I1 J0
G1 Z-2.4 F20
G3 X-24.05 Y-8.05 I-1 J0 F300
X-22.05 Y-8.05 I1 J0
G1 Z-3 F20
G3 X-24.05 Y-8.05 I-1 J0 F300
X-22.05 Y-8.05 I1 J0
G1 Z-3.3 F20
G3 X-24.05 Y-8.05 I-1 J0 F300
X-22.05 Y-8.05 I1 J0
G1 Z1
Z3
(When using Fusion 360 for Personal Use, the feedrate of)
(rapid moves is reduced to match the feedrate of cutting)
(moves, which can increase machining time. Unrestricted rapid)
(moves are available with a Fusion 360 Subscription.)

(Holes 3)
G0 X3.165 Y7.775
G1 Z3 F300
Z1
Z0.5 F20
Z-0.6
G2 X7.515 Y12.125 I4.35 J0 F300
G1 X22.485
G2 X26.835 Y7.775 I0 J-4.35
G1 Y-7.775
G2 X22.485 Y-12.125 I-4.35 J0
G1 X7.515
G2 X3.165 Y-7.775 I0 J4.35
G1 Y7.775
Z-1.2 F20
G2 X7.515 Y12.125 I4.35 J0 F300
G1 X22.485
G2 X26.835 Y7.775 I0 J-4.35
G1 Y-7.775
G2 X22.485 Y-12.125 I-4.35 J0
G1 X7.515
G2 X3.165 Y-7.775 I0 J4.35
G1 Y7.775
Z-1.8 F20
G2 X7.515 Y12.125 I4.35 J0 F300
G1 X22.485
G2 X26.835 Y7.775 I0 J-4.35
G1 Y-7.775
G2 X22.485 Y-12.125 I-4.35 J0
G1 X7.515
G2 X3.165 Y-7.775 I0 J4.35
G1 Y7.775
Z-2.4 F20
G2 X7.515 Y12.125 I4.35 J0 F300
G1 X22.485
G2 X26.835 Y7.775 I0 J-4.35
G1 Y-7.775
G2 X22.485 Y-12.125 I-4.35 J0
G1 X7.515
G2 X3.165 Y-7.775 I0 J4.35
G1 Y7.775
Z-3 F20
G2 X7.515 Y12.125 I4.35 J0 F300
G1 X22.485
G2 X26.835 Y7.775 I0 J-4.35
G1 Y-7.775
G2 X22.485 Y-12.125 I-4.35 J0
G1 X7.515
G2 X3.165 Y-7.775 I0 J4.35
G1 Y7.775
Z-3.3 F20
G2 X7.515 Y12.125 I4.35 J0 F300
G1 X22.485
G2 X26.835 Y7.775 I0 J-4.35
G1 Y-7.775
G2 X22.485 Y-12.125 I-4.35 J0
G1 X7.515
G2 X3.165 Y-7.775 I0 J4.35
G1 Y7.775
Z-2.5
Z1
Z2
X-3.165
Z1
Z0.5 F20
Z-0.6
Y-7.775 F300
G2 X-7.515 Y-12.125 I-4.35 J0
G1 X-22.485
G2 X-26.835 Y-7.775 I0 J4.35
G1 Y7.775
G2 X-22.485 Y12.125 I4.35 J0
G1 X-7.515
G2 X-3.165 Y7.775 I0 J-4.35
G1 Z-1.2 F20
Y-7.775 F300
G2 X-7.515 Y-12.125 I-4.35 J0
G1 X-22.485
G2 X-26.835 Y-7.775 I0 J4.35
G1 Y7.775
G2 X-22.485 Y12.125 I4.35 J0
G1 X-7.515
G2 X-3.165 Y7.775 I0 J-4.35
G1 Z-1.8 F20
Y-7.775 F300
G2 X-7.515 Y-12.125 I-4.35 J0
G1 X-22.485
G2 X-26.835 Y-7.775 I0 J4.35
G1 Y7.775
G2 X-22.485 Y12.125 I4.35 J0
G1 X-7.515
G2 X-3.165 Y7.775 I0 J-4.35
G1 Z-2.4 F20
Y-7.775 F300
G2 X-7.515 Y-12.125 I-4.35 J0
G1 X-22.485
G2 X-26.835 Y-7.775 I0 J4.35
G1 Y7.775
G2 X-22.485 Y12.125 I4.35 J0
G1 X-7.515
G2 X-3.165 Y7.775 I0 J-4.35
G1 Z-3 F20
Y-7.775 F300
G2 X-7.515 Y-12.125 I-4.35 J0
G1 X-22.485
G2 X-26.835 Y-7.775 I0 J4.35
G1 Y7.775
G2 X-22.485 Y12.125 I4.35 J0
G1 X-7.515
G2 X-3.165 Y7.775 I0 J-4.35
G1 Z-3.3 F20
Y-7.775 F300
G2 X-7.515 Y-12.125 I-4.35 J0
G1 X-22.485
G2 X-26.835 Y-7.775 I0 J4.35
G1 Y7.775
G2 X-22.485 Y12.125 I4.35 J0
G1 X-7.515
G2 X-3.165 Y7.775 I0 J-4.35
G1 Z1
Z3
M5
M30
