(Extentions)
(T1  D=1 CR=0 - ZMIN=-3.3 - flat end mill)
G90 G94
G17
G21
(When using Fusion 360 for Personal Use, the feedrate of)
(rapid moves is reduced to match the feedrate of cutting)
(moves, which can increase machining time. Unrestricted rapid)
(moves are available with a Fusion 360 Subscription.)

(Holes)
S20000 M3
G54
G0 X5.698 Y5.15
Z3
G1 Z1 F50
Z0.5 F20
Z-0.6
G3 X3.698 Y5.15 I-1 J0 F50
X5.698 Y5.15 I1 J0
G1 Z-1.2 F20
G3 X3.698 Y5.15 I-1 J0 F50
X5.698 Y5.15 I1 J0
G1 Z-1.8 F20
G3 X3.698 Y5.15 I-1 J0 F50
X5.698 Y5.15 I1 J0
G1 Z-2.4 F20
G3 X3.698 Y5.15 I-1 J0 F50
X5.698 Y5.15 I1 J0
G1 Z-3 F20
G3 X3.698 Y5.15 I-1 J0 F50
X5.698 Y5.15 I1 J0
G1 Z-3.3 F20
G3 X3.698 Y5.15 I-1 J0 F50
X5.698 Y5.15 I1 J0
G1 Z-2.5
Z1
Z2
X7.063 Y-4.86
Z1
Z0.5 F20
Z-0.6
G3 X5.063 Y-4.86 I-1 J0 F50
X7.063 Y-4.86 I1 J0
G1 Z-1.2 F20
G3 X5.063 Y-4.86 I-1 J0 F50
X7.063 Y-4.86 I1 J0
G1 Z-1.8 F20
G3 X5.063 Y-4.86 I-1 J0 F50
X7.063 Y-4.86 I1 J0
G1 Z-2.4 F20
G3 X5.063 Y-4.86 I-1 J0 F50
X7.063 Y-4.86 I1 J0
G1 Z-3 F20
G3 X5.063 Y-4.86 I-1 J0 F50
X7.063 Y-4.86 I1 J0
G1 Z-3.3 F20
G3 X5.063 Y-4.86 I-1 J0 F50
X7.063 Y-4.86 I1 J0
G1 Z-2.5
Z1
Z2
X14.587 Y-12.91
Z1
Z0.5 F20
Z-0.6
G3 X13.638 Y-12.91 I-0.475 J0 F50
X14.587 Y-12.91 I0.475 J0
G1 Z-1.2 F20
G3 X13.638 Y-12.91 I-0.475 J0 F50
X14.587 Y-12.91 I0.475 J0
G1 Z-1.8 F20
G3 X13.638 Y-12.91 I-0.475 J0 F50
X14.587 Y-12.91 I0.475 J0
G1 Z-2.4 F20
G3 X13.638 Y-12.91 I-0.475 J0 F50
X14.587 Y-12.91 I0.475 J0
G1 Z-3 F20
G3 X13.638 Y-12.91 I-0.475 J0 F50
X14.587 Y-12.91 I0.475 J0
G1 Z-3.3 F20
G3 X13.638 Y-12.91 I-0.475 J0 F50
X14.587 Y-12.91 I0.475 J0
G1 Z-2.5
Z1
Z2
X23.163 Y-20.96
Z1
Z0.5 F20
Z-0.6
G3 X21.163 Y-20.96 I-1 J0 F50
X23.163 Y-20.96 I1 J0
G1 Z-1.2 F20
G3 X21.163 Y-20.96 I-1 J0 F50
X23.163 Y-20.96 I1 J0
G1 Z-1.8 F20
G3 X21.163 Y-20.96 I-1 J0 F50
X23.163 Y-20.96 I1 J0
G1 Z-2.4 F20
G3 X21.163 Y-20.96 I-1 J0 F50
X23.163 Y-20.96 I1 J0
G1 Z-3 F20
G3 X21.163 Y-20.96 I-1 J0 F50
X23.163 Y-20.96 I1 J0
G1 Z-3.3 F20
G3 X21.163 Y-20.96 I-1 J0 F50
X23.163 Y-20.96 I1 J0
G1 Z-2.5
Z1
Z2
X32.528 Y-20.205
Z1
Z0.5 F20
Z-0.6
G3 X30.567 Y-20.595 I-0.981 J-0.195 F50
X32.528 Y-20.205 I0.981 J0.195
G1 Z-1.2 F20
G3 X30.567 Y-20.595 I-0.981 J-0.195 F50
X32.528 Y-20.205 I0.981 J0.195
G1 Z-1.8 F20
G3 X30.567 Y-20.595 I-0.981 J-0.195 F50
X32.528 Y-20.205 I0.981 J0.195
G1 Z-2.4 F20
G3 X30.567 Y-20.595 I-0.981 J-0.195 F50
X32.528 Y-20.205 I0.981 J0.195
G1 Z-3 F20
G3 X30.567 Y-20.595 I-0.981 J-0.195 F50
X32.528 Y-20.205 I0.981 J0.195
G1 Z-3.3 F20
G3 X30.567 Y-20.595 I-0.981 J-0.195 F50
X32.528 Y-20.205 I0.981 J0.195
G1 Z-2.5
Z1
Z2
X40.072 Y-12.35
Z1
Z0.5 F20
Z-0.6
G3 X39.123 Y-12.35 I-0.475 J0 F50
X40.072 Y-12.35 I0.475 J0
G1 Z-1.2 F20
G3 X39.123 Y-12.35 I-0.475 J0 F50
X40.072 Y-12.35 I0.475 J0
G1 Z-1.8 F20
G3 X39.123 Y-12.35 I-0.475 J0 F50
X40.072 Y-12.35 I0.475 J0
G1 Z-2.4 F20
G3 X39.123 Y-12.35 I-0.475 J0 F50
X40.072 Y-12.35 I0.475 J0
G1 Z-3 F20
G3 X39.123 Y-12.35 I-0.475 J0 F50
X40.072 Y-12.35 I0.475 J0
G1 Z-3.3 F20
G3 X39.123 Y-12.35 I-0.475 J0 F50
X40.072 Y-12.35 I0.475 J0
G1 Z-2.5
Z1
Z2
X48.647 Y-4.3
Z1
Z0.5 F20
Z-0.6
G3 X46.647 Y-4.3 I-1 J0 F50
X48.647 Y-4.3 I1 J0
G1 Z-1.2 F20
G3 X46.647 Y-4.3 I-1 J0 F50
X48.647 Y-4.3 I1 J0
G1 Z-1.8 F20
G3 X46.647 Y-4.3 I-1 J0 F50
X48.647 Y-4.3 I1 J0
G1 Z-2.4 F20
G3 X46.647 Y-4.3 I-1 J0 F50
X48.647 Y-4.3 I1 J0
G1 Z-3 F20
G3 X46.647 Y-4.3 I-1 J0 F50
X48.647 Y-4.3 I1 J0
G1 Z-3.3 F20
G3 X46.647 Y-4.3 I-1 J0 F50
X48.647 Y-4.3 I1 J0
G1 Z-2.5
Z1
Z2
X47.678 Y5.345
Z1
Z0.5 F20
Z-0.6
G3 X45.717 Y4.955 I-0.981 J-0.195 F50
X47.678 Y5.345 I0.981 J0.195
G1 Z-1.2 F20
G3 X45.717 Y4.955 I-0.981 J-0.195 F50
X47.678 Y5.345 I0.981 J0.195
G1 Z-1.8 F20
G3 X45.717 Y4.955 I-0.981 J-0.195 F50
X47.678 Y5.345 I0.981 J0.195
G1 Z-2.4 F20
G3 X45.717 Y4.955 I-0.981 J-0.195 F50
X47.678 Y5.345 I0.981 J0.195
G1 Z-3 F20
G3 X45.717 Y4.955 I-0.981 J-0.195 F50
X47.678 Y5.345 I0.981 J0.195
G1 Z-3.3 F20
G3 X45.717 Y4.955 I-0.981 J-0.195 F50
X47.678 Y5.345 I0.981 J0.195
G1 Z-2.5
Z1
Z2
X39.081 Y13.393
Z1
Z0.5 F20
Z-0.6
G3 X38.214 Y13.007 I-0.434 J-0.193 F50
X39.081 Y13.393 I0.434 J0.193
G1 Z-1.2 F20
G3 X38.214 Y13.007 I-0.434 J-0.193 F50
X39.081 Y13.393 I0.434 J0.193
G1 Z-1.8 F20
G3 X38.214 Y13.007 I-0.434 J-0.193 F50
X39.081 Y13.393 I0.434 J0.193
G1 Z-2.4 F20
G3 X38.214 Y13.007 I-0.434 J-0.193 F50
X39.081 Y13.393 I0.434 J0.193
G1 Z-3 F20
G3 X38.214 Y13.007 I-0.434 J-0.193 F50
X39.081 Y13.393 I0.434 J0.193
G1 Z-3.3 F20
G3 X38.214 Y13.007 I-0.434 J-0.193 F50
X39.081 Y13.393 I0.434 J0.193
G1 Z-2.5
Z1
Z2
X47.678 Y21.445
Z1
Z0.5 F20
Z-0.6
G3 X45.717 Y21.055 I-0.981 J-0.195 F50
X47.678 Y21.445 I0.981 J0.195
G1 Z-1.2 F20
G3 X45.717 Y21.055 I-0.981 J-0.195 F50
X47.678 Y21.445 I0.981 J0.195
G1 Z-1.8 F20
G3 X45.717 Y21.055 I-0.981 J-0.195 F50
X47.678 Y21.445 I0.981 J0.195
G1 Z-2.4 F20
G3 X45.717 Y21.055 I-0.981 J-0.195 F50
X47.678 Y21.445 I0.981 J0.195
G1 Z-3 F20
G3 X45.717 Y21.055 I-0.981 J-0.195 F50
X47.678 Y21.445 I0.981 J0.195
G1 Z-3.3 F20
G3 X45.717 Y21.055 I-0.981 J-0.195 F50
X47.678 Y21.445 I0.981 J0.195
G1 Z-2.5
Z1
Z2
X31.597 Y21.25
Z1
Z0.5 F20
Z-0.6
G3 X29.597 Y21.25 I-1 J0 F50
X31.597 Y21.25 I1 J0
G1 Z-1.2 F20
G3 X29.597 Y21.25 I-1 J0 F50
X31.597 Y21.25 I1 J0
G1 Z-1.8 F20
G3 X29.597 Y21.25 I-1 J0 F50
X31.597 Y21.25 I1 J0
G1 Z-2.4 F20
G3 X29.597 Y21.25 I-1 J0 F50
X31.597 Y21.25 I1 J0
G1 Z-3 F20
G3 X29.597 Y21.25 I-1 J0 F50
X31.597 Y21.25 I1 J0
G1 Z-3.3 F20
G3 X29.597 Y21.25 I-1 J0 F50
X31.597 Y21.25 I1 J0
G1 Z-2.5
Z1
Z2
X21.778 Y21.445
Z1
Z0.5 F20
Z-0.6
G3 X19.817 Y21.055 I-0.981 J-0.195 F50
X21.778 Y21.445 I0.981 J0.195
G1 Z-1.2 F20
G3 X19.817 Y21.055 I-0.981 J-0.195 F50
X21.778 Y21.445 I0.981 J0.195
G1 Z-1.8 F20
G3 X19.817 Y21.055 I-0.981 J-0.195 F50
X21.778 Y21.445 I0.981 J0.195
G1 Z-2.4 F20
G3 X19.817 Y21.055 I-0.981 J-0.195 F50
X21.778 Y21.445 I0.981 J0.195
G1 Z-3 F20
G3 X19.817 Y21.055 I-0.981 J-0.195 F50
X21.778 Y21.445 I0.981 J0.195
G1 Z-3.3 F20
G3 X19.817 Y21.055 I-0.981 J-0.195 F50
X21.778 Y21.445 I0.981 J0.195
G1 Z-2.5
Z1
Z2
X13.222 Y13.2
Z1
Z0.5 F20
Z-0.6
G3 X12.273 Y13.2 I-0.475 J0 F50
X13.222 Y13.2 I0.475 J0
G1 Z-1.2 F20
G3 X12.273 Y13.2 I-0.475 J0 F50
X13.222 Y13.2 I0.475 J0
G1 Z-1.8 F20
G3 X12.273 Y13.2 I-0.475 J0 F50
X13.222 Y13.2 I0.475 J0
G1 Z-2.4 F20
G3 X12.273 Y13.2 I-0.475 J0 F50
X13.222 Y13.2 I0.475 J0
G1 Z-3 F20
G3 X12.273 Y13.2 I-0.475 J0 F50
X13.222 Y13.2 I0.475 J0
G1 Z-3.3 F20
G3 X12.273 Y13.2 I-0.475 J0 F50
X13.222 Y13.2 I0.475 J0
G1 Z-2.5
Z1
Z2
X21.778 Y5.345
Z1
Z0.5 F20
Z-0.6
G3 X19.817 Y4.955 I-0.981 J-0.195 F50
X21.778 Y5.345 I0.981 J0.195
G1 Z-1.2 F20
G3 X19.817 Y4.955 I-0.981 J-0.195 F50
X21.778 Y5.345 I0.981 J0.195
G1 Z-1.8 F20
G3 X19.817 Y4.955 I-0.981 J-0.195 F50
X21.778 Y5.345 I0.981 J0.195
G1 Z-2.4 F20
G3 X19.817 Y4.955 I-0.981 J-0.195 F50
X21.778 Y5.345 I0.981 J0.195
G1 Z-3 F20
G3 X19.817 Y4.955 I-0.981 J-0.195 F50
X21.778 Y5.345 I0.981 J0.195
G1 Z-3.3 F20
G3 X19.817 Y4.955 I-0.981 J-0.195 F50
X21.778 Y5.345 I0.981 J0.195
G1 Z-2.5
Z1
Z2
X31.597 Y5.15
Z1
Z0.5 F20
Z-0.6
G3 X29.597 Y5.15 I-1 J0 F50
X31.597 Y5.15 I1 J0
G1 Z-1.2 F20
G3 X29.597 Y5.15 I-1 J0 F50
X31.597 Y5.15 I1 J0
G1 Z-1.8 F20
G3 X29.597 Y5.15 I-1 J0 F50
X31.597 Y5.15 I1 J0
G1 Z-2.4 F20
G3 X29.597 Y5.15 I-1 J0 F50
X31.597 Y5.15 I1 J0
G1 Z-3 F20
G3 X29.597 Y5.15 I-1 J0 F50
X31.597 Y5.15 I1 J0
G1 Z-3.3 F20
G3 X29.597 Y5.15 I-1 J0 F50
X31.597 Y5.15 I1 J0
G1 Z-2.5
Z1
Z2
X32.548 Y-4.3
Z1
Z0.5 F20
Z-0.6
G3 X30.548 Y-4.3 I-1 J0 F50
X32.548 Y-4.3 I1 J0
G1 Z-1.2 F20
G3 X30.548 Y-4.3 I-1 J0 F50
X32.548 Y-4.3 I1 J0
G1 Z-1.8 F20
G3 X30.548 Y-4.3 I-1 J0 F50
X32.548 Y-4.3 I1 J0
G1 Z-2.4 F20
G3 X30.548 Y-4.3 I-1 J0 F50
X32.548 Y-4.3 I1 J0
G1 Z-3 F20
G3 X30.548 Y-4.3 I-1 J0 F50
X32.548 Y-4.3 I1 J0
G1 Z-3.3 F20
G3 X30.548 Y-4.3 I-1 J0 F50
X32.548 Y-4.3 I1 J0
G1 Z-2.5
Z1
Z2
X23.143 Y-4.665
Z1
Z0.5 F20
Z-0.6
G3 X21.182 Y-5.055 I-0.981 J-0.195 F50
X23.143 Y-4.665 I0.981 J0.195
G1 Z-1.2 F20
G3 X21.182 Y-5.055 I-0.981 J-0.195 F50
X23.143 Y-4.665 I0.981 J0.195
G1 Z-1.8 F20
G3 X21.182 Y-5.055 I-0.981 J-0.195 F50
X23.143 Y-4.665 I0.981 J0.195
G1 Z-2.4 F20
G3 X21.182 Y-5.055 I-0.981 J-0.195 F50
X23.143 Y-4.665 I0.981 J0.195
G1 Z-3 F20
G3 X21.182 Y-5.055 I-0.981 J-0.195 F50
X23.143 Y-4.665 I0.981 J0.195
G1 Z-3.3 F20
G3 X21.182 Y-5.055 I-0.981 J-0.195 F50
X23.143 Y-4.665 I0.981 J0.195
G1 Z-2.5
Z1
Z2
X7.043 Y-20.765
Z1
Z0.5 F20
Z-0.6
G3 X5.082 Y-21.155 I-0.981 J-0.195 F50
X7.043 Y-20.765 I0.981 J0.195
G1 Z-1.2 F20
G3 X5.082 Y-21.155 I-0.981 J-0.195 F50
X7.043 Y-20.765 I0.981 J0.195
G1 Z-1.8 F20
G3 X5.082 Y-21.155 I-0.981 J-0.195 F50
X7.043 Y-20.765 I0.981 J0.195
G1 Z-2.4 F20
G3 X5.082 Y-21.155 I-0.981 J-0.195 F50
X7.043 Y-20.765 I0.981 J0.195
G1 Z-3 F20
G3 X5.082 Y-21.155 I-0.981 J-0.195 F50
X7.043 Y-20.765 I0.981 J0.195
G1 Z-3.3 F20
G3 X5.082 Y-21.155 I-0.981 J-0.195 F50
X7.043 Y-20.765 I0.981 J0.195
G1 Z-2.5
Z1
Z2
X-4.838 Y-20.96
Z1
Z0.5 F20
Z-0.6
G3 X-6.838 Y-20.96 I-1 J0 F50
X-4.838 Y-20.96 I1 J0
G1 Z-1.2 F20
G3 X-6.838 Y-20.96 I-1 J0 F50
X-4.838 Y-20.96 I1 J0
G1 Z-1.8 F20
G3 X-6.838 Y-20.96 I-1 J0 F50
X-4.838 Y-20.96 I1 J0
G1 Z-2.4 F20
G3 X-6.838 Y-20.96 I-1 J0 F50
X-4.838 Y-20.96 I1 J0
G1 Z-3 F20
G3 X-6.838 Y-20.96 I-1 J0 F50
X-4.838 Y-20.96 I1 J0
G1 Z-3.3 F20
G3 X-6.838 Y-20.96 I-1 J0 F50
X-4.838 Y-20.96 I1 J0
G1 Z-2.5
Z1
Z2
X-13.413 Y-12.91
Z1
Z0.5 F20
Z-0.6
G3 X-14.362 Y-12.91 I-0.475 J0 F50
X-13.413 Y-12.91 I0.475 J0
G1 Z-1.2 F20
G3 X-14.362 Y-12.91 I-0.475 J0 F50
X-13.413 Y-12.91 I0.475 J0
G1 Z-1.8 F20
G3 X-14.362 Y-12.91 I-0.475 J0 F50
X-13.413 Y-12.91 I0.475 J0
G1 Z-2.4 F20
G3 X-14.362 Y-12.91 I-0.475 J0 F50
X-13.413 Y-12.91 I0.475 J0
G1 Z-3 F20
G3 X-14.362 Y-12.91 I-0.475 J0 F50
X-13.413 Y-12.91 I0.475 J0
G1 Z-3.3 F20
G3 X-14.362 Y-12.91 I-0.475 J0 F50
X-13.413 Y-12.91 I0.475 J0
G1 Z-2.5
Z1
Z2
X-4.838 Y-4.86
Z1
Z0.5 F20
Z-0.6
G3 X-6.838 Y-4.86 I-1 J0 F50
X-4.838 Y-4.86 I1 J0
G1 Z-1.2 F20
G3 X-6.838 Y-4.86 I-1 J0 F50
X-4.838 Y-4.86 I1 J0
G1 Z-1.8 F20
G3 X-6.838 Y-4.86 I-1 J0 F50
X-4.838 Y-4.86 I1 J0
G1 Z-2.4 F20
G3 X-6.838 Y-4.86 I-1 J0 F50
X-4.838 Y-4.86 I1 J0
G1 Z-3 F20
G3 X-6.838 Y-4.86 I-1 J0 F50
X-4.838 Y-4.86 I1 J0
G1 Z-3.3 F20
G3 X-6.838 Y-4.86 I-1 J0 F50
X-4.838 Y-4.86 I1 J0
G1 Z-2.5
Z1
Z2
X-4.827 Y5.15
Z1
Z0.5 F20
Z-0.6
G3 X-6.827 Y5.15 I-1 J0 F50
X-4.827 Y5.15 I1 J0
G1 Z-1.2 F20
G3 X-6.827 Y5.15 I-1 J0 F50
X-4.827 Y5.15 I1 J0
G1 Z-1.8 F20
G3 X-6.827 Y5.15 I-1 J0 F50
X-4.827 Y5.15 I1 J0
G1 Z-2.4 F20
G3 X-6.827 Y5.15 I-1 J0 F50
X-4.827 Y5.15 I1 J0
G1 Z-3 F20
G3 X-6.827 Y5.15 I-1 J0 F50
X-4.827 Y5.15 I1 J0
G1 Z-3.3 F20
G3 X-6.827 Y5.15 I-1 J0 F50
X-4.827 Y5.15 I1 J0
G1 Z-2.5
Z1
Z2
X-13.403 Y13.2
Z1
Z0.5 F20
Z-0.6
G3 X-14.352 Y13.2 I-0.475 J0 F50
X-13.403 Y13.2 I0.475 J0
G1 Z-1.2 F20
G3 X-14.352 Y13.2 I-0.475 J0 F50
X-13.403 Y13.2 I0.475 J0
G1 Z-1.8 F20
G3 X-14.352 Y13.2 I-0.475 J0 F50
X-13.403 Y13.2 I0.475 J0
G1 Z-2.4 F20
G3 X-14.352 Y13.2 I-0.475 J0 F50
X-13.403 Y13.2 I0.475 J0
G1 Z-3 F20
G3 X-14.352 Y13.2 I-0.475 J0 F50
X-13.403 Y13.2 I0.475 J0
G1 Z-3.3 F20
G3 X-14.352 Y13.2 I-0.475 J0 F50
X-13.403 Y13.2 I0.475 J0
G1 Z-2.5
Z1
Z2
X-4.827 Y21.25
Z1
Z0.5 F20
Z-0.6
G3 X-6.827 Y21.25 I-1 J0 F50
X-4.827 Y21.25 I1 J0
G1 Z-1.2 F20
G3 X-6.827 Y21.25 I-1 J0 F50
X-4.827 Y21.25 I1 J0
G1 Z-1.8 F20
G3 X-6.827 Y21.25 I-1 J0 F50
X-4.827 Y21.25 I1 J0
G1 Z-2.4 F20
G3 X-6.827 Y21.25 I-1 J0 F50
X-4.827 Y21.25 I1 J0
G1 Z-3 F20
G3 X-6.827 Y21.25 I-1 J0 F50
X-4.827 Y21.25 I1 J0
G1 Z-3.3 F20
G3 X-6.827 Y21.25 I-1 J0 F50
X-4.827 Y21.25 I1 J0
G1 Z-2.5
Z1
Z2
X5.698
Z1
Z0.5 F20
Z-0.6
G3 X3.698 Y21.25 I-1 J0 F50
X5.698 Y21.25 I1 J0
G1 Z-1.2 F20
G3 X3.698 Y21.25 I-1 J0 F50
X5.698 Y21.25 I1 J0
G1 Z-1.8 F20
G3 X3.698 Y21.25 I-1 J0 F50
X5.698 Y21.25 I1 J0
G1 Z-2.4 F20
G3 X3.698 Y21.25 I-1 J0 F50
X5.698 Y21.25 I1 J0
G1 Z-3 F20
G3 X3.698 Y21.25 I-1 J0 F50
X5.698 Y21.25 I1 J0
G1 Z-3.3 F20
G3 X3.698 Y21.25 I-1 J0 F50
X5.698 Y21.25 I1 J0
G1 Z-2.5
Z1
Z2
X-20.927
Z1
Z0.5 F20
Z-0.6
G3 X-22.927 Y21.25 I-1 J0 F50
X-20.927 Y21.25 I1 J0
G1 Z-1.2 F20
G3 X-22.927 Y21.25 I-1 J0 F50
X-20.927 Y21.25 I1 J0
G1 Z-1.8 F20
G3 X-22.927 Y21.25 I-1 J0 F50
X-20.927 Y21.25 I1 J0
G1 Z-2.4 F20
G3 X-22.927 Y21.25 I-1 J0 F50
X-20.927 Y21.25 I1 J0
G1 Z-3 F20
G3 X-22.927 Y21.25 I-1 J0 F50
X-20.927 Y21.25 I1 J0
G1 Z-3.3 F20
G3 X-22.927 Y21.25 I-1 J0 F50
X-20.927 Y21.25 I1 J0
G1 Z-2.5
Z1
Z2
Y5.15
Z1
Z0.5 F20
Z-0.6
G3 X-22.927 Y5.15 I-1 J0 F50
X-20.927 Y5.15 I1 J0
G1 Z-1.2 F20
G3 X-22.927 Y5.15 I-1 J0 F50
X-20.927 Y5.15 I1 J0
G1 Z-1.8 F20
G3 X-22.927 Y5.15 I-1 J0 F50
X-20.927 Y5.15 I1 J0
G1 Z-2.4 F20
G3 X-22.927 Y5.15 I-1 J0 F50
X-20.927 Y5.15 I1 J0
G1 Z-3 F20
G3 X-22.927 Y5.15 I-1 J0 F50
X-20.927 Y5.15 I1 J0
G1 Z-3.3 F20
G3 X-22.927 Y5.15 I-1 J0 F50
X-20.927 Y5.15 I1 J0
G1 Z-2.5
Z1
Z2
X-20.938 Y-4.86
Z1
Z0.5 F20
Z-0.6
G3 X-22.938 Y-4.86 I-1 J0 F50
X-20.938 Y-4.86 I1 J0
G1 Z-1.2 F20
G3 X-22.938 Y-4.86 I-1 J0 F50
X-20.938 Y-4.86 I1 J0
G1 Z-1.8 F20
G3 X-22.938 Y-4.86 I-1 J0 F50
X-20.938 Y-4.86 I1 J0
G1 Z-2.4 F20
G3 X-22.938 Y-4.86 I-1 J0 F50
X-20.938 Y-4.86 I1 J0
G1 Z-3 F20
G3 X-22.938 Y-4.86 I-1 J0 F50
X-20.938 Y-4.86 I1 J0
G1 Z-3.3 F20
G3 X-22.938 Y-4.86 I-1 J0 F50
X-20.938 Y-4.86 I1 J0
G1 Z-2.5
Z1
Z2
X-30.857 Y-6.765
Z1
Z0.5 F20
Z-0.6
G3 X-32.818 Y-7.155 I-0.981 J-0.195 F50
X-30.857 Y-6.765 I0.981 J0.195
G1 Z-1.2 F20
G3 X-32.818 Y-7.155 I-0.981 J-0.195 F50
X-30.857 Y-6.765 I0.981 J0.195
G1 Z-1.8 F20
G3 X-32.818 Y-7.155 I-0.981 J-0.195 F50
X-30.857 Y-6.765 I0.981 J0.195
G1 Z-2.4 F20
G3 X-32.818 Y-7.155 I-0.981 J-0.195 F50
X-30.857 Y-6.765 I0.981 J0.195
G1 Z-3 F20
G3 X-32.818 Y-7.155 I-0.981 J-0.195 F50
X-30.857 Y-6.765 I0.981 J0.195
G1 Z-3.3 F20
G3 X-32.818 Y-7.155 I-0.981 J-0.195 F50
X-30.857 Y-6.765 I0.981 J0.195
G1 Z-2.5
Z1
Z2
X-39.454 Y1.283
Z1
Z0.5 F20
Z-0.6
G3 X-40.321 Y0.897 I-0.434 J-0.193 F50
X-39.454 Y1.283 I0.434 J0.193
G1 Z-1.2 F20
G3 X-40.321 Y0.897 I-0.434 J-0.193 F50
X-39.454 Y1.283 I0.434 J0.193
G1 Z-1.8 F20
G3 X-40.321 Y0.897 I-0.434 J-0.193 F50
X-39.454 Y1.283 I0.434 J0.193
G1 Z-2.4 F20
G3 X-40.321 Y0.897 I-0.434 J-0.193 F50
X-39.454 Y1.283 I0.434 J0.193
G1 Z-3 F20
G3 X-40.321 Y0.897 I-0.434 J-0.193 F50
X-39.454 Y1.283 I0.434 J0.193
G1 Z-3.3 F20
G3 X-40.321 Y0.897 I-0.434 J-0.193 F50
X-39.454 Y1.283 I0.434 J0.193
G1 Z-2.5
Z1
Z2
X-30.837 Y9.14
Z1
Z0.5 F20
Z-0.6
G3 X-32.837 Y9.14 I-1 J0 F50
X-30.837 Y9.14 I1 J0
G1 Z-1.2 F20
G3 X-32.837 Y9.14 I-1 J0 F50
X-30.837 Y9.14 I1 J0
G1 Z-1.8 F20
G3 X-32.837 Y9.14 I-1 J0 F50
X-30.837 Y9.14 I1 J0
G1 Z-2.4 F20
G3 X-32.837 Y9.14 I-1 J0 F50
X-30.837 Y9.14 I1 J0
G1 Z-3 F20
G3 X-32.837 Y9.14 I-1 J0 F50
X-30.837 Y9.14 I1 J0
G1 Z-3.3 F20
G3 X-32.837 Y9.14 I-1 J0 F50
X-30.837 Y9.14 I1 J0
G1 Z-2.5
Z1
Z2
X-46.957 Y9.335
Z1
Z0.5 F20
Z-0.6
G3 X-48.918 Y8.945 I-0.981 J-0.195 F50
X-46.957 Y9.335 I0.981 J0.195
G1 Z-1.2 F20
G3 X-48.918 Y8.945 I-0.981 J-0.195 F50
X-46.957 Y9.335 I0.981 J0.195
G1 Z-1.8 F20
G3 X-48.918 Y8.945 I-0.981 J-0.195 F50
X-46.957 Y9.335 I0.981 J0.195
G1 Z-2.4 F20
G3 X-48.918 Y8.945 I-0.981 J-0.195 F50
X-46.957 Y9.335 I0.981 J0.195
G1 Z-3 F20
G3 X-48.918 Y8.945 I-0.981 J-0.195 F50
X-46.957 Y9.335 I0.981 J0.195
G1 Z-3.3 F20
G3 X-48.918 Y8.945 I-0.981 J-0.195 F50
X-46.957 Y9.335 I0.981 J0.195
G1 Z-2.5
Z1
Z2
X-46.938 Y-6.96
Z1
Z0.5 F20
Z-0.6
G3 X-48.938 Y-6.96 I-1 J0 F50
X-46.938 Y-6.96 I1 J0
G1 Z-1.2 F20
G3 X-48.938 Y-6.96 I-1 J0 F50
X-46.938 Y-6.96 I1 J0
G1 Z-1.8 F20
G3 X-48.938 Y-6.96 I-1 J0 F50
X-46.938 Y-6.96 I1 J0
G1 Z-2.4 F20
G3 X-48.938 Y-6.96 I-1 J0 F50
X-46.938 Y-6.96 I1 J0
G1 Z-3 F20
G3 X-48.938 Y-6.96 I-1 J0 F50
X-46.938 Y-6.96 I1 J0
G1 Z-3.3 F20
G3 X-48.938 Y-6.96 I-1 J0 F50
X-46.938 Y-6.96 I1 J0
G1 Z-2.5
Z1
Z2
X-20.957 Y-20.765
Z1
Z0.5 F20
Z-0.6
G3 X-22.918 Y-21.155 I-0.981 J-0.195 F50
X-20.957 Y-20.765 I0.981 J0.195
G1 Z-1.2 F20
G3 X-22.918 Y-21.155 I-0.981 J-0.195 F50
X-20.957 Y-20.765 I0.981 J0.195
G1 Z-1.8 F20
G3 X-22.918 Y-21.155 I-0.981 J-0.195 F50
X-20.957 Y-20.765 I0.981 J0.195
G1 Z-2.4 F20
G3 X-22.918 Y-21.155 I-0.981 J-0.195 F50
X-20.957 Y-20.765 I0.981 J0.195
G1 Z-3 F20
G3 X-22.918 Y-21.155 I-0.981 J-0.195 F50
X-20.957 Y-20.765 I0.981 J0.195
G1 Z-3.3 F20
G3 X-22.918 Y-21.155 I-0.981 J-0.195 F50
X-20.957 Y-20.765 I0.981 J0.195
G1 Z-2.5
Z1
Z2
X48.647 Y-20.4
Z1
Z0.5 F20
Z-0.6
G3 X46.647 Y-20.4 I-1 J0 F50
X48.647 Y-20.4 I1 J0
G1 Z-1.2 F20
G3 X46.647 Y-20.4 I-1 J0 F50
X48.647 Y-20.4 I1 J0
G1 Z-1.8 F20
G3 X46.647 Y-20.4 I-1 J0 F50
X48.647 Y-20.4 I1 J0
G1 Z-2.4 F20
G3 X46.647 Y-20.4 I-1 J0 F50
X48.647 Y-20.4 I1 J0
G1 Z-3 F20
G3 X46.647 Y-20.4 I-1 J0 F50
X48.647 Y-20.4 I1 J0
G1 Z-3.3 F20
G3 X46.647 Y-20.4 I-1 J0 F50
X48.647 Y-20.4 I1 J0
G1 Z1
Z3
(When using Fusion 360 for Personal Use, the feedrate of)
(rapid moves is reduced to match the feedrate of cutting)
(moves, which can increase machining time. Unrestricted rapid)
(moves are available with a Fusion 360 Subscription.)

(Holes 2)
G0 X2.314 Y2.272
G1 Z3 F50
Z1
Z0.5 F20
Z-0.6
G2 X0.623 Y5.715 I2.659 J3.443 F50
G1 Y20.685
G2 X4.972 Y25.035 I4.35 J0
G1 X20.522
G2 X24.872 Y20.685 I0 J-4.35
G1 Y5.715
G2 X20.522 Y1.365 I-4.35 J0
G1 X4.972
G2 X2.314 Y2.272 I0 J4.35
G1 Z0.5
Z1
Z2
X4.628 Y1.379
Z1
Z-0.1 F20
Z-1.2
G2 X0.623 Y5.715 I0.345 J4.336 F50
G1 Y20.685
G2 X4.972 Y25.035 I4.35 J0
G1 X20.522
G2 X24.872 Y20.685 I0 J-4.35
G1 Y5.715
G2 X20.522 Y1.365 I-4.35 J0
G1 X4.972
G2 X4.628 Y1.379 I0 J4.35
G1 Z-1.8 F20
G2 X0.623 Y5.715 I0.345 J4.336 F50
G1 Y20.685
G2 X4.972 Y25.035 I4.35 J0
G1 X20.522
G2 X24.872 Y20.685 I0 J-4.35
G1 Y5.715
G2 X20.522 Y1.365 I-4.35 J0
G1 X4.972
G2 X4.628 Y1.379 I0 J4.35
G1 Z-2.4 F20
G2 X0.623 Y5.715 I0.345 J4.336 F50
G1 Y20.685
G2 X4.972 Y25.035 I4.35 J0
G1 X20.522
G2 X24.872 Y20.685 I0 J-4.35
G1 Y5.715
G2 X20.522 Y1.365 I-4.35 J0
G1 X4.972
G2 X4.628 Y1.379 I0 J4.35
G1 Z-3 F20
G2 X0.623 Y5.715 I0.345 J4.336 F50
G1 Y20.685
G2 X4.972 Y25.035 I4.35 J0
G1 X20.522
G2 X24.872 Y20.685 I0 J-4.35
G1 Y5.715
G2 X20.522 Y1.365 I-4.35 J0
G1 X4.972
G2 X4.628 Y1.379 I0 J4.35
G1 Z-3.3 F20
G2 X0.623 Y5.715 I0.345 J4.336 F50
G1 Y20.685
G2 X4.972 Y25.035 I4.35 J0
G1 X20.522
G2 X24.872 Y20.685 I0 J-4.35
G1 Y5.715
G2 X20.522 Y1.365 I-4.35 J0
G1 X4.972
G2 X4.628 Y1.379 I0 J4.35
G1 Z-2.5
Z1
Z2
X6.603 Y-0.785
Z1
Z0.5 F20
Z-0.6
X6.628 F50
X20.522
X21.597
G2 X25.948 Y-5.135 I0 J-4.35
G1 Y-20.685
G2 X21.597 Y-25.035 I-4.35 J0
G1 X6.628
G2 X2.277 Y-20.685 I0 J4.35
G1 Y-5.135
G2 X6.603 Y-0.785 I4.35 J0
G1 Z-1.2 F20
X6.628 F50
X20.522
X21.597
G2 X25.948 Y-5.135 I0 J-4.35
G1 Y-20.685
G2 X21.597 Y-25.035 I-4.35 J0
G1 X6.628
G2 X2.277 Y-20.685 I0 J4.35
G1 Y-5.135
G2 X6.603 Y-0.785 I4.35 J0
G1 Z-1.8 F20
X6.628 F50
X20.522
X21.597
G2 X25.948 Y-5.135 I0 J-4.35
G1 Y-20.685
G2 X21.597 Y-25.035 I-4.35 J0
G1 X6.628
G2 X2.277 Y-20.685 I0 J4.35
G1 Y-5.135
G2 X6.603 Y-0.785 I4.35 J0
G1 Z-2.4 F20
X6.628 F50
X20.522
X21.597
G2 X25.948 Y-5.135 I0 J-4.35
G1 Y-20.685
G2 X21.597 Y-25.035 I-4.35 J0
G1 X6.628
G2 X2.277 Y-20.685 I0 J4.35
G1 Y-5.135
G2 X6.603 Y-0.785 I4.35 J0
G1 Z-3 F20
X6.628 F50
X20.522
X21.597
G2 X25.948 Y-5.135 I0 J-4.35
G1 Y-20.685
G2 X21.597 Y-25.035 I-4.35 J0
G1 X6.628
G2 X2.277 Y-20.685 I0 J4.35
G1 Y-5.135
G2 X6.603 Y-0.785 I4.35 J0
G1 Z-3.3 F20
X6.628 F50
X20.522
X21.597
G2 X25.948 Y-5.135 I0 J-4.35
G1 Y-20.685
G2 X21.597 Y-25.035 I-4.35 J0
G1 X6.628
G2 X2.277 Y-20.685 I0 J4.35
G1 Y-5.135
G2 X6.603 Y-0.785 I4.35 J0
G1 Z-2.5
Z1
Z2
X-2.838 Y-2.642
Z1
Z0.5 F20
Z-0.6
G2 X-2.053 Y-5.135 I-3.564 J-2.493 F50
G1 Y-20.685
G2 X-6.403 Y-25.035 I-4.35 J0
G1 X-21.372
G2 X-25.722 Y-20.685 I0 J4.35
G1 Y-6.716
Y-5.135
G2 X-21.372 Y-0.785 I4.35 J0
G1 X-6.403
G2 X-2.838 Y-2.642 I0 J-4.35
G1 Z-1.2 F20
G2 X-2.053 Y-5.135 I-3.564 J-2.493 F50
G1 Y-20.685
G2 X-6.403 Y-25.035 I-4.35 J0
G1 X-21.372
G2 X-25.722 Y-20.685 I0 J4.35
G1 Y-6.716
Y-5.135
G2 X-21.372 Y-0.785 I4.35 J0
G1 X-6.403
G2 X-2.838 Y-2.642 I0 J-4.35
G1 Z-1.8 F20
G2 X-2.053 Y-5.135 I-3.564 J-2.493 F50
G1 Y-20.685
G2 X-6.403 Y-25.035 I-4.35 J0
G1 X-21.372
G2 X-25.722 Y-20.685 I0 J4.35
G1 Y-6.716
Y-5.135
G2 X-21.372 Y-0.785 I4.35 J0
G1 X-6.403
G2 X-2.838 Y-2.642 I0 J-4.35
G1 Z-2.4 F20
G2 X-2.053 Y-5.135 I-3.564 J-2.493 F50
G1 Y-20.685
G2 X-6.403 Y-25.035 I-4.35 J0
G1 X-21.372
G2 X-25.722 Y-20.685 I0 J4.35
G1 Y-6.716
Y-5.135
G2 X-21.372 Y-0.785 I4.35 J0
G1 X-6.403
G2 X-2.838 Y-2.642 I0 J-4.35
G1 Z-3 F20
G2 X-2.053 Y-5.135 I-3.564 J-2.493 F50
G1 Y-20.685
G2 X-6.403 Y-25.035 I-4.35 J0
G1 X-21.372
G2 X-25.722 Y-20.685 I0 J4.35
G1 Y-6.716
Y-5.135
G2 X-21.372 Y-0.785 I4.35 J0
G1 X-6.403
G2 X-2.838 Y-2.642 I0 J-4.35
G1 Z-3.3 F20
G2 X-2.053 Y-5.135 I-3.564 J-2.493 F50
G1 Y-20.685
G2 X-6.403 Y-25.035 I-4.35 J0
G1 X-21.372
G2 X-25.722 Y-20.685 I0 J4.35
G1 Y-6.716
Y-5.135
G2 X-21.372 Y-0.785 I4.35 J0
G1 X-6.403
G2 X-2.838 Y-2.642 I0 J-4.35
G1 Z-2.5
Z1
Z2
X-3.039 Y2.627
Z1
Z0.5 F20
Z-0.6
G2 X-6.102 Y1.365 I-3.064 J3.088 F50
G1 X-21.653
G2 X-26.003 Y5.715 I0 J4.35
G1 Y20.685
G2 X-21.653 Y25.035 I4.35 J0
G1 X-6.102
G2 X-1.753 Y20.685 I0 J-4.35
G1 Y5.715
G2 X-3.039 Y2.627 I-4.35 J0
G1 Z-1.2 F20
G2 X-6.102 Y1.365 I-3.064 J3.088 F50
G1 X-21.653
G2 X-26.003 Y5.715 I0 J4.35
G1 Y20.685
G2 X-21.653 Y25.035 I4.35 J0
G1 X-6.102
G2 X-1.753 Y20.685 I0 J-4.35
G1 Y5.715
G2 X-3.039 Y2.627 I-4.35 J0
G1 Z-1.8 F20
G2 X-6.102 Y1.365 I-3.064 J3.088 F50
G1 X-21.653
G2 X-26.003 Y5.715 I0 J4.35
G1 Y20.685
G2 X-21.653 Y25.035 I4.35 J0
G1 X-6.102
G2 X-1.753 Y20.685 I0 J-4.35
G1 Y5.715
G2 X-3.039 Y2.627 I-4.35 J0
G1 Z-2.4 F20
G2 X-6.102 Y1.365 I-3.064 J3.088 F50
G1 X-21.653
G2 X-26.003 Y5.715 I0 J4.35
G1 Y20.685
G2 X-21.653 Y25.035 I4.35 J0
G1 X-6.102
G2 X-1.753 Y20.685 I0 J-4.35
G1 Y5.715
G2 X-3.039 Y2.627 I-4.35 J0
G1 Z-3 F20
G2 X-6.102 Y1.365 I-3.064 J3.088 F50
G1 X-21.653
G2 X-26.003 Y5.715 I0 J4.35
G1 Y20.685
G2 X-21.653 Y25.035 I4.35 J0
G1 X-6.102
G2 X-1.753 Y20.685 I0 J-4.35
G1 Y5.715
G2 X-3.039 Y2.627 I-4.35 J0
G1 Z-3.3 F20
G2 X-6.102 Y1.365 I-3.064 J3.088 F50
G1 X-21.653
G2 X-26.003 Y5.715 I0 J4.35
G1 Y20.685
G2 X-21.653 Y25.035 I4.35 J0
G1 X-6.102
G2 X-1.753 Y20.685 I0 J-4.35
G1 Y5.715
G2 X-3.039 Y2.627 I-4.35 J0
G1 Z-2.5
Z1
Z2
X-28.052 Y0.184
Z1
Z0.5 F20
Z-0.6
Y-6.685 F50
G2 X-32.403 Y-11.035 I-4.35 J0
G1 X-47.373
G2 X-51.722 Y-6.685 I0 J4.35
G1 Y8.865
G2 X-47.373 Y13.215 I4.35 J0
G1 X-32.403
G2 X-28.052 Y8.865 I0 J-4.35
G1 Y0.184
Z-1.2 F20
Y-6.685 F50
G2 X-32.403 Y-11.035 I-4.35 J0
G1 X-47.373
G2 X-51.722 Y-6.685 I0 J4.35
G1 Y8.865
G2 X-47.373 Y13.215 I4.35 J0
G1 X-32.403
G2 X-28.052 Y8.865 I0 J-4.35
G1 Y0.184
Z-1.8 F20
Y-6.685 F50
G2 X-32.403 Y-11.035 I-4.35 J0
G1 X-47.373
G2 X-51.722 Y-6.685 I0 J4.35
G1 Y8.865
G2 X-47.373 Y13.215 I4.35 J0
G1 X-32.403
G2 X-28.052 Y8.865 I0 J-4.35
G1 Y0.184
Z-2.4 F20
Y-6.685 F50
G2 X-32.403 Y-11.035 I-4.35 J0
G1 X-47.373
G2 X-51.722 Y-6.685 I0 J4.35
G1 Y8.865
G2 X-47.373 Y13.215 I4.35 J0
G1 X-32.403
G2 X-28.052 Y8.865 I0 J-4.35
G1 Y0.184
Z-3 F20
Y-6.685 F50
G2 X-32.403 Y-11.035 I-4.35 J0
G1 X-47.373
G2 X-51.722 Y-6.685 I0 J4.35
G1 Y8.865
G2 X-47.373 Y13.215 I4.35 J0
G1 X-32.403
G2 X-28.052 Y8.865 I0 J-4.35
G1 Y0.184
Z-3.3 F20
Y-6.685 F50
G2 X-32.403 Y-11.035 I-4.35 J0
G1 X-47.373
G2 X-51.722 Y-6.685 I0 J4.35
G1 Y8.865
G2 X-47.373 Y13.215 I4.35 J0
G1 X-32.403
G2 X-28.052 Y8.865 I0 J-4.35
G1 Y0.184
Z-2.5
Z1
Z2
X27.734 Y2.703
Z1
Z0.5 F20
Z-0.6
G2 X26.522 Y5.715 I3.139 J3.012 F50
G1 Y20.685
G2 X30.872 Y25.035 I4.35 J0
G1 X46.423
G2 X50.772 Y20.685 I0 J-4.35
G1 Y5.715
G2 X46.423 Y1.365 I-4.35 J0
G1 X31.791
X30.872
G2 X27.734 Y2.703 I0 J4.35
G1 Z-1.2 F20
G2 X26.522 Y5.715 I3.139 J3.012 F50
G1 Y20.685
G2 X30.872 Y25.035 I4.35 J0
G1 X46.423
G2 X50.772 Y20.685 I0 J-4.35
G1 Y5.715
G2 X46.423 Y1.365 I-4.35 J0
G1 X31.791
X30.872
G2 X27.734 Y2.703 I0 J4.35
G1 Z-1.8 F20
G2 X26.522 Y5.715 I3.139 J3.012 F50
G1 Y20.685
G2 X30.872 Y25.035 I4.35 J0
G1 X46.423
G2 X50.772 Y20.685 I0 J-4.35
G1 Y5.715
G2 X46.423 Y1.365 I-4.35 J0
G1 X31.791
X30.872
G2 X27.734 Y2.703 I0 J4.35
G1 Z-2.4 F20
G2 X26.522 Y5.715 I3.139 J3.012 F50
G1 Y20.685
G2 X30.872 Y25.035 I4.35 J0
G1 X46.423
G2 X50.772 Y20.685 I0 J-4.35
G1 Y5.715
G2 X46.423 Y1.365 I-4.35 J0
G1 X31.791
X30.872
G2 X27.734 Y2.703 I0 J4.35
G1 Z-3 F20
G2 X26.522 Y5.715 I3.139 J3.012 F50
G1 Y20.685
G2 X30.872 Y25.035 I4.35 J0
G1 X46.423
G2 X50.772 Y20.685 I0 J-4.35
G1 Y5.715
G2 X46.423 Y1.365 I-4.35 J0
G1 X31.791
X30.872
G2 X27.734 Y2.703 I0 J4.35
G1 Z-3.3 F20
G2 X26.522 Y5.715 I3.139 J3.012 F50
G1 Y20.685
G2 X30.872 Y25.035 I4.35 J0
G1 X46.423
G2 X50.772 Y20.685 I0 J-4.35
G1 Y5.715
G2 X46.423 Y1.365 I-4.35 J0
G1 X31.791
X30.872
G2 X27.734 Y2.703 I0 J4.35
G1 Z-2.5
Z1
Z2
X28.632 Y-1.908
Z1
Z0.5 F20
Z-0.6
G2 X31.823 Y-0.515 I3.19 J-2.957 F50
G1 X47.373
G2 X51.722 Y-4.865 I0 J-4.35
G1 Y-19.835
G2 X47.373 Y-24.185 I-4.35 J0
G1 X31.823
G2 X27.472 Y-19.835 I0 J4.35
G1 Y-5.104
Y-4.865
G2 X28.632 Y-1.908 I4.35 J0
G1 Z-1.2 F20
G2 X31.823 Y-0.515 I3.19 J-2.957 F50
G1 X47.373
G2 X51.722 Y-4.865 I0 J-4.35
G1 Y-19.835
G2 X47.373 Y-24.185 I-4.35 J0
G1 X31.823
G2 X27.472 Y-19.835 I0 J4.35
G1 Y-5.104
Y-4.865
G2 X28.632 Y-1.908 I4.35 J0
G1 Z-1.8 F20
G2 X31.823 Y-0.515 I3.19 J-2.957 F50
G1 X47.373
G2 X51.722 Y-4.865 I0 J-4.35
G1 Y-19.835
G2 X47.373 Y-24.185 I-4.35 J0
G1 X31.823
G2 X27.472 Y-19.835 I0 J4.35
G1 Y-5.104
Y-4.865
G2 X28.632 Y-1.908 I4.35 J0
G1 Z-2.4 F20
G2 X31.823 Y-0.515 I3.19 J-2.957 F50
G1 X47.373
G2 X51.722 Y-4.865 I0 J-4.35
G1 Y-19.835
G2 X47.373 Y-24.185 I-4.35 J0
G1 X31.823
G2 X27.472 Y-19.835 I0 J4.35
G1 Y-5.104
Y-4.865
G2 X28.632 Y-1.908 I4.35 J0
G1 Z-3 F20
G2 X31.823 Y-0.515 I3.19 J-2.957 F50
G1 X47.373
G2 X51.722 Y-4.865 I0 J-4.35
G1 Y-19.835
G2 X47.373 Y-24.185 I-4.35 J0
G1 X31.823
G2 X27.472 Y-19.835 I0 J4.35
G1 Y-5.104
Y-4.865
G2 X28.632 Y-1.908 I4.35 J0
G1 Z-3.3 F20
G2 X31.823 Y-0.515 I3.19 J-2.957 F50
G1 X47.373
G2 X51.722 Y-4.865 I0 J-4.35
G1 Y-19.835
G2 X47.373 Y-24.185 I-4.35 J0
G1 X31.823
G2 X27.472 Y-19.835 I0 J4.35
G1 Y-5.104
Y-4.865
G2 X28.632 Y-1.908 I4.35 J0
G1 Z1
Z3
M5
M30
