(Face_2)
(T1  D=1 CR=0 - ZMIN=-1.7 - flat end mill)
G90 G94
G17
G21
(When using Fusion 360 for Personal Use, the feedrate of)
(rapid moves is reduced to match the feedrate of cutting)
(moves, which can increase machining time. Unrestricted rapid)
(moves are available with a Fusion 360 Subscription.)

(2D Pocket1)
S20000 M3
G54
G0 X-0.25 Y58.25
Z3
G1 Z1 F500
Z0.1
Z-0.8 F200
Y-43.5 F500
X0.25
Y58.5
X-0.25
Y58.25
Z1
Z3
(When using Fusion 360 for Personal Use, the feedrate of)
(rapid moves is reduced to match the feedrate of cutting)
(moves, which can increase machining time. Unrestricted rapid)
(moves are available with a Fusion 360 Subscription.)

(2D Pocket1 2)
G0 X0.16 Y-60.402
G1 Z3 F500
Z1
Z0.1
Z-0.3
Y-60.398
Y-60
G3 X-0.16 Y-60 I-0.16 J0
G1 Y-60.391
Y-60.402
Z1
Z2
X0.451 Y-60.401
Z1
Z0.1 F200
Z-0.3 F500
Y-60.393
X0.45 Y-60
G3 X-0.45 Y-60 I-0.45 J0
G1 X-0.451 Y-60.391
Y-60.402
Z1
Z2
X0.951 Y-60.401
Z1
Z0.1 F200
Z-0.3 F500
Y-60.393
X0.95 Y-60
G3 X-0.95 Y-60 I-0.95 J0
G1 X-0.951 Y-60.391
Y-60.402
Z1
Z2
X1.451 Y-60.401
Z1
Z0.1 F200
Z-0.3 F500
Y-60.393
X1.45 Y-60
G3 X-1.45 Y-60 I-1.45 J0
G1 X-1.451 Y-60.391
Y-60.402
Z1
Z2
X1.951 Y-60.401
Z1
Z0.1 F200
Z-0.3 F500
Y-60.393
X1.95 Y-60
G3 X-1.95 Y-60 I-1.95 J0
G1 X-1.951 Y-60.391
Y-60.402
Z1
Z2
X2.451 Y-60.401
Z1
Z0.1 F200
Z-0.3 F500
Y-60.393
X2.45 Y-60
G3 X-2.45 Y-60 I-2.45 J0
G1 X-2.451 Y-60.391
Y-60.402
Z1
Z2
X2.951 Y-60.401
Z1
Z0.1 F200
Z-0.3 F500
Y-60.393
X2.95 Y-60
G3 X-2.95 Y-60 I-2.95 J0
G1 X-2.951 Y-60.391
Y-60.402
Z1
Z2
X3.451 Y-60.401
Z1
Z0.1 F200
Z-0.3 F500
Y-60.393
X3.45 Y-60
G3 X-3.45 Y-60 I-3.45 J0
G1 X-3.451 Y-60.391
Y-60.402
Z1
Z2
X3.951 Y-60.401
Z1
Z0.1 F200
Z-0.3 F500
Y-60.393
X3.95 Y-60
G3 X-3.95 Y-60 I-3.95 J0
G1 X-3.951 Y-60.391
Y-60.402
Z1
Z2
X4.451 Y-60.401
Z1
Z0.1 F200
Z-0.3 F500
Y-60.393
X4.45 Y-60
G3 X-4.45 Y-60 I-4.45 J0
G1 X-4.451 Y-60.391
Y-60.402
Z1
Z2
X4.951 Y-60.401
Z1
Z0.1 F200
Z-0.3 F500
Y-60.393
X4.95 Y-60
G3 X-4.95 Y-60 I-4.95 J0
G1 X-4.951 Y-60.391
Y-60.402
Z1
Z2
X5.451 Y-60.401
Z1
Z0.1 F200
Z-0.3 F500
Y-60.393
X5.45 Y-60
G3 X-5.45 Y-60 I-5.45 J0
G1 X-5.451 Y-60.391
Y-60.402
Z1
Z2
X5.951 Y-60.401
Z1
Z0.1 F200
Z-0.3 F500
Y-60.393
X5.95 Y-60
G3 X-5.95 Y-60 I-5.95 J0
G1 X-5.951 Y-60.391
Y-60.402
Z1
Z2
X6.451 Y-60.401
Z1
Z0.1 F200
Z-0.3 F500
Y-60.393
X6.45 Y-60
G3 X-6.45 Y-60 I-6.45 J0
G1 X-6.451 Y-60.391
Y-60.402
Z1
Z2
X6.951 Y-60.401
Z1
Z0.1 F200
Z-0.3 F500
Y-60.393
X6.95 Y-60
G3 X-6.95 Y-60 I-6.95 J0
G1 X-6.951 Y-60.391
Y-60.402
Z1
Z2
X7.451 Y-60.401
Z1
Z0.1 F200
Z-0.3 F500
Y-60.393
X7.45 Y-60
G3 X-7.45 Y-60 I-7.45 J0
G1 X-7.451 Y-60.391
Y-60.402
Z1
Z2
X7.951 Y-60.401
Z1
Z0.1 F200
Z-0.3 F500
Y-60.393
X7.95 Y-60
G3 X-7.95 Y-60 I-7.95 J0
G1 X-7.951 Y-60.391
Y-60.402
Z1
Z2
X8.451 Y-60.401
Z1
Z0.1 F200
Z-0.3 F500
Y-60.393
X8.45 Y-60
G3 X-8.45 Y-60 I-8.45 J0
G1 X-8.451 Y-60.391
Y-60.402
Z1
Z2
X8.951 Y-60.401
Z1
Z0.1 F200
Z-0.3 F500
Y-60.393
X8.95 Y-60
G3 X-8.95 Y-60 I-8.95 J0
G1 X-8.951 Y-60.391
Y-60.402
Z1
Z2
X9.451 Y-60.401
Z1
Z0.1 F200
Z-0.3 F500
Y-60.393
X9.45 Y-60
G3 X-9.45 Y-60 I-9.45 J0
G1 X-9.451 Y-60.391
Y-60.402
Z1
Z2
X9.951 Y-60.401
Z1
Z0.1 F200
Z-0.3 F500
Y-60.393
X9.95 Y-60
G3 X-9.95 Y-60 I-9.95 J0
G1 X-9.951 Y-60.391
Y-60.402
Z1
Z2
X10.451 Y-60.401
Z1
Z0.1 F200
Z-0.3 F500
Y-60.393
X10.45 Y-60
G3 X-10.45 Y-60 I-10.45 J0
G1 X-10.451 Y-60.391
Y-60.402
Z1
Z2
X10.951 Y-60.401
Z1
Z0.1 F200
Z-0.3 F500
Y-60.393
X10.95 Y-60
G3 X-10.95 Y-60 I-10.95 J0
G1 X-10.951 Y-60.391
Y-60.402
Z1
Z2
X11.451 Y-60.401
Z1
Z0.1 F200
Z-0.3 F500
Y-60.393
X11.45 Y-60
G3 X-11.45 Y-60 I-11.45 J0
G1 X-11.451 Y-60.391
Y-60.402
Z1
Z2
X11.951 Y-60.401
Z1
Z0.1 F200
Z-0.3 F500
Y-60.393
X11.95 Y-60
G3 X-11.95 Y-60 I-11.95 J0
G1 X-11.951 Y-60.391
Y-60.402
Z1
Z2
X12.451 Y-60.401
Z1
Z0.1 F200
Z-0.3 F500
Y-60.393
X12.45 Y-60
G3 X-12.45 Y-60 I-12.45 J0
G1 X-12.451 Y-60.391
Y-60.402
Z1
Z2
X12.951 Y-60.401
Z1
Z0.1 F200
Z-0.3 F500
Y-60.393
X12.95 Y-60
G3 X-12.95 Y-60 I-12.95 J0
G1 X-12.951 Y-60.391
Y-60.402
Z1
Z2
X13.451 Y-60.401
Z1
Z0.1 F200
Z-0.3 F500
X13.45 Y-60.393
Y-60
G3 X-13.45 Y-60 I-13.45 J0
G1 Y-60.391
X-13.451 Y-60.402
Z1
Z2
X13.951 Y-60.401
Z1
Z0.1 F200
Z-0.3 F500
X13.95 Y-60.393
Y-60
G3 X-13.95 Y-60 I-13.95 J0
G1 Y-60.391
X-13.951 Y-60.402
Z1
Z2
X14.499 Y-60.423
Z1
Z0.1 F200
Z-0.3 F500
X14.5 Y-60.4
Y-60
G3 X-14.5 Y-60 I-14.5 J0
G1 Y-60.391
Z1
Z3
(When using Fusion 360 for Personal Use, the feedrate of)
(rapid moves is reduced to match the feedrate of cutting)
(moves, which can increase machining time. Unrestricted rapid)
(moves are available with a Fusion 360 Subscription.)

(2D Contour2)
G0 X120 Y-60.5
G1 Z3 F500
Z1
Z-1.7 F200
X15 F500
X-120
G2 X-120.5 Y-60 I0 J0.5
X120.5 Y-60 I120.5 J0
X120 Y-60.5 I-0.5 J0
G1 Z1
Z3
M5
M30
