(Face_1)
(T1  D=1 CR=0 - ZMIN=-6.35 - flat end mill)
G90 G94
G17
G21
(When using Fusion 360 for Personal Use, the feedrate of)
(rapid moves is reduced to match the feedrate of cutting)
(moves, which can increase machining time. Unrestricted rapid)
(moves are available with a Fusion 360 Subscription.)

(2D Contour2)
S20000 M3
G54
G0 X0.475 Y0
Z3
G1 Z1 F50
Z-0.2 F20
G3 X-0.475 Y0 I-0.475 J0 F50
X0.475 Y0 I0.475 J0
G1 Z-0.4 F20
G3 X-0.475 Y0 I-0.475 J0 F50
X0.475 Y0 I0.475 J0
G1 Z-0.6 F20
G3 X-0.475 Y0 I-0.475 J0 F50
X0.475 Y0 I0.475 J0
G1 Z-0.8 F20
G3 X-0.475 Y0 I-0.475 J0 F50
X0.475 Y0 I0.475 J0
G1 Z-1 F20
G3 X-0.475 Y0 I-0.475 J0 F50
X0.475 Y0 I0.475 J0
G1 Z-1.2 F20
G3 X-0.475 Y0 I-0.475 J0 F50
X0.475 Y0 I0.475 J0
G1 Z-1.4 F20
G3 X-0.475 Y0 I-0.475 J0 F50
X0.475 Y0 I0.475 J0
G1 Z-1.6 F20
G3 X-0.475 Y0 I-0.475 J0 F50
X0.475 Y0 I0.475 J0
G1 Z-1.8 F20
G3 X-0.475 Y0 I-0.475 J0 F50
X0.475 Y0 I0.475 J0
G1 Z-2 F20
G3 X-0.475 Y0 I-0.475 J0 F50
X0.475 Y0 I0.475 J0
G1 Z-2.2 F20
G3 X-0.475 Y0 I-0.475 J0 F50
X0.475 Y0 I0.475 J0
G1 Z-2.4 F20
G3 X-0.475 Y0 I-0.475 J0 F50
X0.475 Y0 I0.475 J0
G1 Z-2.6 F20
G3 X-0.475 Y0 I-0.475 J0 F50
X0.475 Y0 I0.475 J0
G1 Z-2.8 F20
G3 X-0.475 Y0 I-0.475 J0 F50
X0.475 Y0 I0.475 J0
G1 Z-3 F20
G3 X-0.475 Y0 I-0.475 J0 F50
X0.475 Y0 I0.475 J0
G1 Z-3.2 F20
G3 X-0.475 Y0 I-0.475 J0 F50
X0.475 Y0 I0.475 J0
G1 Z-3.4 F20
G3 X-0.475 Y0 I-0.475 J0 F50
X0.475 Y0 I0.475 J0
G1 Z-3.6 F20
G3 X-0.475 Y0 I-0.475 J0 F50
X0.475 Y0 I0.475 J0
G1 Z-3.8 F20
G3 X-0.475 Y0 I-0.475 J0 F50
X0.475 Y0 I0.475 J0
G1 Z-4 F20
G3 X-0.475 Y0 I-0.475 J0 F50
X0.475 Y0 I0.475 J0
G1 Z-4.2 F20
G3 X-0.475 Y0 I-0.475 J0 F50
X0.475 Y0 I0.475 J0
G1 Z-4.4 F20
G3 X-0.475 Y0 I-0.475 J0 F50
X0.475 Y0 I0.475 J0
G1 Z-4.6 F20
G3 X-0.475 Y0 I-0.475 J0 F50
X0.475 Y0 I0.475 J0
G1 Z-4.8 F20
G3 X-0.475 Y0 I-0.475 J0 F50
X0.475 Y0 I0.475 J0
G1 Z-5 F20
G3 X-0.475 Y0 I-0.475 J0 F50
X0.475 Y0 I0.475 J0
G1 Z-5.2 F20
G3 X-0.475 Y0 I-0.475 J0 F50
X0.475 Y0 I0.475 J0
G1 Z-5.4 F20
G3 X-0.475 Y0 I-0.475 J0 F50
X0.475 Y0 I0.475 J0
G1 Z-5.6 F20
G3 X-0.475 Y0 I-0.475 J0 F50
X0.475 Y0 I0.475 J0
G1 Z-5.8 F20
G3 X-0.475 Y0 I-0.475 J0 F50
X0.475 Y0 I0.475 J0
G1 Z-6 F20
G3 X-0.475 Y0 I-0.475 J0 F50
X0.475 Y0 I0.475 J0
G1 Z-6.2 F20
G3 X-0.475 Y0 I-0.475 J0 F50
X0.475 Y0 I0.475 J0
G1 Z-6.35 F20
G3 X-0.475 Y0 I-0.475 J0 F50
X0.475 Y0 I0.475 J0
G1 Z3
M5
M30
