(Face_2)
(T1  D=1 CR=0 - ZMIN=-3.2 - flat end mill)
G90 G94
G17
G21
(When using Fusion 360 for Personal Use, the feedrate of)
(rapid moves is reduced to match the feedrate of cutting)
(moves, which can increase machining time. Unrestricted rapid)
(moves are available with a Fusion 360 Subscription.)

(2D Contour3)
S20000 M3
G54
G0 X9.5 Y0
Z3
G1 Z1 F300
Z-0.3 F20
G3 X-9.5 Y0 I-9.5 J0 F300
X9.5 Y0 I9.5 J0
G1 Z-0.6 F20
G3 X-9.5 Y0 I-9.5 J0 F300
X9.5 Y0 I9.5 J0
G1 Z-0.9 F20
G3 X-9.5 Y0 I-9.5 J0 F300
X9.5 Y0 I9.5 J0
G1 Z-1.2 F20
G3 X-9.5 Y0 I-9.5 J0 F300
X9.5 Y0 I9.5 J0
G1 Z-1.5 F20
G3 X-9.5 Y0 I-9.5 J0 F300
X9.5 Y0 I9.5 J0
G1 Z-1.8 F20
G3 X-9.5 Y0 I-9.5 J0 F300
X9.5 Y0 I9.5 J0
G1 Z-2.1 F20
G3 X-9.5 Y0 I-9.5 J0 F300
X9.5 Y0 I9.5 J0
G1 Z-2.4 F20
G3 X-9.5 Y0 I-9.5 J0 F300
X9.5 Y0 I9.5 J0
G1 Z-2.7 F20
G3 X-9.5 Y0 I-9.5 J0 F300
X9.5 Y0 I9.5 J0
G1 Z-3 F20
G3 X-9.5 Y0 I-9.5 J0 F300
X9.5 Y0 I9.5 J0
G1 Z-3.2 F20
G3 X-9.5 Y0 I-9.5 J0 F300
X9.5 Y0 I9.5 J0
G1 Z1
Z3
(When using Fusion 360 for Personal Use, the feedrate of)
(rapid moves is reduced to match the feedrate of cutting)
(moves, which can increase machining time. Unrestricted rapid)
(moves are available with a Fusion 360 Subscription.)

(2D Adaptive1)
G0 X-9.368 Y0.868
G1 Z2 F300
Z0.5
Z-0.2 F20
X-9.442 Y0.875 F300
X-9.577 Y0.809
X-9.668 Y0.689
X-9.733 Y0.554
X-9.782 Y0.413
X-9.818 Y0.267
X-9.839 Y0.103
X-9.852 Y-0.16
X-9.84 Y-0.514
X-9.812 Y-0.867
X-9.779 Y-1.219
X-9.745 Y-1.572
X-9.718 Y-1.747
X-9.647 Y-2.094
X-9.553 Y-2.435
X-9.453 Y-2.775
X-9.248 Y-3.453
X-9.187 Y-3.619
X-9.049 Y-3.945
X-8.89 Y-4.261
X-8.725 Y-4.574
X-8.392 Y-5.199
X-8.299 Y-5.35
X-8.099 Y-5.643
X-7.881 Y-5.921
X-7.658 Y-6.197
X-7.21 Y-6.745
X-7.089 Y-6.874
X-6.835 Y-7.121
X-6.567 Y-7.352
X-6.294 Y-7.578
X-5.747 Y-8.028
X-5.603 Y-8.131
X-5.306 Y-8.323
X-4.997 Y-8.496
X-4.686 Y-8.665
X-4.062 Y-9
X-3.9 Y-9.072
X-3.571 Y-9.201
X-3.234 Y-9.311
X-2.896 Y-9.416
X-2.218 Y-9.622
X-2.046 Y-9.661
X-1.697 Y-9.722
X-1.345 Y-9.764
X-0.993 Y-9.801
X-0.288 Y-9.871
X-0.111 Y-9.874
X0.243 Y-9.866
X0.596 Y-9.838
X0.948 Y-9.805
X1.477 Y-9.754
X1.679 Y-9.732
X2.027 Y-9.666
X2.368 Y-9.573
X2.708 Y-9.473
X3.386 Y-9.268
X3.554 Y-9.212
X3.882 Y-9.08
X4.199 Y-8.922
X4.513 Y-8.758
X5.138 Y-8.425
X5.291 Y-8.337
X5.587 Y-8.142
X5.867 Y-7.925
X6.142 Y-7.702
X6.69 Y-7.254
X6.824 Y-7.137
X7.075 Y-6.888
X7.307 Y-6.62
X7.534 Y-6.348
X7.984 Y-5.801
X8.091 Y-5.661
X8.288 Y-5.366
X8.463 Y-5.059
X8.632 Y-4.748
X8.967 Y-4.124
X9.044 Y-3.964
X9.179 Y-3.637
X9.29 Y-3.301
X9.395 Y-2.963
X9.602 Y-2.285
X9.645 Y-2.114
X9.713 Y-1.766
X9.757 Y-1.415
X9.794 Y-1.063
X9.864 Y-0.358
X9.873 Y-0.181
X9.87 Y0.173
X9.844 Y0.526
X9.812 Y0.879
X9.743 Y1.584
X9.717 Y1.759
X9.644 Y2.105
X9.55 Y2.446
X9.449 Y2.786
X9.244 Y3.464
X9.183 Y3.63
X9.044 Y3.955
X8.884 Y4.271
X8.719 Y4.585
X8.386 Y5.21
X8.293 Y5.36
X8.092 Y5.652
X7.874 Y5.931
X7.651 Y6.206
X7.202 Y6.754
X7.081 Y6.883
X6.826 Y7.129
X6.558 Y7.359
X6.285 Y7.585
X5.738 Y8.035
X5.594 Y8.138
X5.296 Y8.329
X4.987 Y8.502
X4.676 Y8.671
X4.052 Y9.005
X3.89 Y9.077
X3.56 Y9.205
X3.223 Y9.315
X2.885 Y9.419
X2.207 Y9.626
X2.034 Y9.663
X1.685 Y9.724
X1.334 Y9.765
X0.982 Y9.802
X0.453 Y9.855
X0.25 Y9.873
X-0.104 Y9.875
X-0.457 Y9.851
X-0.81 Y9.819
X-1.515 Y9.75
X-1.691 Y9.728
X-2.038 Y9.662
X-2.38 Y9.569
X-2.72 Y9.469
X-3.398 Y9.264
X-3.565 Y9.208
X-3.893 Y9.074
X-4.21 Y8.916
X-4.524 Y8.752
X-5.149 Y8.419
X-5.302 Y8.33
X-5.597 Y8.134
X-5.877 Y7.917
X-6.152 Y7.695
X-6.7 Y7.246
X-6.832 Y7.129
X-7.083 Y6.879
X-7.315 Y6.611
X-7.541 Y6.339
X-7.991 Y5.792
X-8.098 Y5.65
X-8.294 Y5.356
X-8.469 Y5.048
X-8.638 Y4.737
X-8.973 Y4.113
X-9.049 Y3.953
X-9.183 Y3.625
X-9.294 Y3.289
X-9.399 Y2.951
X-9.605 Y2.273
X-9.648 Y2.102
X-9.715 Y1.754
X-9.758 Y1.402
X-9.909 Y1.082
X-10.012 Y0.874
X-10.084 Y0.694
X-10.138 Y0.518
X-10.185 Y0.305
X-10.216 Y0.082
X-10.235 Y-0.247
X-10.227 Y-0.601
X-10.202 Y-0.954
X-10.171 Y-1.306
X-10.131 Y-1.658
X-10.07 Y-2.007
X-9.987 Y-2.351
X-9.892 Y-2.692
X-9.792 Y-3.032
X-9.69 Y-3.371
X-9.575 Y-3.706
X-9.441 Y-4.034
X-9.288 Y-4.353
X-9.126 Y-4.668
X-8.961 Y-4.981
X-8.794 Y-5.293
X-8.609 Y-5.595
X-8.407 Y-5.886
X-8.192 Y-6.167
X-7.971 Y-6.444
X-7.747 Y-6.719
X-7.519 Y-6.989
X-7.274 Y-7.245
X-7.015 Y-7.487
X-6.747 Y-7.718
X-6.476 Y-7.945
X-6.203 Y-8.171
X-5.923 Y-8.387
X-5.63 Y-8.586
X-5.325 Y-8.767
X-5.016 Y-8.939
X-4.705 Y-9.108
X-4.393 Y-9.276
X-4.072 Y-9.425
X-3.743 Y-9.557
X-3.408 Y-9.672
X-3.071 Y-9.779
X-2.732 Y-9.883
X-2.393 Y-9.984
X-2.047 Y-10.061
X-1.698 Y-10.119
X-1.347 Y-10.163
X-0.995 Y-10.202
X-0.643 Y-10.238
X-0.289 Y-10.264
X0.065 Y-10.266
X0.418 Y-10.249
X0.771 Y-10.222
X1.124 Y-10.189
X1.476 Y-10.155
X1.827 Y-10.105
X2.173 Y-10.032
X2.516 Y-9.942
X2.856 Y-9.844
X3.195 Y-9.743
X3.534 Y-9.638
X3.865 Y-9.514
X4.188 Y-9.369
X4.505 Y-9.21
X4.819 Y-9.047
X5.132 Y-8.881
X5.44 Y-8.707
X5.738 Y-8.516
X6.023 Y-8.306
X6.301 Y-8.086
X6.576 Y-7.864
X6.85 Y-7.64
X7.114 Y-7.403
X7.363 Y-7.152
X7.599 Y-6.888
X7.828 Y-6.617
X8.054 Y-6.345
X8.277 Y-6.07
X8.484 Y-5.783
X8.674 Y-5.484
X8.85 Y-5.177
X9.021 Y-4.866
X9.189 Y-4.555
X9.351 Y-4.24
X9.493 Y-3.916
X9.614 Y-3.583
X9.724 Y-3.246
X9.829 Y-2.908
X9.933 Y-2.57
X10.022 Y-2.227
X10.092 Y-1.88
X10.142 Y-1.529
X10.182 Y-1.178
X10.219 Y-0.825
X10.253 Y-0.473
X10.266 Y-0.119
X10.26 Y0.235
X10.237 Y0.588
X10.206 Y0.941
X10.173 Y1.293
X10.133 Y1.645
X10.072 Y1.994
X9.99 Y2.338
X9.895 Y2.68
X9.796 Y3.019
X9.694 Y3.359
X9.58 Y3.694
X9.446 Y4.022
X9.294 Y4.341
X9.132 Y4.656
X8.967 Y4.969
X8.801 Y5.282
X8.616 Y5.584
X8.415 Y5.876
X8.2 Y6.157
X7.979 Y6.434
X7.756 Y6.708
X7.528 Y6.98
X7.284 Y7.236
X7.025 Y7.478
X6.757 Y7.71
X6.486 Y7.937
X6.213 Y8.162
X5.934 Y8.38
X5.641 Y8.579
X5.337 Y8.76
X5.028 Y8.933
X4.716 Y9.102
X4.405 Y9.27
X4.084 Y9.42
X3.756 Y9.552
X3.421 Y9.668
X3.083 Y9.775
X2.745 Y9.88
X2.406 Y9.981
X2.06 Y10.058
X1.711 Y10.117
X1.36 Y10.162
X1.008 Y10.2
X0.656 Y10.236
X0.303 Y10.263
X-0.051 Y10.269
X-0.405 Y10.251
X-0.758 Y10.223
X-1.111 Y10.191
X-1.463 Y10.156
X-1.813 Y10.106
X-2.16 Y10.035
X-2.503 Y9.946
X-2.843 Y9.848
X-3.183 Y9.747
X-3.521 Y9.642
X-3.853 Y9.518
X-4.176 Y9.374
X-4.493 Y9.216
X-4.807 Y9.053
X-5.12 Y8.887
X-5.429 Y8.714
X-5.727 Y8.524
X-6.013 Y8.314
X-6.291 Y8.095
X-6.566 Y7.872
X-6.84 Y7.648
X-7.104 Y7.412
X-7.354 Y7.162
X-7.59 Y6.898
X-7.819 Y6.628
X-8.045 Y6.355
X-8.269 Y6.08
X-8.477 Y5.794
X-8.667 Y5.495
X-8.844 Y5.188
X-9.015 Y4.878
X-9.183 Y4.567
X-9.345 Y4.252
X-9.487 Y3.928
X-9.609 Y3.595
X-9.72 Y3.259
X-9.826 Y2.921
X-9.929 Y2.582
X-10.02 Y2.24
X-10.09 Y1.893
X-10.168 Y1.548
X-10.3 Y1.219
X-10.398 Y0.973
X-10.405 Y0.952
X-10.411 Y0.93
X-10.414 Y0.908
X-10.497 Y0
X-10.327 Y-1.849
X-10.318 Y-1.93
X-10.273 Y-2.09
X-9.793 Y-3.779
X-9.771 Y-3.828
X-8.955 Y-5.467
X-8.91 Y-5.547
X-7.817 Y-6.995
X-7.761 Y-7.067
X-7.754 Y-7.075
X-7.579 Y-7.236
X-6.344 Y-8.361
X-6.329 Y-8.374
X-6.313 Y-8.386
X-4.705 Y-9.382
X-4.68 Y-9.396
X-4.656 Y-9.406
X-2.935 Y-10.073
X-2.855 Y-10.1
X-1.005 Y-10.446
X-0.972 Y-10.452
X-0.925 Y-10.453
X0.925
X0.972 Y-10.452
X1.005 Y-10.446
X2.855 Y-10.1
X2.935 Y-10.073
X4.656 Y-9.406
X4.68 Y-9.396
X4.705 Y-9.382
X6.313 Y-8.386
X6.329 Y-8.374
X6.344 Y-8.361
X7.68 Y-7.143
X7.754 Y-7.075
X7.761 Y-7.067
X7.877 Y-6.914
X8.91 Y-5.547
X8.955 Y-5.467
X9.771 Y-3.828
X9.793 Y-3.779
X10.296 Y-2.01
X10.318 Y-1.93
X10.327 Y-1.849
X10.497 Y0
X10.327 Y1.849
X10.318 Y1.93
X10.273 Y2.09
X9.793 Y3.779
X9.771 Y3.828
X8.955 Y5.467
X8.91 Y5.547
X7.817 Y6.995
X7.761 Y7.067
X7.754 Y7.075
X7.579 Y7.236
X6.344 Y8.361
X6.329 Y8.374
X6.313 Y8.386
X4.705 Y9.382
X4.68 Y9.396
X4.656 Y9.406
X2.935 Y10.073
X2.855 Y10.1
X1.005 Y10.446
X0.972 Y10.452
X0.925 Y10.453
X-0.925
X-0.972 Y10.452
X-1.005 Y10.446
X-2.855 Y10.1
X-2.935 Y10.073
X-4.656 Y9.406
X-4.68 Y9.396
X-4.705 Y9.382
X-6.313 Y8.386
X-6.329 Y8.374
X-6.344 Y8.361
X-7.68 Y7.143
X-7.754 Y7.075
X-7.761 Y7.067
X-7.877 Y6.914
X-8.91 Y5.547
X-8.955 Y5.467
X-9.771 Y3.828
X-9.793 Y3.779
X-10.296 Y2.01
X-10.318 Y1.93
X-10.327 Y1.849
X-10.414 Y0.908
Z2
X-9.368 Y0.868
Z0.3
Z-0.4 F20
X-9.442 Y0.875 F300
X-9.577 Y0.809
X-9.668 Y0.689
X-9.733 Y0.554
X-9.782 Y0.413
X-9.818 Y0.267
X-9.839 Y0.103
X-9.852 Y-0.16
X-9.84 Y-0.514
X-9.812 Y-0.867
X-9.779 Y-1.219
X-9.745 Y-1.572
X-9.718 Y-1.747
X-9.647 Y-2.094
X-9.553 Y-2.435
X-9.453 Y-2.775
X-9.248 Y-3.453
X-9.187 Y-3.619
X-9.049 Y-3.945
X-8.89 Y-4.261
X-8.725 Y-4.574
X-8.392 Y-5.199
X-8.299 Y-5.35
X-8.099 Y-5.643
X-7.881 Y-5.921
X-7.658 Y-6.197
X-7.21 Y-6.745
X-7.089 Y-6.874
X-6.835 Y-7.121
X-6.567 Y-7.352
X-6.294 Y-7.578
X-5.747 Y-8.028
X-5.603 Y-8.131
X-5.306 Y-8.323
X-4.997 Y-8.496
X-4.686 Y-8.665
X-4.062 Y-9
X-3.9 Y-9.072
X-3.571 Y-9.201
X-3.234 Y-9.311
X-2.896 Y-9.416
X-2.218 Y-9.622
X-2.046 Y-9.661
X-1.697 Y-9.722
X-1.345 Y-9.764
X-0.993 Y-9.801
X-0.288 Y-9.871
X-0.111 Y-9.874
X0.243 Y-9.866
X0.596 Y-9.838
X0.948 Y-9.805
X1.477 Y-9.754
X1.679 Y-9.732
X2.027 Y-9.666
X2.368 Y-9.573
X2.708 Y-9.473
X3.386 Y-9.268
X3.554 Y-9.212
X3.882 Y-9.08
X4.199 Y-8.922
X4.513 Y-8.758
X5.138 Y-8.425
X5.291 Y-8.337
X5.587 Y-8.142
X5.867 Y-7.925
X6.142 Y-7.702
X6.69 Y-7.254
X6.824 Y-7.137
X7.075 Y-6.888
X7.307 Y-6.62
X7.534 Y-6.348
X7.984 Y-5.801
X8.091 Y-5.661
X8.288 Y-5.366
X8.463 Y-5.059
X8.632 Y-4.748
X8.967 Y-4.124
X9.044 Y-3.964
X9.179 Y-3.637
X9.29 Y-3.301
X9.395 Y-2.963
X9.602 Y-2.285
X9.645 Y-2.114
X9.713 Y-1.766
X9.757 Y-1.415
X9.794 Y-1.063
X9.864 Y-0.358
X9.873 Y-0.181
X9.87 Y0.173
X9.844 Y0.526
X9.812 Y0.879
X9.743 Y1.584
X9.717 Y1.759
X9.644 Y2.105
X9.55 Y2.446
X9.449 Y2.786
X9.244 Y3.464
X9.183 Y3.63
X9.044 Y3.955
X8.884 Y4.271
X8.719 Y4.585
X8.386 Y5.21
X8.293 Y5.36
X8.092 Y5.652
X7.874 Y5.931
X7.651 Y6.206
X7.202 Y6.754
X7.081 Y6.883
X6.826 Y7.129
X6.558 Y7.359
X6.285 Y7.585
X5.738 Y8.035
X5.594 Y8.138
X5.296 Y8.329
X4.987 Y8.502
X4.676 Y8.671
X4.052 Y9.005
X3.89 Y9.077
X3.56 Y9.205
X3.223 Y9.315
X2.885 Y9.419
X2.207 Y9.626
X2.034 Y9.663
X1.685 Y9.724
X1.334 Y9.765
X0.982 Y9.802
X0.453 Y9.855
X0.25 Y9.873
X-0.104 Y9.875
X-0.457 Y9.851
X-0.81 Y9.819
X-1.515 Y9.75
X-1.691 Y9.728
X-2.038 Y9.662
X-2.38 Y9.569
X-2.72 Y9.469
X-3.398 Y9.264
X-3.565 Y9.208
X-3.893 Y9.074
X-4.21 Y8.916
X-4.524 Y8.752
X-5.149 Y8.419
X-5.302 Y8.33
X-5.597 Y8.134
X-5.877 Y7.917
X-6.152 Y7.695
X-6.7 Y7.246
X-6.832 Y7.129
X-7.083 Y6.879
X-7.315 Y6.611
X-7.541 Y6.339
X-7.991 Y5.792
X-8.098 Y5.65
X-8.294 Y5.356
X-8.469 Y5.048
X-8.638 Y4.737
X-8.973 Y4.113
X-9.049 Y3.953
X-9.183 Y3.625
X-9.294 Y3.289
X-9.399 Y2.951
X-9.605 Y2.273
X-9.648 Y2.102
X-9.715 Y1.754
X-9.758 Y1.402
X-9.909 Y1.082
X-10.012 Y0.874
X-10.084 Y0.694
X-10.138 Y0.518
X-10.185 Y0.305
X-10.216 Y0.082
X-10.235 Y-0.247
X-10.227 Y-0.601
X-10.202 Y-0.954
X-10.171 Y-1.306
X-10.131 Y-1.658
X-10.07 Y-2.007
X-9.987 Y-2.351
X-9.892 Y-2.692
X-9.792 Y-3.032
X-9.69 Y-3.371
X-9.575 Y-3.706
X-9.441 Y-4.034
X-9.288 Y-4.353
X-9.126 Y-4.668
X-8.961 Y-4.981
X-8.794 Y-5.293
X-8.609 Y-5.595
X-8.407 Y-5.886
X-8.192 Y-6.167
X-7.971 Y-6.444
X-7.747 Y-6.719
X-7.519 Y-6.989
X-7.274 Y-7.245
X-7.015 Y-7.487
X-6.747 Y-7.718
X-6.476 Y-7.945
X-6.203 Y-8.171
X-5.923 Y-8.387
X-5.63 Y-8.586
X-5.325 Y-8.767
X-5.016 Y-8.939
X-4.705 Y-9.108
X-4.393 Y-9.276
X-4.072 Y-9.425
X-3.743 Y-9.557
X-3.408 Y-9.672
X-3.071 Y-9.779
X-2.732 Y-9.883
X-2.393 Y-9.984
X-2.047 Y-10.061
X-1.698 Y-10.119
X-1.347 Y-10.163
X-0.995 Y-10.202
X-0.643 Y-10.238
X-0.289 Y-10.264
X0.065 Y-10.266
X0.418 Y-10.249
X0.771 Y-10.222
X1.124 Y-10.189
X1.476 Y-10.155
X1.827 Y-10.105
X2.173 Y-10.032
X2.516 Y-9.942
X2.856 Y-9.844
X3.195 Y-9.743
X3.534 Y-9.638
X3.865 Y-9.514
X4.188 Y-9.369
X4.505 Y-9.21
X4.819 Y-9.047
X5.132 Y-8.881
X5.44 Y-8.707
X5.738 Y-8.516
X6.023 Y-8.306
X6.301 Y-8.086
X6.576 Y-7.864
X6.85 Y-7.64
X7.114 Y-7.403
X7.363 Y-7.152
X7.599 Y-6.888
X7.828 Y-6.617
X8.054 Y-6.345
X8.277 Y-6.07
X8.484 Y-5.783
X8.674 Y-5.484
X8.85 Y-5.177
X9.021 Y-4.866
X9.189 Y-4.555
X9.351 Y-4.24
X9.493 Y-3.916
X9.614 Y-3.583
X9.724 Y-3.246
X9.829 Y-2.908
X9.933 Y-2.57
X10.022 Y-2.227
X10.092 Y-1.88
X10.142 Y-1.529
X10.182 Y-1.178
X10.219 Y-0.825
X10.253 Y-0.473
X10.266 Y-0.119
X10.26 Y0.235
X10.237 Y0.588
X10.206 Y0.941
X10.173 Y1.293
X10.133 Y1.645
X10.072 Y1.994
X9.99 Y2.338
X9.895 Y2.68
X9.796 Y3.019
X9.694 Y3.359
X9.58 Y3.694
X9.446 Y4.022
X9.294 Y4.341
X9.132 Y4.656
X8.967 Y4.969
X8.801 Y5.282
X8.616 Y5.584
X8.415 Y5.876
X8.2 Y6.157
X7.979 Y6.434
X7.756 Y6.708
X7.528 Y6.98
X7.284 Y7.236
X7.025 Y7.478
X6.757 Y7.71
X6.486 Y7.937
X6.213 Y8.162
X5.934 Y8.38
X5.641 Y8.579
X5.337 Y8.76
X5.028 Y8.933
X4.716 Y9.102
X4.405 Y9.27
X4.084 Y9.42
X3.756 Y9.552
X3.421 Y9.668
X3.083 Y9.775
X2.745 Y9.88
X2.406 Y9.981
X2.06 Y10.058
X1.711 Y10.117
X1.36 Y10.162
X1.008 Y10.2
X0.656 Y10.236
X0.303 Y10.263
X-0.051 Y10.269
X-0.405 Y10.251
X-0.758 Y10.223
X-1.111 Y10.191
X-1.463 Y10.156
X-1.813 Y10.106
X-2.16 Y10.035
X-2.503 Y9.946
X-2.843 Y9.848
X-3.183 Y9.747
X-3.521 Y9.642
X-3.853 Y9.518
X-4.176 Y9.374
X-4.493 Y9.216
X-4.807 Y9.053
X-5.12 Y8.887
X-5.429 Y8.714
X-5.727 Y8.524
X-6.013 Y8.314
X-6.291 Y8.095
X-6.566 Y7.872
X-6.84 Y7.648
X-7.104 Y7.412
X-7.354 Y7.162
X-7.59 Y6.898
X-7.819 Y6.628
X-8.045 Y6.355
X-8.269 Y6.08
X-8.477 Y5.794
X-8.667 Y5.495
X-8.844 Y5.188
X-9.015 Y4.878
X-9.183 Y4.567
X-9.345 Y4.252
X-9.487 Y3.928
X-9.609 Y3.595
X-9.72 Y3.259
X-9.826 Y2.921
X-9.929 Y2.582
X-10.02 Y2.24
X-10.09 Y1.893
X-10.168 Y1.548
X-10.3 Y1.219
X-10.398 Y0.973
X-10.405 Y0.952
X-10.411 Y0.93
X-10.414 Y0.908
X-10.497 Y0
X-10.327 Y-1.849
X-10.318 Y-1.93
X-10.273 Y-2.09
X-9.793 Y-3.779
X-9.771 Y-3.828
X-8.955 Y-5.467
X-8.91 Y-5.547
X-7.817 Y-6.995
X-7.761 Y-7.067
X-7.754 Y-7.075
X-7.579 Y-7.236
X-6.344 Y-8.361
X-6.329 Y-8.374
X-6.313 Y-8.386
X-4.705 Y-9.382
X-4.68 Y-9.396
X-4.656 Y-9.406
X-2.935 Y-10.073
X-2.855 Y-10.1
X-1.005 Y-10.446
X-0.972 Y-10.452
X-0.925 Y-10.453
X0.925
X0.972 Y-10.452
X1.005 Y-10.446
X2.855 Y-10.1
X2.935 Y-10.073
X4.656 Y-9.406
X4.68 Y-9.396
X4.705 Y-9.382
X6.313 Y-8.386
X6.329 Y-8.374
X6.344 Y-8.361
X7.68 Y-7.143
X7.754 Y-7.075
X7.761 Y-7.067
X7.877 Y-6.914
X8.91 Y-5.547
X8.955 Y-5.467
X9.771 Y-3.828
X9.793 Y-3.779
X10.296 Y-2.01
X10.318 Y-1.93
X10.327 Y-1.849
X10.497 Y0
X10.327 Y1.849
X10.318 Y1.93
X10.273 Y2.09
X9.793 Y3.779
X9.771 Y3.828
X8.955 Y5.467
X8.91 Y5.547
X7.817 Y6.995
X7.761 Y7.067
X7.754 Y7.075
X7.579 Y7.236
X6.344 Y8.361
X6.329 Y8.374
X6.313 Y8.386
X4.705 Y9.382
X4.68 Y9.396
X4.656 Y9.406
X2.935 Y10.073
X2.855 Y10.1
X1.005 Y10.446
X0.972 Y10.452
X0.925 Y10.453
X-0.925
X-0.972 Y10.452
X-1.005 Y10.446
X-2.855 Y10.1
X-2.935 Y10.073
X-4.656 Y9.406
X-4.68 Y9.396
X-4.705 Y9.382
X-6.313 Y8.386
X-6.329 Y8.374
X-6.344 Y8.361
X-7.68 Y7.143
X-7.754 Y7.075
X-7.761 Y7.067
X-7.877 Y6.914
X-8.91 Y5.547
X-8.955 Y5.467
X-9.771 Y3.828
X-9.793 Y3.779
X-10.296 Y2.01
X-10.318 Y1.93
X-10.327 Y1.849
X-10.414 Y0.908
Z2
X-9.368 Y0.868
Z0.1
Z-0.6 F20
X-9.442 Y0.875 F300
X-9.577 Y0.809
X-9.668 Y0.689
X-9.733 Y0.554
X-9.782 Y0.413
X-9.818 Y0.267
X-9.839 Y0.103
X-9.852 Y-0.16
X-9.84 Y-0.514
X-9.812 Y-0.867
X-9.779 Y-1.219
X-9.745 Y-1.572
X-9.718 Y-1.747
X-9.647 Y-2.094
X-9.553 Y-2.435
X-9.453 Y-2.775
X-9.248 Y-3.453
X-9.187 Y-3.619
X-9.049 Y-3.945
X-8.89 Y-4.261
X-8.725 Y-4.574
X-8.392 Y-5.199
X-8.299 Y-5.35
X-8.099 Y-5.643
X-7.881 Y-5.921
X-7.658 Y-6.197
X-7.21 Y-6.745
X-7.089 Y-6.874
X-6.835 Y-7.121
X-6.567 Y-7.352
X-6.294 Y-7.578
X-5.747 Y-8.028
X-5.603 Y-8.131
X-5.306 Y-8.323
X-4.997 Y-8.496
X-4.686 Y-8.665
X-4.062 Y-9
X-3.9 Y-9.072
X-3.571 Y-9.201
X-3.234 Y-9.311
X-2.896 Y-9.416
X-2.218 Y-9.622
X-2.046 Y-9.661
X-1.697 Y-9.722
X-1.345 Y-9.764
X-0.993 Y-9.801
X-0.288 Y-9.871
X-0.111 Y-9.874
X0.243 Y-9.866
X0.596 Y-9.838
X0.948 Y-9.805
X1.477 Y-9.754
X1.679 Y-9.732
X2.027 Y-9.666
X2.368 Y-9.573
X2.708 Y-9.473
X3.386 Y-9.268
X3.554 Y-9.212
X3.882 Y-9.08
X4.199 Y-8.922
X4.513 Y-8.758
X5.138 Y-8.425
X5.291 Y-8.337
X5.587 Y-8.142
X5.867 Y-7.925
X6.142 Y-7.702
X6.69 Y-7.254
X6.824 Y-7.137
X7.075 Y-6.888
X7.307 Y-6.62
X7.534 Y-6.348
X7.984 Y-5.801
X8.091 Y-5.661
X8.288 Y-5.366
X8.463 Y-5.059
X8.632 Y-4.748
X8.967 Y-4.124
X9.044 Y-3.964
X9.179 Y-3.637
X9.29 Y-3.301
X9.395 Y-2.963
X9.602 Y-2.285
X9.645 Y-2.114
X9.713 Y-1.766
X9.757 Y-1.415
X9.794 Y-1.063
X9.864 Y-0.358
X9.873 Y-0.181
X9.87 Y0.173
X9.844 Y0.526
X9.812 Y0.879
X9.743 Y1.584
X9.717 Y1.759
X9.644 Y2.105
X9.55 Y2.446
X9.449 Y2.786
X9.244 Y3.464
X9.183 Y3.63
X9.044 Y3.955
X8.884 Y4.271
X8.719 Y4.585
X8.386 Y5.21
X8.293 Y5.36
X8.092 Y5.652
X7.874 Y5.931
X7.651 Y6.206
X7.202 Y6.754
X7.081 Y6.883
X6.826 Y7.129
X6.558 Y7.359
X6.285 Y7.585
X5.738 Y8.035
X5.594 Y8.138
X5.296 Y8.329
X4.987 Y8.502
X4.676 Y8.671
X4.052 Y9.005
X3.89 Y9.077
X3.56 Y9.205
X3.223 Y9.315
X2.885 Y9.419
X2.207 Y9.626
X2.034 Y9.663
X1.685 Y9.724
X1.334 Y9.765
X0.982 Y9.802
X0.453 Y9.855
X0.25 Y9.873
X-0.104 Y9.875
X-0.457 Y9.851
X-0.81 Y9.819
X-1.515 Y9.75
X-1.691 Y9.728
X-2.038 Y9.662
X-2.38 Y9.569
X-2.72 Y9.469
X-3.398 Y9.264
X-3.565 Y9.208
X-3.893 Y9.074
X-4.21 Y8.916
X-4.524 Y8.752
X-5.149 Y8.419
X-5.302 Y8.33
X-5.597 Y8.134
X-5.877 Y7.917
X-6.152 Y7.695
X-6.7 Y7.246
X-6.832 Y7.129
X-7.083 Y6.879
X-7.315 Y6.611
X-7.541 Y6.339
X-7.991 Y5.792
X-8.098 Y5.65
X-8.294 Y5.356
X-8.469 Y5.048
X-8.638 Y4.737
X-8.973 Y4.113
X-9.049 Y3.953
X-9.183 Y3.625
X-9.294 Y3.289
X-9.399 Y2.951
X-9.605 Y2.273
X-9.648 Y2.102
X-9.715 Y1.754
X-9.758 Y1.402
X-9.909 Y1.082
X-10.012 Y0.874
X-10.084 Y0.694
X-10.138 Y0.518
X-10.185 Y0.305
X-10.216 Y0.082
X-10.235 Y-0.247
X-10.227 Y-0.601
X-10.202 Y-0.954
X-10.171 Y-1.306
X-10.131 Y-1.658
X-10.07 Y-2.007
X-9.987 Y-2.351
X-9.892 Y-2.692
X-9.792 Y-3.032
X-9.69 Y-3.371
X-9.575 Y-3.706
X-9.441 Y-4.034
X-9.288 Y-4.353
X-9.126 Y-4.668
X-8.961 Y-4.981
X-8.794 Y-5.293
X-8.609 Y-5.595
X-8.407 Y-5.886
X-8.192 Y-6.167
X-7.971 Y-6.444
X-7.747 Y-6.719
X-7.519 Y-6.989
X-7.274 Y-7.245
X-7.015 Y-7.487
X-6.747 Y-7.718
X-6.476 Y-7.945
X-6.203 Y-8.171
X-5.923 Y-8.387
X-5.63 Y-8.586
X-5.325 Y-8.767
X-5.016 Y-8.939
X-4.705 Y-9.108
X-4.393 Y-9.276
X-4.072 Y-9.425
X-3.743 Y-9.557
X-3.408 Y-9.672
X-3.071 Y-9.779
X-2.732 Y-9.883
X-2.393 Y-9.984
X-2.047 Y-10.061
X-1.698 Y-10.119
X-1.347 Y-10.163
X-0.995 Y-10.202
X-0.643 Y-10.238
X-0.289 Y-10.264
X0.065 Y-10.266
X0.418 Y-10.249
X0.771 Y-10.222
X1.124 Y-10.189
X1.476 Y-10.155
X1.827 Y-10.105
X2.173 Y-10.032
X2.516 Y-9.942
X2.856 Y-9.844
X3.195 Y-9.743
X3.534 Y-9.638
X3.865 Y-9.514
X4.188 Y-9.369
X4.505 Y-9.21
X4.819 Y-9.047
X5.132 Y-8.881
X5.44 Y-8.707
X5.738 Y-8.516
X6.023 Y-8.306
X6.301 Y-8.086
X6.576 Y-7.864
X6.85 Y-7.64
X7.114 Y-7.403
X7.363 Y-7.152
X7.599 Y-6.888
X7.828 Y-6.617
X8.054 Y-6.345
X8.277 Y-6.07
X8.484 Y-5.783
X8.674 Y-5.484
X8.85 Y-5.177
X9.021 Y-4.866
X9.189 Y-4.555
X9.351 Y-4.24
X9.493 Y-3.916
X9.614 Y-3.583
X9.724 Y-3.246
X9.829 Y-2.908
X9.933 Y-2.57
X10.022 Y-2.227
X10.092 Y-1.88
X10.142 Y-1.529
X10.182 Y-1.178
X10.219 Y-0.825
X10.253 Y-0.473
X10.266 Y-0.119
X10.26 Y0.235
X10.237 Y0.588
X10.206 Y0.941
X10.173 Y1.293
X10.133 Y1.645
X10.072 Y1.994
X9.99 Y2.338
X9.895 Y2.68
X9.796 Y3.019
X9.694 Y3.359
X9.58 Y3.694
X9.446 Y4.022
X9.294 Y4.341
X9.132 Y4.656
X8.967 Y4.969
X8.801 Y5.282
X8.616 Y5.584
X8.415 Y5.876
X8.2 Y6.157
X7.979 Y6.434
X7.756 Y6.708
X7.528 Y6.98
X7.284 Y7.236
X7.025 Y7.478
X6.757 Y7.71
X6.486 Y7.937
X6.213 Y8.162
X5.934 Y8.38
X5.641 Y8.579
X5.337 Y8.76
X5.028 Y8.933
X4.716 Y9.102
X4.405 Y9.27
X4.084 Y9.42
X3.756 Y9.552
X3.421 Y9.668
X3.083 Y9.775
X2.745 Y9.88
X2.406 Y9.981
X2.06 Y10.058
X1.711 Y10.117
X1.36 Y10.162
X1.008 Y10.2
X0.656 Y10.236
X0.303 Y10.263
X-0.051 Y10.269
X-0.405 Y10.251
X-0.758 Y10.223
X-1.111 Y10.191
X-1.463 Y10.156
X-1.813 Y10.106
X-2.16 Y10.035
X-2.503 Y9.946
X-2.843 Y9.848
X-3.183 Y9.747
X-3.521 Y9.642
X-3.853 Y9.518
X-4.176 Y9.374
X-4.493 Y9.216
X-4.807 Y9.053
X-5.12 Y8.887
X-5.429 Y8.714
X-5.727 Y8.524
X-6.013 Y8.314
X-6.291 Y8.095
X-6.566 Y7.872
X-6.84 Y7.648
X-7.104 Y7.412
X-7.354 Y7.162
X-7.59 Y6.898
X-7.819 Y6.628
X-8.045 Y6.355
X-8.269 Y6.08
X-8.477 Y5.794
X-8.667 Y5.495
X-8.844 Y5.188
X-9.015 Y4.878
X-9.183 Y4.567
X-9.345 Y4.252
X-9.487 Y3.928
X-9.609 Y3.595
X-9.72 Y3.259
X-9.826 Y2.921
X-9.929 Y2.582
X-10.02 Y2.24
X-10.09 Y1.893
X-10.168 Y1.548
X-10.3 Y1.219
X-10.398 Y0.973
X-10.405 Y0.952
X-10.411 Y0.93
X-10.414 Y0.908
X-10.497 Y0
X-10.327 Y-1.849
X-10.318 Y-1.93
X-10.273 Y-2.09
X-9.793 Y-3.779
X-9.771 Y-3.828
X-8.955 Y-5.467
X-8.91 Y-5.547
X-7.817 Y-6.995
X-7.761 Y-7.067
X-7.754 Y-7.075
X-7.579 Y-7.236
X-6.344 Y-8.361
X-6.329 Y-8.374
X-6.313 Y-8.386
X-4.705 Y-9.382
X-4.68 Y-9.396
X-4.656 Y-9.406
X-2.935 Y-10.073
X-2.855 Y-10.1
X-1.005 Y-10.446
X-0.972 Y-10.452
X-0.925 Y-10.453
X0.925
X0.972 Y-10.452
X1.005 Y-10.446
X2.855 Y-10.1
X2.935 Y-10.073
X4.656 Y-9.406
X4.68 Y-9.396
X4.705 Y-9.382
X6.313 Y-8.386
X6.329 Y-8.374
X6.344 Y-8.361
X7.68 Y-7.143
X7.754 Y-7.075
X7.761 Y-7.067
X7.877 Y-6.914
X8.91 Y-5.547
X8.955 Y-5.467
X9.771 Y-3.828
X9.793 Y-3.779
X10.296 Y-2.01
X10.318 Y-1.93
X10.327 Y-1.849
X10.497 Y0
X10.327 Y1.849
X10.318 Y1.93
X10.273 Y2.09
X9.793 Y3.779
X9.771 Y3.828
X8.955 Y5.467
X8.91 Y5.547
X7.817 Y6.995
X7.761 Y7.067
X7.754 Y7.075
X7.579 Y7.236
X6.344 Y8.361
X6.329 Y8.374
X6.313 Y8.386
X4.705 Y9.382
X4.68 Y9.396
X4.656 Y9.406
X2.935 Y10.073
X2.855 Y10.1
X1.005 Y10.446
X0.972 Y10.452
X0.925 Y10.453
X-0.925
X-0.972 Y10.452
X-1.005 Y10.446
X-2.855 Y10.1
X-2.935 Y10.073
X-4.656 Y9.406
X-4.68 Y9.396
X-4.705 Y9.382
X-6.313 Y8.386
X-6.329 Y8.374
X-6.344 Y8.361
X-7.68 Y7.143
X-7.754 Y7.075
X-7.761 Y7.067
X-7.877 Y6.914
X-8.91 Y5.547
X-8.955 Y5.467
X-9.771 Y3.828
X-9.793 Y3.779
X-10.296 Y2.01
X-10.318 Y1.93
X-10.327 Y1.849
X-10.414 Y0.908
Z2
X-9.368 Y0.868
Z-0.1
Z-0.8 F20
X-9.442 Y0.875 F300
X-9.577 Y0.809
X-9.668 Y0.689
X-9.733 Y0.554
X-9.782 Y0.413
X-9.818 Y0.267
X-9.839 Y0.103
X-9.852 Y-0.16
X-9.84 Y-0.514
X-9.812 Y-0.867
X-9.779 Y-1.219
X-9.745 Y-1.572
X-9.718 Y-1.747
X-9.647 Y-2.094
X-9.553 Y-2.435
X-9.453 Y-2.775
X-9.248 Y-3.453
X-9.187 Y-3.619
X-9.049 Y-3.945
X-8.89 Y-4.261
X-8.725 Y-4.574
X-8.392 Y-5.199
X-8.299 Y-5.35
X-8.099 Y-5.643
X-7.881 Y-5.921
X-7.658 Y-6.197
X-7.21 Y-6.745
X-7.089 Y-6.874
X-6.835 Y-7.121
X-6.567 Y-7.352
X-6.294 Y-7.578
X-5.747 Y-8.028
X-5.603 Y-8.131
X-5.306 Y-8.323
X-4.997 Y-8.496
X-4.686 Y-8.665
X-4.062 Y-9
X-3.9 Y-9.072
X-3.571 Y-9.201
X-3.234 Y-9.311
X-2.896 Y-9.416
X-2.218 Y-9.622
X-2.046 Y-9.661
X-1.697 Y-9.722
X-1.345 Y-9.764
X-0.993 Y-9.801
X-0.288 Y-9.871
X-0.111 Y-9.874
X0.243 Y-9.866
X0.596 Y-9.838
X0.948 Y-9.805
X1.477 Y-9.754
X1.679 Y-9.732
X2.027 Y-9.666
X2.368 Y-9.573
X2.708 Y-9.473
X3.386 Y-9.268
X3.554 Y-9.212
X3.882 Y-9.08
X4.199 Y-8.922
X4.513 Y-8.758
X5.138 Y-8.425
X5.291 Y-8.337
X5.587 Y-8.142
X5.867 Y-7.925
X6.142 Y-7.702
X6.69 Y-7.254
X6.824 Y-7.137
X7.075 Y-6.888
X7.307 Y-6.62
X7.534 Y-6.348
X7.984 Y-5.801
X8.091 Y-5.661
X8.288 Y-5.366
X8.463 Y-5.059
X8.632 Y-4.748
X8.967 Y-4.124
X9.044 Y-3.964
X9.179 Y-3.637
X9.29 Y-3.301
X9.395 Y-2.963
X9.602 Y-2.285
X9.645 Y-2.114
X9.713 Y-1.766
X9.757 Y-1.415
X9.794 Y-1.063
X9.864 Y-0.358
X9.873 Y-0.181
X9.87 Y0.173
X9.844 Y0.526
X9.812 Y0.879
X9.743 Y1.584
X9.717 Y1.759
X9.644 Y2.105
X9.55 Y2.446
X9.449 Y2.786
X9.244 Y3.464
X9.183 Y3.63
X9.044 Y3.955
X8.884 Y4.271
X8.719 Y4.585
X8.386 Y5.21
X8.293 Y5.36
X8.092 Y5.652
X7.874 Y5.931
X7.651 Y6.206
X7.202 Y6.754
X7.081 Y6.883
X6.826 Y7.129
X6.558 Y7.359
X6.285 Y7.585
X5.738 Y8.035
X5.594 Y8.138
X5.296 Y8.329
X4.987 Y8.502
X4.676 Y8.671
X4.052 Y9.005
X3.89 Y9.077
X3.56 Y9.205
X3.223 Y9.315
X2.885 Y9.419
X2.207 Y9.626
X2.034 Y9.663
X1.685 Y9.724
X1.334 Y9.765
X0.982 Y9.802
X0.453 Y9.855
X0.25 Y9.873
X-0.104 Y9.875
X-0.457 Y9.851
X-0.81 Y9.819
X-1.515 Y9.75
X-1.691 Y9.728
X-2.038 Y9.662
X-2.38 Y9.569
X-2.72 Y9.469
X-3.398 Y9.264
X-3.565 Y9.208
X-3.893 Y9.074
X-4.21 Y8.916
X-4.524 Y8.752
X-5.149 Y8.419
X-5.302 Y8.33
X-5.597 Y8.134
X-5.877 Y7.917
X-6.152 Y7.695
X-6.7 Y7.246
X-6.832 Y7.129
X-7.083 Y6.879
X-7.315 Y6.611
X-7.541 Y6.339
X-7.991 Y5.792
X-8.098 Y5.65
X-8.294 Y5.356
X-8.469 Y5.048
X-8.638 Y4.737
X-8.973 Y4.113
X-9.049 Y3.953
X-9.183 Y3.625
X-9.294 Y3.289
X-9.399 Y2.951
X-9.605 Y2.273
X-9.648 Y2.102
X-9.715 Y1.754
X-9.758 Y1.402
X-9.909 Y1.082
X-10.012 Y0.874
X-10.084 Y0.694
X-10.138 Y0.518
X-10.185 Y0.305
X-10.216 Y0.082
X-10.235 Y-0.247
X-10.227 Y-0.601
X-10.202 Y-0.954
X-10.171 Y-1.306
X-10.131 Y-1.658
X-10.07 Y-2.007
X-9.987 Y-2.351
X-9.892 Y-2.692
X-9.792 Y-3.032
X-9.69 Y-3.371
X-9.575 Y-3.706
X-9.441 Y-4.034
X-9.288 Y-4.353
X-9.126 Y-4.668
X-8.961 Y-4.981
X-8.794 Y-5.293
X-8.609 Y-5.595
X-8.407 Y-5.886
X-8.192 Y-6.167
X-7.971 Y-6.444
X-7.747 Y-6.719
X-7.519 Y-6.989
X-7.274 Y-7.245
X-7.015 Y-7.487
X-6.747 Y-7.718
X-6.476 Y-7.945
X-6.203 Y-8.171
X-5.923 Y-8.387
X-5.63 Y-8.586
X-5.325 Y-8.767
X-5.016 Y-8.939
X-4.705 Y-9.108
X-4.393 Y-9.276
X-4.072 Y-9.425
X-3.743 Y-9.557
X-3.408 Y-9.672
X-3.071 Y-9.779
X-2.732 Y-9.883
X-2.393 Y-9.984
X-2.047 Y-10.061
X-1.698 Y-10.119
X-1.347 Y-10.163
X-0.995 Y-10.202
X-0.643 Y-10.238
X-0.289 Y-10.264
X0.065 Y-10.266
X0.418 Y-10.249
X0.771 Y-10.222
X1.124 Y-10.189
X1.476 Y-10.155
X1.827 Y-10.105
X2.173 Y-10.032
X2.516 Y-9.942
X2.856 Y-9.844
X3.195 Y-9.743
X3.534 Y-9.638
X3.865 Y-9.514
X4.188 Y-9.369
X4.505 Y-9.21
X4.819 Y-9.047
X5.132 Y-8.881
X5.44 Y-8.707
X5.738 Y-8.516
X6.023 Y-8.306
X6.301 Y-8.086
X6.576 Y-7.864
X6.85 Y-7.64
X7.114 Y-7.403
X7.363 Y-7.152
X7.599 Y-6.888
X7.828 Y-6.617
X8.054 Y-6.345
X8.277 Y-6.07
X8.484 Y-5.783
X8.674 Y-5.484
X8.85 Y-5.177
X9.021 Y-4.866
X9.189 Y-4.555
X9.351 Y-4.24
X9.493 Y-3.916
X9.614 Y-3.583
X9.724 Y-3.246
X9.829 Y-2.908
X9.933 Y-2.57
X10.022 Y-2.227
X10.092 Y-1.88
X10.142 Y-1.529
X10.182 Y-1.178
X10.219 Y-0.825
X10.253 Y-0.473
X10.266 Y-0.119
X10.26 Y0.235
X10.237 Y0.588
X10.206 Y0.941
X10.173 Y1.293
X10.133 Y1.645
X10.072 Y1.994
X9.99 Y2.338
X9.895 Y2.68
X9.796 Y3.019
X9.694 Y3.359
X9.58 Y3.694
X9.446 Y4.022
X9.294 Y4.341
X9.132 Y4.656
X8.967 Y4.969
X8.801 Y5.282
X8.616 Y5.584
X8.415 Y5.876
X8.2 Y6.157
X7.979 Y6.434
X7.756 Y6.708
X7.528 Y6.98
X7.284 Y7.236
X7.025 Y7.478
X6.757 Y7.71
X6.486 Y7.937
X6.213 Y8.162
X5.934 Y8.38
X5.641 Y8.579
X5.337 Y8.76
X5.028 Y8.933
X4.716 Y9.102
X4.405 Y9.27
X4.084 Y9.42
X3.756 Y9.552
X3.421 Y9.668
X3.083 Y9.775
X2.745 Y9.88
X2.406 Y9.981
X2.06 Y10.058
X1.711 Y10.117
X1.36 Y10.162
X1.008 Y10.2
X0.656 Y10.236
X0.303 Y10.263
X-0.051 Y10.269
X-0.405 Y10.251
X-0.758 Y10.223
X-1.111 Y10.191
X-1.463 Y10.156
X-1.813 Y10.106
X-2.16 Y10.035
X-2.503 Y9.946
X-2.843 Y9.848
X-3.183 Y9.747
X-3.521 Y9.642
X-3.853 Y9.518
X-4.176 Y9.374
X-4.493 Y9.216
X-4.807 Y9.053
X-5.12 Y8.887
X-5.429 Y8.714
X-5.727 Y8.524
X-6.013 Y8.314
X-6.291 Y8.095
X-6.566 Y7.872
X-6.84 Y7.648
X-7.104 Y7.412
X-7.354 Y7.162
X-7.59 Y6.898
X-7.819 Y6.628
X-8.045 Y6.355
X-8.269 Y6.08
X-8.477 Y5.794
X-8.667 Y5.495
X-8.844 Y5.188
X-9.015 Y4.878
X-9.183 Y4.567
X-9.345 Y4.252
X-9.487 Y3.928
X-9.609 Y3.595
X-9.72 Y3.259
X-9.826 Y2.921
X-9.929 Y2.582
X-10.02 Y2.24
X-10.09 Y1.893
X-10.168 Y1.548
X-10.3 Y1.219
X-10.398 Y0.973
X-10.405 Y0.952
X-10.411 Y0.93
X-10.414 Y0.908
X-10.497 Y0
X-10.327 Y-1.849
X-10.318 Y-1.93
X-10.273 Y-2.09
X-9.793 Y-3.779
X-9.771 Y-3.828
X-8.955 Y-5.467
X-8.91 Y-5.547
X-7.817 Y-6.995
X-7.761 Y-7.067
X-7.754 Y-7.075
X-7.579 Y-7.236
X-6.344 Y-8.361
X-6.329 Y-8.374
X-6.313 Y-8.386
X-4.705 Y-9.382
X-4.68 Y-9.396
X-4.656 Y-9.406
X-2.935 Y-10.073
X-2.855 Y-10.1
X-1.005 Y-10.446
X-0.972 Y-10.452
X-0.925 Y-10.453
X0.925
X0.972 Y-10.452
X1.005 Y-10.446
X2.855 Y-10.1
X2.935 Y-10.073
X4.656 Y-9.406
X4.68 Y-9.396
X4.705 Y-9.382
X6.313 Y-8.386
X6.329 Y-8.374
X6.344 Y-8.361
X7.68 Y-7.143
X7.754 Y-7.075
X7.761 Y-7.067
X7.877 Y-6.914
X8.91 Y-5.547
X8.955 Y-5.467
X9.771 Y-3.828
X9.793 Y-3.779
X10.296 Y-2.01
X10.318 Y-1.93
X10.327 Y-1.849
X10.497 Y0
X10.327 Y1.849
X10.318 Y1.93
X10.273 Y2.09
X9.793 Y3.779
X9.771 Y3.828
X8.955 Y5.467
X8.91 Y5.547
X7.817 Y6.995
X7.761 Y7.067
X7.754 Y7.075
X7.579 Y7.236
X6.344 Y8.361
X6.329 Y8.374
X6.313 Y8.386
X4.705 Y9.382
X4.68 Y9.396
X4.656 Y9.406
X2.935 Y10.073
X2.855 Y10.1
X1.005 Y10.446
X0.972 Y10.452
X0.925 Y10.453
X-0.925
X-0.972 Y10.452
X-1.005 Y10.446
X-2.855 Y10.1
X-2.935 Y10.073
X-4.656 Y9.406
X-4.68 Y9.396
X-4.705 Y9.382
X-6.313 Y8.386
X-6.329 Y8.374
X-6.344 Y8.361
X-7.68 Y7.143
X-7.754 Y7.075
X-7.761 Y7.067
X-7.877 Y6.914
X-8.91 Y5.547
X-8.955 Y5.467
X-9.771 Y3.828
X-9.793 Y3.779
X-10.296 Y2.01
X-10.318 Y1.93
X-10.327 Y1.849
X-10.414 Y0.908
Z2
X-9.368 Y0.868
Z-0.3
Z-1 F20
X-9.442 Y0.875 F300
X-9.577 Y0.809
X-9.668 Y0.689
X-9.733 Y0.554
X-9.782 Y0.413
X-9.818 Y0.267
X-9.839 Y0.103
X-9.852 Y-0.16
X-9.84 Y-0.514
X-9.812 Y-0.867
X-9.779 Y-1.219
X-9.745 Y-1.572
X-9.718 Y-1.747
X-9.647 Y-2.094
X-9.553 Y-2.435
X-9.453 Y-2.775
X-9.248 Y-3.453
X-9.187 Y-3.619
X-9.049 Y-3.945
X-8.89 Y-4.261
X-8.725 Y-4.574
X-8.392 Y-5.199
X-8.299 Y-5.35
X-8.099 Y-5.643
X-7.881 Y-5.921
X-7.658 Y-6.197
X-7.21 Y-6.745
X-7.089 Y-6.874
X-6.835 Y-7.121
X-6.567 Y-7.352
X-6.294 Y-7.578
X-5.747 Y-8.028
X-5.603 Y-8.131
X-5.306 Y-8.323
X-4.997 Y-8.496
X-4.686 Y-8.665
X-4.062 Y-9
X-3.9 Y-9.072
X-3.571 Y-9.201
X-3.234 Y-9.311
X-2.896 Y-9.416
X-2.218 Y-9.622
X-2.046 Y-9.661
X-1.697 Y-9.722
X-1.345 Y-9.764
X-0.993 Y-9.801
X-0.288 Y-9.871
X-0.111 Y-9.874
X0.243 Y-9.866
X0.596 Y-9.838
X0.948 Y-9.805
X1.477 Y-9.754
X1.679 Y-9.732
X2.027 Y-9.666
X2.368 Y-9.573
X2.708 Y-9.473
X3.386 Y-9.268
X3.554 Y-9.212
X3.882 Y-9.08
X4.199 Y-8.922
X4.513 Y-8.758
X5.138 Y-8.425
X5.291 Y-8.337
X5.587 Y-8.142
X5.867 Y-7.925
X6.142 Y-7.702
X6.69 Y-7.254
X6.824 Y-7.137
X7.075 Y-6.888
X7.307 Y-6.62
X7.534 Y-6.348
X7.984 Y-5.801
X8.091 Y-5.661
X8.288 Y-5.366
X8.463 Y-5.059
X8.632 Y-4.748
X8.967 Y-4.124
X9.044 Y-3.964
X9.179 Y-3.637
X9.29 Y-3.301
X9.395 Y-2.963
X9.602 Y-2.285
X9.645 Y-2.114
X9.713 Y-1.766
X9.757 Y-1.415
X9.794 Y-1.063
X9.864 Y-0.358
X9.873 Y-0.181
X9.87 Y0.173
X9.844 Y0.526
X9.812 Y0.879
X9.743 Y1.584
X9.717 Y1.759
X9.644 Y2.105
X9.55 Y2.446
X9.449 Y2.786
X9.244 Y3.464
X9.183 Y3.63
X9.044 Y3.955
X8.884 Y4.271
X8.719 Y4.585
X8.386 Y5.21
X8.293 Y5.36
X8.092 Y5.652
X7.874 Y5.931
X7.651 Y6.206
X7.202 Y6.754
X7.081 Y6.883
X6.826 Y7.129
X6.558 Y7.359
X6.285 Y7.585
X5.738 Y8.035
X5.594 Y8.138
X5.296 Y8.329
X4.987 Y8.502
X4.676 Y8.671
X4.052 Y9.005
X3.89 Y9.077
X3.56 Y9.205
X3.223 Y9.315
X2.885 Y9.419
X2.207 Y9.626
X2.034 Y9.663
X1.685 Y9.724
X1.334 Y9.765
X0.982 Y9.802
X0.453 Y9.855
X0.25 Y9.873
X-0.104 Y9.875
X-0.457 Y9.851
X-0.81 Y9.819
X-1.515 Y9.75
X-1.691 Y9.728
X-2.038 Y9.662
X-2.38 Y9.569
X-2.72 Y9.469
X-3.398 Y9.264
X-3.565 Y9.208
X-3.893 Y9.074
X-4.21 Y8.916
X-4.524 Y8.752
X-5.149 Y8.419
X-5.302 Y8.33
X-5.597 Y8.134
X-5.877 Y7.917
X-6.152 Y7.695
X-6.7 Y7.246
X-6.832 Y7.129
X-7.083 Y6.879
X-7.315 Y6.611
X-7.541 Y6.339
X-7.991 Y5.792
X-8.098 Y5.65
X-8.294 Y5.356
X-8.469 Y5.048
X-8.638 Y4.737
X-8.973 Y4.113
X-9.049 Y3.953
X-9.183 Y3.625
X-9.294 Y3.289
X-9.399 Y2.951
X-9.605 Y2.273
X-9.648 Y2.102
X-9.715 Y1.754
X-9.758 Y1.402
X-9.909 Y1.082
X-10.012 Y0.874
X-10.084 Y0.694
X-10.138 Y0.518
X-10.185 Y0.305
X-10.216 Y0.082
X-10.235 Y-0.247
X-10.227 Y-0.601
X-10.202 Y-0.954
X-10.171 Y-1.306
X-10.131 Y-1.658
X-10.07 Y-2.007
X-9.987 Y-2.351
X-9.892 Y-2.692
X-9.792 Y-3.032
X-9.69 Y-3.371
X-9.575 Y-3.706
X-9.441 Y-4.034
X-9.288 Y-4.353
X-9.126 Y-4.668
X-8.961 Y-4.981
X-8.794 Y-5.293
X-8.609 Y-5.595
X-8.407 Y-5.886
X-8.192 Y-6.167
X-7.971 Y-6.444
X-7.747 Y-6.719
X-7.519 Y-6.989
X-7.274 Y-7.245
X-7.015 Y-7.487
X-6.747 Y-7.718
X-6.476 Y-7.945
X-6.203 Y-8.171
X-5.923 Y-8.387
X-5.63 Y-8.586
X-5.325 Y-8.767
X-5.016 Y-8.939
X-4.705 Y-9.108
X-4.393 Y-9.276
X-4.072 Y-9.425
X-3.743 Y-9.557
X-3.408 Y-9.672
X-3.071 Y-9.779
X-2.732 Y-9.883
X-2.393 Y-9.984
X-2.047 Y-10.061
X-1.698 Y-10.119
X-1.347 Y-10.163
X-0.995 Y-10.202
X-0.643 Y-10.238
X-0.289 Y-10.264
X0.065 Y-10.266
X0.418 Y-10.249
X0.771 Y-10.222
X1.124 Y-10.189
X1.476 Y-10.155
X1.827 Y-10.105
X2.173 Y-10.032
X2.516 Y-9.942
X2.856 Y-9.844
X3.195 Y-9.743
X3.534 Y-9.638
X3.865 Y-9.514
X4.188 Y-9.369
X4.505 Y-9.21
X4.819 Y-9.047
X5.132 Y-8.881
X5.44 Y-8.707
X5.738 Y-8.516
X6.023 Y-8.306
X6.301 Y-8.086
X6.576 Y-7.864
X6.85 Y-7.64
X7.114 Y-7.403
X7.363 Y-7.152
X7.599 Y-6.888
X7.828 Y-6.617
X8.054 Y-6.345
X8.277 Y-6.07
X8.484 Y-5.783
X8.674 Y-5.484
X8.85 Y-5.177
X9.021 Y-4.866
X9.189 Y-4.555
X9.351 Y-4.24
X9.493 Y-3.916
X9.614 Y-3.583
X9.724 Y-3.246
X9.829 Y-2.908
X9.933 Y-2.57
X10.022 Y-2.227
X10.092 Y-1.88
X10.142 Y-1.529
X10.182 Y-1.178
X10.219 Y-0.825
X10.253 Y-0.473
X10.266 Y-0.119
X10.26 Y0.235
X10.237 Y0.588
X10.206 Y0.941
X10.173 Y1.293
X10.133 Y1.645
X10.072 Y1.994
X9.99 Y2.338
X9.895 Y2.68
X9.796 Y3.019
X9.694 Y3.359
X9.58 Y3.694
X9.446 Y4.022
X9.294 Y4.341
X9.132 Y4.656
X8.967 Y4.969
X8.801 Y5.282
X8.616 Y5.584
X8.415 Y5.876
X8.2 Y6.157
X7.979 Y6.434
X7.756 Y6.708
X7.528 Y6.98
X7.284 Y7.236
X7.025 Y7.478
X6.757 Y7.71
X6.486 Y7.937
X6.213 Y8.162
X5.934 Y8.38
X5.641 Y8.579
X5.337 Y8.76
X5.028 Y8.933
X4.716 Y9.102
X4.405 Y9.27
X4.084 Y9.42
X3.756 Y9.552
X3.421 Y9.668
X3.083 Y9.775
X2.745 Y9.88
X2.406 Y9.981
X2.06 Y10.058
X1.711 Y10.117
X1.36 Y10.162
X1.008 Y10.2
X0.656 Y10.236
X0.303 Y10.263
X-0.051 Y10.269
X-0.405 Y10.251
X-0.758 Y10.223
X-1.111 Y10.191
X-1.463 Y10.156
X-1.813 Y10.106
X-2.16 Y10.035
X-2.503 Y9.946
X-2.843 Y9.848
X-3.183 Y9.747
X-3.521 Y9.642
X-3.853 Y9.518
X-4.176 Y9.374
X-4.493 Y9.216
X-4.807 Y9.053
X-5.12 Y8.887
X-5.429 Y8.714
X-5.727 Y8.524
X-6.013 Y8.314
X-6.291 Y8.095
X-6.566 Y7.872
X-6.84 Y7.648
X-7.104 Y7.412
X-7.354 Y7.162
X-7.59 Y6.898
X-7.819 Y6.628
X-8.045 Y6.355
X-8.269 Y6.08
X-8.477 Y5.794
X-8.667 Y5.495
X-8.844 Y5.188
X-9.015 Y4.878
X-9.183 Y4.567
X-9.345 Y4.252
X-9.487 Y3.928
X-9.609 Y3.595
X-9.72 Y3.259
X-9.826 Y2.921
X-9.929 Y2.582
X-10.02 Y2.24
X-10.09 Y1.893
X-10.168 Y1.548
X-10.3 Y1.219
X-10.398 Y0.973
X-10.405 Y0.952
X-10.411 Y0.93
X-10.414 Y0.908
X-10.497 Y0
X-10.327 Y-1.849
X-10.318 Y-1.93
X-10.273 Y-2.09
X-9.793 Y-3.779
X-9.771 Y-3.828
X-8.955 Y-5.467
X-8.91 Y-5.547
X-7.817 Y-6.995
X-7.761 Y-7.067
X-7.754 Y-7.075
X-7.579 Y-7.236
X-6.344 Y-8.361
X-6.329 Y-8.374
X-6.313 Y-8.386
X-4.705 Y-9.382
X-4.68 Y-9.396
X-4.656 Y-9.406
X-2.935 Y-10.073
X-2.855 Y-10.1
X-1.005 Y-10.446
X-0.972 Y-10.452
X-0.925 Y-10.453
X0.925
X0.972 Y-10.452
X1.005 Y-10.446
X2.855 Y-10.1
X2.935 Y-10.073
X4.656 Y-9.406
X4.68 Y-9.396
X4.705 Y-9.382
X6.313 Y-8.386
X6.329 Y-8.374
X6.344 Y-8.361
X7.68 Y-7.143
X7.754 Y-7.075
X7.761 Y-7.067
X7.877 Y-6.914
X8.91 Y-5.547
X8.955 Y-5.467
X9.771 Y-3.828
X9.793 Y-3.779
X10.296 Y-2.01
X10.318 Y-1.93
X10.327 Y-1.849
X10.497 Y0
X10.327 Y1.849
X10.318 Y1.93
X10.273 Y2.09
X9.793 Y3.779
X9.771 Y3.828
X8.955 Y5.467
X8.91 Y5.547
X7.817 Y6.995
X7.761 Y7.067
X7.754 Y7.075
X7.579 Y7.236
X6.344 Y8.361
X6.329 Y8.374
X6.313 Y8.386
X4.705 Y9.382
X4.68 Y9.396
X4.656 Y9.406
X2.935 Y10.073
X2.855 Y10.1
X1.005 Y10.446
X0.972 Y10.452
X0.925 Y10.453
X-0.925
X-0.972 Y10.452
X-1.005 Y10.446
X-2.855 Y10.1
X-2.935 Y10.073
X-4.656 Y9.406
X-4.68 Y9.396
X-4.705 Y9.382
X-6.313 Y8.386
X-6.329 Y8.374
X-6.344 Y8.361
X-7.68 Y7.143
X-7.754 Y7.075
X-7.761 Y7.067
X-7.877 Y6.914
X-8.91 Y5.547
X-8.955 Y5.467
X-9.771 Y3.828
X-9.793 Y3.779
X-10.296 Y2.01
X-10.318 Y1.93
X-10.327 Y1.849
X-10.414 Y0.908
Z2
M5
M30
