(Hole_size_2mm)
(T1  D=1 CR=0 - ZMIN=-4.2 - flat end mill)
G90 G94
G17
G21
(When using Fusion 360 for Personal Use, the feedrate of)
(rapid moves is reduced to match the feedrate of cutting)
(moves, which can increase machining time. Unrestricted rapid)
(moves are available with a Fusion 360 Subscription.)

(2D Contour2)
S20000 M3
G54
G0 X0.475 Y-40
Z2
G1 Z1 F20
Z-0.5
G3 X-0.475 Y-40 I-0.475 J0
X0.475 Y-40 I0.475 J0
G1 Z-1
G3 X-0.475 Y-40 I-0.475 J0
X0.475 Y-40 I0.475 J0
G1 Z-1.5
G3 X-0.475 Y-40 I-0.475 J0
X0.475 Y-40 I0.475 J0
G1 Z-2
G3 X-0.475 Y-40 I-0.475 J0
X0.475 Y-40 I0.475 J0
G1 Z-2.5
G3 X-0.475 Y-40 I-0.475 J0
X0.475 Y-40 I0.475 J0
G1 Z-3
G3 X-0.475 Y-40 I-0.475 J0
X0.475 Y-40 I0.475 J0
G1 Z-3.5
G3 X-0.475 Y-40 I-0.475 J0
X0.475 Y-40 I0.475 J0
G1 Z-4
G3 X-0.475 Y-40 I-0.475 J0
X0.475 Y-40 I0.475 J0
G1 Z-4.2
G3 X-0.475 Y-40 I-0.475 J0
X0.475 Y-40 I0.475 J0
G1 Z-3
Z1
X0.5 Y-35
Z-0.5
G3 X-0.5 Y-35 I-0.5 J0
X0.5 Y-35 I0.5 J0
G1 Z-1
G3 X-0.5 Y-35 I-0.5 J0
X0.5 Y-35 I0.5 J0
G1 Z-1.5
G3 X-0.5 Y-35 I-0.5 J0
X0.5 Y-35 I0.5 J0
G1 Z-2
G3 X-0.5 Y-35 I-0.5 J0
X0.5 Y-35 I0.5 J0
G1 Z-2.5
G3 X-0.5 Y-35 I-0.5 J0
X0.5 Y-35 I0.5 J0
G1 Z-3
G3 X-0.5 Y-35 I-0.5 J0
X0.5 Y-35 I0.5 J0
G1 Z-3.5
G3 X-0.5 Y-35 I-0.5 J0
X0.5 Y-35 I0.5 J0
G1 Z-4
G3 X-0.5 Y-35 I-0.5 J0
X0.5 Y-35 I0.5 J0
G1 Z-4.2
G3 X-0.5 Y-35 I-0.5 J0
X0.5 Y-35 I0.5 J0
G1 Z-3
Z1
X0.525 Y-30
Z-0.5
G3 X-0.525 Y-30 I-0.525 J0
X0.525 Y-30 I0.525 J0
G1 Z-1
G3 X-0.525 Y-30 I-0.525 J0
X0.525 Y-30 I0.525 J0
G1 Z-1.5
G3 X-0.525 Y-30 I-0.525 J0
X0.525 Y-30 I0.525 J0
G1 Z-2
G3 X-0.525 Y-30 I-0.525 J0
X0.525 Y-30 I0.525 J0
G1 Z-2.5
G3 X-0.525 Y-30 I-0.525 J0
X0.525 Y-30 I0.525 J0
G1 Z-3
G3 X-0.525 Y-30 I-0.525 J0
X0.525 Y-30 I0.525 J0
G1 Z-3.5
G3 X-0.525 Y-30 I-0.525 J0
X0.525 Y-30 I0.525 J0
G1 Z-4
G3 X-0.525 Y-30 I-0.525 J0
X0.525 Y-30 I0.525 J0
G1 Z-4.2
G3 X-0.525 Y-30 I-0.525 J0
X0.525 Y-30 I0.525 J0
G1 Z-3
Z1
X0.55 Y-25
Z-0.5
G3 X-0.55 Y-25 I-0.55 J0
X0.55 Y-25 I0.55 J0
G1 Z-1
G3 X-0.55 Y-25 I-0.55 J0
X0.55 Y-25 I0.55 J0
G1 Z-1.5
G3 X-0.55 Y-25 I-0.55 J0
X0.55 Y-25 I0.55 J0
G1 Z-2
G3 X-0.55 Y-25 I-0.55 J0
X0.55 Y-25 I0.55 J0
G1 Z-2.5
G3 X-0.55 Y-25 I-0.55 J0
X0.55 Y-25 I0.55 J0
G1 Z-3
G3 X-0.55 Y-25 I-0.55 J0
X0.55 Y-25 I0.55 J0
G1 Z-3.5
G3 X-0.55 Y-25 I-0.55 J0
X0.55 Y-25 I0.55 J0
G1 Z-4
G3 X-0.55 Y-25 I-0.55 J0
X0.55 Y-25 I0.55 J0
G1 Z-4.2
G3 X-0.55 Y-25 I-0.55 J0
X0.55 Y-25 I0.55 J0
G1 Z-3
Z1
X0.45 Y-45
Z-0.5
G3 X-0.45 Y-45 I-0.45 J0
X0.45 Y-45 I0.45 J0
G1 Z-1
G3 X-0.45 Y-45 I-0.45 J0
X0.45 Y-45 I0.45 J0
G1 Z-1.5
G3 X-0.45 Y-45 I-0.45 J0
X0.45 Y-45 I0.45 J0
G1 Z-2
G3 X-0.45 Y-45 I-0.45 J0
X0.45 Y-45 I0.45 J0
G1 Z-2.5
G3 X-0.45 Y-45 I-0.45 J0
X0.45 Y-45 I0.45 J0
G1 Z-3
G3 X-0.45 Y-45 I-0.45 J0
X0.45 Y-45 I0.45 J0
G1 Z-3.5
G3 X-0.45 Y-45 I-0.45 J0
X0.45 Y-45 I0.45 J0
G1 Z-4
G3 X-0.45 Y-45 I-0.45 J0
X0.45 Y-45 I0.45 J0
G1 Z-4.2
G3 X-0.45 Y-45 I-0.45 J0
X0.45 Y-45 I0.45 J0
G1 Z-3
Z1
X0.425 Y-50
Z-0.5
G3 X-0.425 Y-50 I-0.425 J0
X0.425 Y-50 I0.425 J0
G1 Z-1
G3 X-0.425 Y-50 I-0.425 J0
X0.425 Y-50 I0.425 J0
G1 Z-1.5
G3 X-0.425 Y-50 I-0.425 J0
X0.425 Y-50 I0.425 J0
G1 Z-2
G3 X-0.425 Y-50 I-0.425 J0
X0.425 Y-50 I0.425 J0
G1 Z-2.5
G3 X-0.425 Y-50 I-0.425 J0
X0.425 Y-50 I0.425 J0
G1 Z-3
G3 X-0.425 Y-50 I-0.425 J0
X0.425 Y-50 I0.425 J0
G1 Z-3.5
G3 X-0.425 Y-50 I-0.425 J0
X0.425 Y-50 I0.425 J0
G1 Z-4
G3 X-0.425 Y-50 I-0.425 J0
X0.425 Y-50 I0.425 J0
G1 Z-4.2
G3 X-0.425 Y-50 I-0.425 J0
X0.425 Y-50 I0.425 J0
G1 Z-3
Z1
X0.4 Y-55
Z-0.5
G3 X-0.4 Y-55 I-0.4 J0
X0.4 Y-55 I0.4 J0
G1 Z-1
G3 X-0.4 Y-55 I-0.4 J0
X0.4 Y-55 I0.4 J0
G1 Z-1.5
G3 X-0.4 Y-55 I-0.4 J0
X0.4 Y-55 I0.4 J0
G1 Z-2
G3 X-0.4 Y-55 I-0.4 J0
X0.4 Y-55 I0.4 J0
G1 Z-2.5
G3 X-0.4 Y-55 I-0.4 J0
X0.4 Y-55 I0.4 J0
G1 Z-3
G3 X-0.4 Y-55 I-0.4 J0
X0.4 Y-55 I0.4 J0
G1 Z-3.5
G3 X-0.4 Y-55 I-0.4 J0
X0.4 Y-55 I0.4 J0
G1 Z-4
G3 X-0.4 Y-55 I-0.4 J0
X0.4 Y-55 I0.4 J0
G1 Z-4.2
G3 X-0.4 Y-55 I-0.4 J0
X0.4 Y-55 I0.4 J0
G1 Z1
Z2
M5
M30
