(1001)
(T1  D=1.587 CR=0 - ZMIN=-6.3 - flat end mill)
G90 G94
G17
G21
G28 G91 Z0
G90

(Circular1)
M9
S20000 M3
G54
G0 X55.025 Y-24.941
Z6
Z-2.833
G1 Z-4.674 F100
X55.033 Z-4.723
X55.055 Z-4.768
X55.09 Z-4.803
X55.135 Z-4.825
X55.184 Z-4.833
X55.263
X55.312 Y-24.933
X55.356 Y-24.911
X55.392 Y-24.875
X55.414 Y-24.831
X55.422 Y-24.782
G3 X53.829 I-0.796 F300
X55.422 I0.796
G1 X55.414 Y-24.733 F100
X55.392 Y-24.689
X55.356 Y-24.654
X55.312 Y-24.631
X55.263 Y-24.623
X55.184
X55.135 Z-4.825
X55.09 Z-4.803
X55.055 Z-4.768
X55.033 Z-4.723
X55.025 Z-4.674
G0 Z3
Y-24.941
Z-3.433
G1 Z-5.274 F100
X55.033 Z-5.323
X55.055 Z-5.368
X55.09 Z-5.403
X55.135 Z-5.425
X55.184 Z-5.433
X55.263
X55.312 Y-24.933
X55.356 Y-24.911
X55.392 Y-24.875
X55.414 Y-24.831
X55.422 Y-24.782
G3 X53.829 I-0.796 F300
X55.422 I0.796
G1 X55.414 Y-24.733 F100
X55.392 Y-24.689
X55.356 Y-24.654
X55.312 Y-24.631
X55.263 Y-24.623
X55.184
X55.135 Z-5.425
X55.09 Z-5.403
X55.055 Z-5.368
X55.033 Z-5.323
X55.025 Z-5.274
G0 Z3
Y-24.941
Z-4.033
G1 Z-5.874 F100
X55.033 Z-5.923
X55.055 Z-5.968
X55.09 Z-6.003
X55.135 Z-6.025
X55.184 Z-6.033
X55.263
X55.312 Y-24.933
X55.356 Y-24.911
X55.392 Y-24.875
X55.414 Y-24.831
X55.422 Y-24.782
G3 X53.829 I-0.796 F300
X55.422 I0.796
G1 X55.414 Y-24.733 F100
X55.392 Y-24.689
X55.356 Y-24.654
X55.312 Y-24.631
X55.263 Y-24.623
X55.184
X55.135 Z-6.025
X55.09 Z-6.003
X55.055 Z-5.968
X55.033 Z-5.923
X55.025 Z-5.874
G0 Z3
X84.025 Y-14.441
Z-0.033
G1 Z-1.874 F100
X84.033 Z-1.923
X84.055 Z-1.968
X84.09 Z-2.003
X84.135 Z-2.025
X84.184 Z-2.033
X84.263
X84.312 Y-14.433
X84.356 Y-14.411
X84.392 Y-14.375
X84.414 Y-14.331
X84.422 Y-14.282
G3 X82.829 I-0.796 F300
X84.422 I0.796
G1 X84.414 Y-14.233 F100
X84.392 Y-14.189
X84.356 Y-14.154
X84.312 Y-14.131
X84.263 Y-14.123
X84.184
X84.135 Z-2.025
X84.09 Z-2.003
X84.055 Z-1.968
X84.033 Z-1.923
X84.025 Z-1.874
G0 Z3
Y-14.441
Z-1.033
G1 Z-2.874 F100
X84.033 Z-2.923
X84.055 Z-2.968
X84.09 Z-3.003
X84.135 Z-3.025
X84.184 Z-3.033
X84.263
X84.312 Y-14.433
X84.356 Y-14.411
X84.392 Y-14.375
X84.414 Y-14.331
X84.422 Y-14.282
G3 X82.829 I-0.796 F300
X84.422 I0.796
G1 X84.414 Y-14.233 F100
X84.392 Y-14.189
X84.356 Y-14.154
X84.312 Y-14.131
X84.263 Y-14.123
X84.184
X84.135 Z-3.025
X84.09 Z-3.003
X84.055 Z-2.968
X84.033 Z-2.923
X84.025 Z-2.874
G0 Z3
Y-14.441
Z-2.033
G1 Z-3.874 F100
X84.033 Z-3.923
X84.055 Z-3.968
X84.09 Z-4.003
X84.135 Z-4.025
X84.184 Z-4.033
X84.263
X84.312 Y-14.433
X84.356 Y-14.411
X84.392 Y-14.375
X84.414 Y-14.331
X84.422 Y-14.282
G3 X82.829 I-0.796 F300
X84.422 I0.796
G1 X84.414 Y-14.233 F100
X84.392 Y-14.189
X84.356 Y-14.154
X84.312 Y-14.131
X84.263 Y-14.123
X84.184
X84.135 Z-4.025
X84.09 Z-4.003
X84.055 Z-3.968
X84.033 Z-3.923
X84.025 Z-3.874
G0 Z3
Y-14.441
Z-3.033
G1 Z-4.874 F100
X84.033 Z-4.923
X84.055 Z-4.968
X84.09 Z-5.003
X84.135 Z-5.025
X84.184 Z-5.033
X84.263
X84.312 Y-14.433
X84.356 Y-14.411
X84.392 Y-14.375
X84.414 Y-14.331
X84.422 Y-14.282
G3 X82.829 I-0.796 F300
X84.422 I0.796
G1 X84.414 Y-14.233 F100
X84.392 Y-14.189
X84.356 Y-14.154
X84.312 Y-14.131
X84.263 Y-14.123
X84.184
X84.135 Z-5.025
X84.09 Z-5.003
X84.055 Z-4.968
X84.033 Z-4.923
X84.025 Z-4.874
G0 Z3
Y-14.441
Z-3.533
G1 Z-5.374 F100
X84.033 Z-5.423
X84.055 Z-5.468
X84.09 Z-5.503
X84.135 Z-5.525
X84.184 Z-5.533
X84.263
X84.312 Y-14.433
X84.356 Y-14.411
X84.392 Y-14.375
X84.414 Y-14.331
X84.422 Y-14.282
G3 X82.829 I-0.796 F300
X84.422 I0.796
G1 X84.414 Y-14.233 F100
X84.392 Y-14.189
X84.356 Y-14.154
X84.312 Y-14.131
X84.263 Y-14.123
X84.184
X84.135 Z-5.525
X84.09 Z-5.503
X84.055 Z-5.468
X84.033 Z-5.423
X84.025 Z-5.374
G0 Z3
Y-14.441
Z-4.033
G1 Z-5.874 F100
X84.033 Z-5.923
X84.055 Z-5.968
X84.09 Z-6.003
X84.135 Z-6.025
X84.184 Z-6.033
X84.263
X84.312 Y-14.433
X84.356 Y-14.411
X84.392 Y-14.375
X84.414 Y-14.331
X84.422 Y-14.282
G3 X82.829 I-0.796 F300
X84.422 I0.796
G1 X84.414 Y-14.233 F100
X84.392 Y-14.189
X84.356 Y-14.154
X84.312 Y-14.131
X84.263 Y-14.123
X84.184
X84.135 Z-6.025
X84.09 Z-6.003
X84.055 Z-5.968
X84.033 Z-5.923
X84.025 Z-5.874
G0 Z3
X95.025 Y-14.441
Z-2.833
G1 Z-4.674 F100
X95.033 Z-4.723
X95.055 Z-4.768
X95.09 Z-4.803
X95.135 Z-4.825
X95.184 Z-4.833
X95.263
X95.312 Y-14.433
X95.356 Y-14.411
X95.392 Y-14.375
X95.414 Y-14.331
X95.422 Y-14.282
G3 X93.829 I-0.796 F300
X95.422 I0.796
G1 X95.414 Y-14.233 F100
X95.392 Y-14.189
X95.356 Y-14.154
X95.312 Y-14.131
X95.263 Y-14.123
X95.184
X95.135 Z-4.825
X95.09 Z-4.803
X95.055 Z-4.768
X95.033 Z-4.723
X95.025 Z-4.674
G0 Z3
Y-14.441
Z-3.433
G1 Z-5.274 F100
X95.033 Z-5.323
X95.055 Z-5.368
X95.09 Z-5.403
X95.135 Z-5.425
X95.184 Z-5.433
X95.263
X95.312 Y-14.433
X95.356 Y-14.411
X95.392 Y-14.375
X95.414 Y-14.331
X95.422 Y-14.282
G3 X93.829 I-0.796 F300
X95.422 I0.796
G1 X95.414 Y-14.233 F100
X95.392 Y-14.189
X95.356 Y-14.154
X95.312 Y-14.131
X95.263 Y-14.123
X95.184
X95.135 Z-5.425
X95.09 Z-5.403
X95.055 Z-5.368
X95.033 Z-5.323
X95.025 Z-5.274
G0 Z3
Y-14.441
Z-4.033
G1 Z-5.874 F100
X95.033 Z-5.923
X95.055 Z-5.968
X95.09 Z-6.003
X95.135 Z-6.025
X95.184 Z-6.033
X95.263
X95.312 Y-14.433
X95.356 Y-14.411
X95.392 Y-14.375
X95.414 Y-14.331
X95.422 Y-14.282
G3 X93.829 I-0.796 F300
X95.422 I0.796
G1 X95.414 Y-14.233 F100
X95.392 Y-14.189
X95.356 Y-14.154
X95.312 Y-14.131
X95.263 Y-14.123
X95.184
X95.135 Z-6.025
X95.09 Z-6.003
X95.055 Z-5.968
X95.033 Z-5.923
X95.025 Z-5.874
G0 Z3
X65.975 Y14.441
Z-0.033
G1 Z-1.874 F100
X65.967 Z-1.923
X65.945 Z-1.968
X65.91 Z-2.003
X65.865 Z-2.025
X65.816 Z-2.033
X65.737
X65.688 Y14.433
X65.644 Y14.411
X65.608 Y14.375
X65.586 Y14.331
X65.578 Y14.282
G3 X67.171 I0.796 F300
X65.578 I-0.796
G1 X65.586 Y14.233 F100
X65.608 Y14.189
X65.644 Y14.154
X65.688 Y14.131
X65.737 Y14.123
X65.816
X65.865 Z-2.025
X65.91 Z-2.003
X65.945 Z-1.968
X65.967 Z-1.923
X65.975 Z-1.874
G0 Z3
Y14.441
Z-1.033
G1 Z-2.874 F100
X65.967 Z-2.923
X65.945 Z-2.968
X65.91 Z-3.003
X65.865 Z-3.025
X65.816 Z-3.033
X65.737
X65.688 Y14.433
X65.644 Y14.411
X65.608 Y14.375
X65.586 Y14.331
X65.578 Y14.282
G3 X67.171 I0.796 F300
X65.578 I-0.796
G1 X65.586 Y14.233 F100
X65.608 Y14.189
X65.644 Y14.154
X65.688 Y14.131
X65.737 Y14.123
X65.816
X65.865 Z-3.025
X65.91 Z-3.003
X65.945 Z-2.968
X65.967 Z-2.923
X65.975 Z-2.874
G0 Z3
Y14.441
Z-2.033
G1 Z-3.874 F100
X65.967 Z-3.923
X65.945 Z-3.968
X65.91 Z-4.003
X65.865 Z-4.025
X65.816 Z-4.033
X65.737
X65.688 Y14.433
X65.644 Y14.411
X65.608 Y14.375
X65.586 Y14.331
X65.578 Y14.282
G3 X67.171 I0.796 F300
X65.578 I-0.796
G1 X65.586 Y14.233 F100
X65.608 Y14.189
X65.644 Y14.154
X65.688 Y14.131
X65.737 Y14.123
X65.816
X65.865 Z-4.025
X65.91 Z-4.003
X65.945 Z-3.968
X65.967 Z-3.923
X65.975 Z-3.874
G0 Z3
Y14.441
Z-3.033
G1 Z-4.874 F100
X65.967 Z-4.923
X65.945 Z-4.968
X65.91 Z-5.003
X65.865 Z-5.025
X65.816 Z-5.033
X65.737
X65.688 Y14.433
X65.644 Y14.411
X65.608 Y14.375
X65.586 Y14.331
X65.578 Y14.282
G3 X67.171 I0.796 F300
X65.578 I-0.796
G1 X65.586 Y14.233 F100
X65.608 Y14.189
X65.644 Y14.154
X65.688 Y14.131
X65.737 Y14.123
X65.816
X65.865 Z-5.025
X65.91 Z-5.003
X65.945 Z-4.968
X65.967 Z-4.923
X65.975 Z-4.874
G0 Z3
Y14.441
Z-3.533
G1 Z-5.374 F100
X65.967 Z-5.423
X65.945 Z-5.468
X65.91 Z-5.503
X65.865 Z-5.525
X65.816 Z-5.533
X65.737
X65.688 Y14.433
X65.644 Y14.411
X65.608 Y14.375
X65.586 Y14.331
X65.578 Y14.282
G3 X67.171 I0.796 F300
X65.578 I-0.796
G1 X65.586 Y14.233 F100
X65.608 Y14.189
X65.644 Y14.154
X65.688 Y14.131
X65.737 Y14.123
X65.816
X65.865 Z-5.525
X65.91 Z-5.503
X65.945 Z-5.468
X65.967 Z-5.423
X65.975 Z-5.374
G0 Z3
Y14.441
Z-4.033
G1 Z-5.874 F100
X65.967 Z-5.923
X65.945 Z-5.968
X65.91 Z-6.003
X65.865 Z-6.025
X65.816 Z-6.033
X65.737
X65.688 Y14.433
X65.644 Y14.411
X65.608 Y14.375
X65.586 Y14.331
X65.578 Y14.282
G3 X67.171 I0.796 F300
X65.578 I-0.796
G1 X65.586 Y14.233 F100
X65.608 Y14.189
X65.644 Y14.154
X65.688 Y14.131
X65.737 Y14.123
X65.816
X65.865 Z-6.025
X65.91 Z-6.003
X65.945 Z-5.968
X65.967 Z-5.923
X65.975 Z-5.874
G0 Z3
X55.025 Y-3.941
Z-2.833
G1 Z-4.674 F100
X55.033 Z-4.723
X55.055 Z-4.768
X55.09 Z-4.803
X55.135 Z-4.825
X55.184 Z-4.833
X55.263
X55.312 Y-3.933
X55.356 Y-3.911
X55.392 Y-3.876
X55.414 Y-3.831
X55.422 Y-3.782
G3 X53.829 I-0.796 F300
X55.422 I0.796
G1 X55.414 Y-3.733 F100
X55.392 Y-3.689
X55.356 Y-3.654
X55.312 Y-3.631
X55.263 Y-3.623
X55.184
X55.135 Z-4.825
X55.09 Z-4.803
X55.055 Z-4.768
X55.033 Z-4.723
X55.025 Z-4.674
G0 Z3
Y-3.941
Z-3.433
G1 Z-5.274 F100
X55.033 Z-5.323
X55.055 Z-5.368
X55.09 Z-5.403
X55.135 Z-5.425
X55.184 Z-5.433
X55.263
X55.312 Y-3.933
X55.356 Y-3.911
X55.392 Y-3.876
X55.414 Y-3.831
X55.422 Y-3.782
G3 X53.829 I-0.796 F300
X55.422 I0.796
G1 X55.414 Y-3.733 F100
X55.392 Y-3.689
X55.356 Y-3.654
X55.312 Y-3.631
X55.263 Y-3.623
X55.184
X55.135 Z-5.425
X55.09 Z-5.403
X55.055 Z-5.368
X55.033 Z-5.323
X55.025 Z-5.274
G0 Z3
Y-3.941
Z-4.033
G1 Z-5.874 F100
X55.033 Z-5.923
X55.055 Z-5.968
X55.09 Z-6.003
X55.135 Z-6.025
X55.184 Z-6.033
X55.263
X55.312 Y-3.933
X55.356 Y-3.911
X55.392 Y-3.876
X55.414 Y-3.831
X55.422 Y-3.782
G3 X53.829 I-0.796 F300
X55.422 I0.796
G1 X55.414 Y-3.733 F100
X55.392 Y-3.689
X55.356 Y-3.654
X55.312 Y-3.631
X55.263 Y-3.623
X55.184
X55.135 Z-6.025
X55.09 Z-6.003
X55.055 Z-5.968
X55.033 Z-5.923
X55.025 Z-5.874
G0 Z3
X35.025 Y0.059
Z-0.3
G1 Z-2.141 F100
X35.033 Z-2.19
X35.056 Z-2.235
X35.091 Z-2.27
X35.135 Z-2.292
X35.184 Z-2.3
X35.264
X35.313 Y0.067
X35.357 Y0.089
X35.392 Y0.124
X35.414 Y0.169
X35.422 Y0.218
G3 X33.83 I-0.796 F300
X35.422 I0.796
G1 X35.414 Y0.267 F100
X35.392 Y0.311
X35.357 Y0.346
X35.313 Y0.369
X35.264 Y0.377
X35.184
X35.135 Z-2.292
X35.091 Z-2.27
X35.056 Z-2.235
X35.033 Z-2.19
X35.025 Z-2.141
G0 Z3
Y0.059
Z-1.3
G1 Z-3.141 F100
X35.033 Z-3.19
X35.056 Z-3.235
X35.091 Z-3.27
X35.135 Z-3.292
X35.184 Z-3.3
X35.264
X35.313 Y0.067
X35.357 Y0.089
X35.392 Y0.124
X35.414 Y0.169
X35.422 Y0.218
G3 X33.83 I-0.796 F300
X35.422 I0.796
G1 X35.414 Y0.267 F100
X35.392 Y0.311
X35.357 Y0.346
X35.313 Y0.369
X35.264 Y0.377
X35.184
X35.135 Z-3.292
X35.091 Z-3.27
X35.056 Z-3.235
X35.033 Z-3.19
X35.025 Z-3.141
G0 Z3
Y0.059
Z-2.3
G1 Z-4.141 F100
X35.033 Z-4.19
X35.056 Z-4.235
X35.091 Z-4.27
X35.135 Z-4.292
X35.184 Z-4.3
X35.264
X35.313 Y0.067
X35.357 Y0.089
X35.392 Y0.124
X35.414 Y0.169
X35.422 Y0.218
G3 X33.83 I-0.796 F300
X35.422 I0.796
G1 X35.414 Y0.267 F100
X35.392 Y0.311
X35.357 Y0.346
X35.313 Y0.369
X35.264 Y0.377
X35.184
X35.135 Z-4.292
X35.091 Z-4.27
X35.056 Z-4.235
X35.033 Z-4.19
X35.025 Z-4.141
G0 Z3
Y0.059
Z-3.3
G1 Z-5.141 F100
X35.033 Z-5.19
X35.056 Z-5.235
X35.091 Z-5.27
X35.135 Z-5.292
X35.184 Z-5.3
X35.264
X35.313 Y0.067
X35.357 Y0.089
X35.392 Y0.124
X35.414 Y0.169
X35.422 Y0.218
G3 X33.83 I-0.796 F300
X35.422 I0.796
G1 X35.414 Y0.267 F100
X35.392 Y0.311
X35.357 Y0.346
X35.313 Y0.369
X35.264 Y0.377
X35.184
X35.135 Z-5.292
X35.091 Z-5.27
X35.056 Z-5.235
X35.033 Z-5.19
X35.025 Z-5.141
G0 Z3
Y0.059
Z-3.8
G1 Z-5.641 F100
X35.033 Z-5.69
X35.056 Z-5.735
X35.091 Z-5.77
X35.135 Z-5.792
X35.184 Z-5.8
X35.264
X35.313 Y0.067
X35.357 Y0.089
X35.392 Y0.124
X35.414 Y0.169
X35.422 Y0.218
G3 X33.83 I-0.796 F300
X35.422 I0.796
G1 X35.414 Y0.267 F100
X35.392 Y0.311
X35.357 Y0.346
X35.313 Y0.369
X35.264 Y0.377
X35.184
X35.135 Z-5.792
X35.091 Z-5.77
X35.056 Z-5.735
X35.033 Z-5.69
X35.025 Z-5.641
G0 Z3
Y0.059
Z-4.3
G1 Z-6.141 F100
X35.033 Z-6.19
X35.056 Z-6.235
X35.091 Z-6.27
X35.135 Z-6.292
X35.184 Z-6.3
X35.264
X35.313 Y0.067
X35.357 Y0.089
X35.392 Y0.124
X35.414 Y0.169
X35.422 Y0.218
G3 X33.83 I-0.796 F300
X35.422 I0.796
G1 X35.414 Y0.267 F100
X35.392 Y0.311
X35.357 Y0.346
X35.313 Y0.369
X35.264 Y0.377
X35.184
X35.135 Z-6.292
X35.091 Z-6.27
X35.056 Z-6.235
X35.033 Z-6.19
X35.025 Z-6.141
G0 Z3
X24.025 Y0.059
Z-0.3
G1 Z-2.141 F100
X24.033 Z-2.19
X24.055 Z-2.235
X24.09 Z-2.27
X24.135 Z-2.292
X24.184 Z-2.3
X24.263
X24.312 Y0.067
X24.356 Y0.089
X24.392 Y0.124
X24.414 Y0.169
X24.422 Y0.218
G3 X22.829 I-0.796 F300
X24.422 I0.796
G1 X24.414 Y0.267 F100
X24.392 Y0.311
X24.356 Y0.346
X24.312 Y0.369
X24.263 Y0.377
X24.184
X24.135 Z-2.292
X24.09 Z-2.27
X24.055 Z-2.235
X24.033 Z-2.19
X24.025 Z-2.141
G0 Z3
Y0.059
Z-1.3
G1 Z-3.141 F100
X24.033 Z-3.19
X24.055 Z-3.235
X24.09 Z-3.27
X24.135 Z-3.292
X24.184 Z-3.3
X24.263
X24.312 Y0.067
X24.356 Y0.089
X24.392 Y0.124
X24.414 Y0.169
X24.422 Y0.218
G3 X22.829 I-0.796 F300
X24.422 I0.796
G1 X24.414 Y0.267 F100
X24.392 Y0.311
X24.356 Y0.346
X24.312 Y0.369
X24.263 Y0.377
X24.184
X24.135 Z-3.292
X24.09 Z-3.27
X24.055 Z-3.235
X24.033 Z-3.19
X24.025 Z-3.141
G0 Z3
Y0.059
Z-2.3
G1 Z-4.141 F100
X24.033 Z-4.19
X24.055 Z-4.235
X24.09 Z-4.27
X24.135 Z-4.292
X24.184 Z-4.3
X24.263
X24.312 Y0.067
X24.356 Y0.089
X24.392 Y0.124
X24.414 Y0.169
X24.422 Y0.218
G3 X22.829 I-0.796 F300
X24.422 I0.796
G1 X24.414 Y0.267 F100
X24.392 Y0.311
X24.356 Y0.346
X24.312 Y0.369
X24.263 Y0.377
X24.184
X24.135 Z-4.292
X24.09 Z-4.27
X24.055 Z-4.235
X24.033 Z-4.19
X24.025 Z-4.141
G0 Z3
Y0.059
Z-3.3
G1 Z-5.141 F100
X24.033 Z-5.19
X24.055 Z-5.235
X24.09 Z-5.27
X24.135 Z-5.292
X24.184 Z-5.3
X24.263
X24.312 Y0.067
X24.356 Y0.089
X24.392 Y0.124
X24.414 Y0.169
X24.422 Y0.218
G3 X22.829 I-0.796 F300
X24.422 I0.796
G1 X24.414 Y0.267 F100
X24.392 Y0.311
X24.356 Y0.346
X24.312 Y0.369
X24.263 Y0.377
X24.184
X24.135 Z-5.292
X24.09 Z-5.27
X24.055 Z-5.235
X24.033 Z-5.19
X24.025 Z-5.141
G0 Z3
Y0.059
Z-3.8
G1 Z-5.641 F100
X24.033 Z-5.69
X24.055 Z-5.735
X24.09 Z-5.77
X24.135 Z-5.792
X24.184 Z-5.8
X24.263
X24.312 Y0.067
X24.356 Y0.089
X24.392 Y0.124
X24.414 Y0.169
X24.422 Y0.218
G3 X22.829 I-0.796 F300
X24.422 I0.796
G1 X24.414 Y0.267 F100
X24.392 Y0.311
X24.356 Y0.346
X24.312 Y0.369
X24.263 Y0.377
X24.184
X24.135 Z-5.792
X24.09 Z-5.77
X24.055 Z-5.735
X24.033 Z-5.69
X24.025 Z-5.641
G0 Z3
Y0.059
Z-4.3
G1 Z-6.141 F100
X24.033 Z-6.19
X24.055 Z-6.235
X24.09 Z-6.27
X24.135 Z-6.292
X24.184 Z-6.3
X24.263
X24.312 Y0.067
X24.356 Y0.089
X24.392 Y0.124
X24.414 Y0.169
X24.422 Y0.218
G3 X22.829 I-0.796 F300
X24.422 I0.796
G1 X24.414 Y0.267 F100
X24.392 Y0.311
X24.356 Y0.346
X24.312 Y0.369
X24.263 Y0.377
X24.184
X24.135 Z-6.292
X24.09 Z-6.27
X24.055 Z-6.235
X24.033 Z-6.19
X24.025 Z-6.141
G0 Z3
X9.025 Y-14.441
Z-0.033
G1 Z-1.874 F100
X9.033 Z-1.923
X9.055 Z-1.968
X9.09 Z-2.003
X9.135 Z-2.025
X9.184 Z-2.033
X9.263
X9.312 Y-14.433
X9.356 Y-14.411
X9.392 Y-14.375
X9.414 Y-14.331
X9.422 Y-14.282
G3 X7.829 I-0.796 F300
X9.422 I0.796
G1 X9.414 Y-14.233 F100
X9.392 Y-14.189
X9.356 Y-14.154
X9.312 Y-14.131
X9.263 Y-14.123
X9.184
X9.135 Z-2.025
X9.09 Z-2.003
X9.055 Z-1.968
X9.033 Z-1.923
X9.025 Z-1.874
G0 Z3
Y-14.441
Z-1.033
G1 Z-2.874 F100
X9.033 Z-2.923
X9.055 Z-2.968
X9.09 Z-3.003
X9.135 Z-3.025
X9.184 Z-3.033
X9.263
X9.312 Y-14.433
X9.356 Y-14.411
X9.392 Y-14.375
X9.414 Y-14.331
X9.422 Y-14.282
G3 X7.829 I-0.796 F300
X9.422 I0.796
G1 X9.414 Y-14.233 F100
X9.392 Y-14.189
X9.356 Y-14.154
X9.312 Y-14.131
X9.263 Y-14.123
X9.184
X9.135 Z-3.025
X9.09 Z-3.003
X9.055 Z-2.968
X9.033 Z-2.923
X9.025 Z-2.874
G0 Z3
Y-14.441
Z-2.033
G1 Z-3.874 F100
X9.033 Z-3.923
X9.055 Z-3.968
X9.09 Z-4.003
X9.135 Z-4.025
X9.184 Z-4.033
X9.263
X9.312 Y-14.433
X9.356 Y-14.411
X9.392 Y-14.375
X9.414 Y-14.331
X9.422 Y-14.282
G3 X7.829 I-0.796 F300
X9.422 I0.796
G1 X9.414 Y-14.233 F100
X9.392 Y-14.189
X9.356 Y-14.154
X9.312 Y-14.131
X9.263 Y-14.123
X9.184
X9.135 Z-4.025
X9.09 Z-4.003
X9.055 Z-3.968
X9.033 Z-3.923
X9.025 Z-3.874
G0 Z3
Y-14.441
Z-3.033
G1 Z-4.874 F100
X9.033 Z-4.923
X9.055 Z-4.968
X9.09 Z-5.003
X9.135 Z-5.025
X9.184 Z-5.033
X9.263
X9.312 Y-14.433
X9.356 Y-14.411
X9.392 Y-14.375
X9.414 Y-14.331
X9.422 Y-14.282
G3 X7.829 I-0.796 F300
X9.422 I0.796
G1 X9.414 Y-14.233 F100
X9.392 Y-14.189
X9.356 Y-14.154
X9.312 Y-14.131
X9.263 Y-14.123
X9.184
X9.135 Z-5.025
X9.09 Z-5.003
X9.055 Z-4.968
X9.033 Z-4.923
X9.025 Z-4.874
G0 Z3
Y-14.441
Z-3.533
G1 Z-5.374 F100
X9.033 Z-5.423
X9.055 Z-5.468
X9.09 Z-5.503
X9.135 Z-5.525
X9.184 Z-5.533
X9.263
X9.312 Y-14.433
X9.356 Y-14.411
X9.392 Y-14.375
X9.414 Y-14.331
X9.422 Y-14.282
G3 X7.829 I-0.796 F300
X9.422 I0.796
G1 X9.414 Y-14.233 F100
X9.392 Y-14.189
X9.356 Y-14.154
X9.312 Y-14.131
X9.263 Y-14.123
X9.184
X9.135 Z-5.525
X9.09 Z-5.503
X9.055 Z-5.468
X9.033 Z-5.423
X9.025 Z-5.374
G0 Z3
Y-14.441
Z-4.033
G1 Z-5.874 F100
X9.033 Z-5.923
X9.055 Z-5.968
X9.09 Z-6.003
X9.135 Z-6.025
X9.184 Z-6.033
X9.263
X9.312 Y-14.433
X9.356 Y-14.411
X9.392 Y-14.375
X9.414 Y-14.331
X9.422 Y-14.282
G3 X7.829 I-0.796 F300
X9.422 I0.796
G1 X9.414 Y-14.233 F100
X9.392 Y-14.189
X9.356 Y-14.154
X9.312 Y-14.131
X9.263 Y-14.123
X9.184
X9.135 Z-6.025
X9.09 Z-6.003
X9.055 Z-5.968
X9.033 Z-5.923
X9.025 Z-5.874
G0 Z3
X4.025 Y0.059
Z-0.3
G1 Z-2.141 F100
X4.033 Z-2.19
X4.055 Z-2.235
X4.09 Z-2.27
X4.135 Z-2.292
X4.184 Z-2.3
X4.263
X4.312 Y0.067
X4.356 Y0.089
X4.392 Y0.125
X4.414 Y0.169
X4.422 Y0.218
G3 X2.829 I-0.796 F300
X4.422 I0.796
G1 X4.414 Y0.267 F100
X4.392 Y0.311
X4.356 Y0.346
X4.312 Y0.369
X4.263 Y0.377
X4.184
X4.135 Z-2.292
X4.09 Z-2.27
X4.055 Z-2.235
X4.033 Z-2.19
X4.025 Z-2.141
G0 Z3
Y0.059
Z-1.3
G1 Z-3.141 F100
X4.033 Z-3.19
X4.055 Z-3.235
X4.09 Z-3.27
X4.135 Z-3.292
X4.184 Z-3.3
X4.263
X4.312 Y0.067
X4.356 Y0.089
X4.392 Y0.125
X4.414 Y0.169
X4.422 Y0.218
G3 X2.829 I-0.796 F300
X4.422 I0.796
G1 X4.414 Y0.267 F100
X4.392 Y0.311
X4.356 Y0.346
X4.312 Y0.369
X4.263 Y0.377
X4.184
X4.135 Z-3.292
X4.09 Z-3.27
X4.055 Z-3.235
X4.033 Z-3.19
X4.025 Z-3.141
G0 Z3
Y0.059
Z-2.3
G1 Z-4.141 F100
X4.033 Z-4.19
X4.055 Z-4.235
X4.09 Z-4.27
X4.135 Z-4.292
X4.184 Z-4.3
X4.263
X4.312 Y0.067
X4.356 Y0.089
X4.392 Y0.125
X4.414 Y0.169
X4.422 Y0.218
G3 X2.829 I-0.796 F300
X4.422 I0.796
G1 X4.414 Y0.267 F100
X4.392 Y0.311
X4.356 Y0.346
X4.312 Y0.369
X4.263 Y0.377
X4.184
X4.135 Z-4.292
X4.09 Z-4.27
X4.055 Z-4.235
X4.033 Z-4.19
X4.025 Z-4.141
G0 Z3
Y0.059
Z-3.3
G1 Z-5.141 F100
X4.033 Z-5.19
X4.055 Z-5.235
X4.09 Z-5.27
X4.135 Z-5.292
X4.184 Z-5.3
X4.263
X4.312 Y0.067
X4.356 Y0.089
X4.392 Y0.125
X4.414 Y0.169
X4.422 Y0.218
G3 X2.829 I-0.796 F300
X4.422 I0.796
G1 X4.414 Y0.267 F100
X4.392 Y0.311
X4.356 Y0.346
X4.312 Y0.369
X4.263 Y0.377
X4.184
X4.135 Z-5.292
X4.09 Z-5.27
X4.055 Z-5.235
X4.033 Z-5.19
X4.025 Z-5.141
G0 Z3
Y0.059
Z-3.8
G1 Z-5.641 F100
X4.033 Z-5.69
X4.055 Z-5.735
X4.09 Z-5.77
X4.135 Z-5.792
X4.184 Z-5.8
X4.263
X4.312 Y0.067
X4.356 Y0.089
X4.392 Y0.125
X4.414 Y0.169
X4.422 Y0.218
G3 X2.829 I-0.796 F300
X4.422 I0.796
G1 X4.414 Y0.267 F100
X4.392 Y0.311
X4.356 Y0.346
X4.312 Y0.369
X4.263 Y0.377
X4.184
X4.135 Z-5.792
X4.09 Z-5.77
X4.055 Z-5.735
X4.033 Z-5.69
X4.025 Z-5.641
G0 Z3
Y0.059
Z-4.3
G1 Z-6.141 F100
X4.033 Z-6.19
X4.055 Z-6.235
X4.09 Z-6.27
X4.135 Z-6.292
X4.184 Z-6.3
X4.263
X4.312 Y0.067
X4.356 Y0.089
X4.392 Y0.125
X4.414 Y0.169
X4.422 Y0.218
G3 X2.829 I-0.796 F300
X4.422 I0.796
G1 X4.414 Y0.267 F100
X4.392 Y0.311
X4.356 Y0.346
X4.312 Y0.369
X4.263 Y0.377
X4.184
X4.135 Z-6.292
X4.09 Z-6.27
X4.055 Z-6.235
X4.033 Z-6.19
X4.025 Z-6.141
G0 Z3
X-9.025 Y14.441
Z-0.033
G1 Z-1.874 F100
X-9.033 Z-1.923
X-9.055 Z-1.968
X-9.09 Z-2.003
X-9.135 Z-2.025
X-9.184 Z-2.033
X-9.263
X-9.312 Y14.433
X-9.356 Y14.411
X-9.392 Y14.375
X-9.414 Y14.331
X-9.422 Y14.282
G3 X-7.829 I0.796 F300
X-9.422 I-0.796
G1 X-9.414 Y14.233 F100
X-9.392 Y14.189
X-9.356 Y14.154
X-9.312 Y14.131
X-9.263 Y14.123
X-9.184
X-9.135 Z-2.025
X-9.09 Z-2.003
X-9.055 Z-1.968
X-9.033 Z-1.923
X-9.025 Z-1.874
G0 Z3
Y14.441
Z-1.033
G1 Z-2.874 F100
X-9.033 Z-2.923
X-9.055 Z-2.968
X-9.09 Z-3.003
X-9.135 Z-3.025
X-9.184 Z-3.033
X-9.263
X-9.312 Y14.433
X-9.356 Y14.411
X-9.392 Y14.375
X-9.414 Y14.331
X-9.422 Y14.282
G3 X-7.829 I0.796 F300
X-9.422 I-0.796
G1 X-9.414 Y14.233 F100
X-9.392 Y14.189
X-9.356 Y14.154
X-9.312 Y14.131
X-9.263 Y14.123
X-9.184
X-9.135 Z-3.025
X-9.09 Z-3.003
X-9.055 Z-2.968
X-9.033 Z-2.923
X-9.025 Z-2.874
G0 Z3
Y14.441
Z-2.033
G1 Z-3.874 F100
X-9.033 Z-3.923
X-9.055 Z-3.968
X-9.09 Z-4.003
X-9.135 Z-4.025
X-9.184 Z-4.033
X-9.263
X-9.312 Y14.433
X-9.356 Y14.411
X-9.392 Y14.375
X-9.414 Y14.331
X-9.422 Y14.282
G3 X-7.829 I0.796 F300
X-9.422 I-0.796
G1 X-9.414 Y14.233 F100
X-9.392 Y14.189
X-9.356 Y14.154
X-9.312 Y14.131
X-9.263 Y14.123
X-9.184
X-9.135 Z-4.025
X-9.09 Z-4.003
X-9.055 Z-3.968
X-9.033 Z-3.923
X-9.025 Z-3.874
G0 Z3
Y14.441
Z-3.033
G1 Z-4.874 F100
X-9.033 Z-4.923
X-9.055 Z-4.968
X-9.09 Z-5.003
X-9.135 Z-5.025
X-9.184 Z-5.033
X-9.263
X-9.312 Y14.433
X-9.356 Y14.411
X-9.392 Y14.375
X-9.414 Y14.331
X-9.422 Y14.282
G3 X-7.829 I0.796 F300
X-9.422 I-0.796
G1 X-9.414 Y14.233 F100
X-9.392 Y14.189
X-9.356 Y14.154
X-9.312 Y14.131
X-9.263 Y14.123
X-9.184
X-9.135 Z-5.025
X-9.09 Z-5.003
X-9.055 Z-4.968
X-9.033 Z-4.923
X-9.025 Z-4.874
G0 Z3
Y14.441
Z-3.533
G1 Z-5.374 F100
X-9.033 Z-5.423
X-9.055 Z-5.468
X-9.09 Z-5.503
X-9.135 Z-5.525
X-9.184 Z-5.533
X-9.263
X-9.312 Y14.433
X-9.356 Y14.411
X-9.392 Y14.375
X-9.414 Y14.331
X-9.422 Y14.282
G3 X-7.829 I0.796 F300
X-9.422 I-0.796
G1 X-9.414 Y14.233 F100
X-9.392 Y14.189
X-9.356 Y14.154
X-9.312 Y14.131
X-9.263 Y14.123
X-9.184
X-9.135 Z-5.525
X-9.09 Z-5.503
X-9.055 Z-5.468
X-9.033 Z-5.423
X-9.025 Z-5.374
G0 Z3
Y14.441
Z-4.033
G1 Z-5.874 F100
X-9.033 Z-5.923
X-9.055 Z-5.968
X-9.09 Z-6.003
X-9.135 Z-6.025
X-9.184 Z-6.033
X-9.263
X-9.312 Y14.433
X-9.356 Y14.411
X-9.392 Y14.375
X-9.414 Y14.331
X-9.422 Y14.282
G3 X-7.829 I0.796 F300
X-9.422 I-0.796
G1 X-9.414 Y14.233 F100
X-9.392 Y14.189
X-9.356 Y14.154
X-9.312 Y14.131
X-9.263 Y14.123
X-9.184
X-9.135 Z-6.025
X-9.09 Z-6.003
X-9.055 Z-5.968
X-9.033 Z-5.923
X-9.025 Z-5.874
G0 Z3
X-15.975 Y0.059
Z-0.3
G1 Z-2.141 F100
X-15.967 Z-2.19
X-15.945 Z-2.235
X-15.91 Z-2.27
X-15.865 Z-2.292
X-15.816 Z-2.3
X-15.737
X-15.688 Y0.067
X-15.644 Y0.089
X-15.608 Y0.125
X-15.586 Y0.169
X-15.578 Y0.218
G3 X-17.171 I-0.796 F300
X-15.578 I0.796
G1 X-15.586 Y0.267 F100
X-15.608 Y0.311
X-15.644 Y0.346
X-15.688 Y0.369
X-15.737 Y0.377
X-15.816
X-15.865 Z-2.292
X-15.91 Z-2.27
X-15.945 Z-2.235
X-15.967 Z-2.19
X-15.975 Z-2.141
G0 Z3
Y0.059
Z-1.3
G1 Z-3.141 F100
X-15.967 Z-3.19
X-15.945 Z-3.235
X-15.91 Z-3.27
X-15.865 Z-3.292
X-15.816 Z-3.3
X-15.737
X-15.688 Y0.067
X-15.644 Y0.089
X-15.608 Y0.125
X-15.586 Y0.169
X-15.578 Y0.218
G3 X-17.171 I-0.796 F300
X-15.578 I0.796
G1 X-15.586 Y0.267 F100
X-15.608 Y0.311
X-15.644 Y0.346
X-15.688 Y0.369
X-15.737 Y0.377
X-15.816
X-15.865 Z-3.292
X-15.91 Z-3.27
X-15.945 Z-3.235
X-15.967 Z-3.19
X-15.975 Z-3.141
G0 Z3
Y0.059
Z-2.3
G1 Z-4.141 F100
X-15.967 Z-4.19
X-15.945 Z-4.235
X-15.91 Z-4.27
X-15.865 Z-4.292
X-15.816 Z-4.3
X-15.737
X-15.688 Y0.067
X-15.644 Y0.089
X-15.608 Y0.125
X-15.586 Y0.169
X-15.578 Y0.218
G3 X-17.171 I-0.796 F300
X-15.578 I0.796
G1 X-15.586 Y0.267 F100
X-15.608 Y0.311
X-15.644 Y0.346
X-15.688 Y0.369
X-15.737 Y0.377
X-15.816
X-15.865 Z-4.292
X-15.91 Z-4.27
X-15.945 Z-4.235
X-15.967 Z-4.19
X-15.975 Z-4.141
G0 Z3
Y0.059
Z-3.3
G1 Z-5.141 F100
X-15.967 Z-5.19
X-15.945 Z-5.235
X-15.91 Z-5.27
X-15.865 Z-5.292
X-15.816 Z-5.3
X-15.737
X-15.688 Y0.067
X-15.644 Y0.089
X-15.608 Y0.125
X-15.586 Y0.169
X-15.578 Y0.218
G3 X-17.171 I-0.796 F300
X-15.578 I0.796
G1 X-15.586 Y0.267 F100
X-15.608 Y0.311
X-15.644 Y0.346
X-15.688 Y0.369
X-15.737 Y0.377
X-15.816
X-15.865 Z-5.292
X-15.91 Z-5.27
X-15.945 Z-5.235
X-15.967 Z-5.19
X-15.975 Z-5.141
G0 Z3
Y0.059
Z-3.8
G1 Z-5.641 F100
X-15.967 Z-5.69
X-15.945 Z-5.735
X-15.91 Z-5.77
X-15.865 Z-5.792
X-15.816 Z-5.8
X-15.737
X-15.688 Y0.067
X-15.644 Y0.089
X-15.608 Y0.125
X-15.586 Y0.169
X-15.578 Y0.218
G3 X-17.171 I-0.796 F300
X-15.578 I0.796
G1 X-15.586 Y0.267 F100
X-15.608 Y0.311
X-15.644 Y0.346
X-15.688 Y0.369
X-15.737 Y0.377
X-15.816
X-15.865 Z-5.792
X-15.91 Z-5.77
X-15.945 Z-5.735
X-15.967 Z-5.69
X-15.975 Z-5.641
G0 Z3
Y0.059
Z-4.3
G1 Z-6.141 F100
X-15.967 Z-6.19
X-15.945 Z-6.235
X-15.91 Z-6.27
X-15.865 Z-6.292
X-15.816 Z-6.3
X-15.737
X-15.688 Y0.067
X-15.644 Y0.089
X-15.608 Y0.125
X-15.586 Y0.169
X-15.578 Y0.218
G3 X-17.171 I-0.796 F300
X-15.578 I0.796
G1 X-15.586 Y0.267 F100
X-15.608 Y0.311
X-15.644 Y0.346
X-15.688 Y0.369
X-15.737 Y0.377
X-15.816
X-15.865 Z-6.292
X-15.91 Z-6.27
X-15.945 Z-6.235
X-15.967 Z-6.19
X-15.975 Z-6.141
G0 Z3
X-26.975 Y0.059
Z-0.3
G1 Z-2.141 F100
X-26.968 Z-2.19
X-26.945 Z-2.235
X-26.91 Z-2.27
X-26.866 Z-2.292
X-26.817 Z-2.3
X-26.737
X-26.688 Y0.067
X-26.644 Y0.089
X-26.609 Y0.125
X-26.586 Y0.169
X-26.578 Y0.218
G3 X-28.171 I-0.796 F300
X-26.578 I0.796
G1 X-26.586 Y0.267 F100
X-26.609 Y0.311
X-26.644 Y0.346
X-26.688 Y0.369
X-26.737 Y0.377
X-26.817
X-26.866 Z-2.292
X-26.91 Z-2.27
X-26.945 Z-2.235
X-26.968 Z-2.19
X-26.975 Z-2.141
G0 Z3
Y0.059
Z-1.3
G1 Z-3.141 F100
X-26.968 Z-3.19
X-26.945 Z-3.235
X-26.91 Z-3.27
X-26.866 Z-3.292
X-26.817 Z-3.3
X-26.737
X-26.688 Y0.067
X-26.644 Y0.089
X-26.609 Y0.125
X-26.586 Y0.169
X-26.578 Y0.218
G3 X-28.171 I-0.796 F300
X-26.578 I0.796
G1 X-26.586 Y0.267 F100
X-26.609 Y0.311
X-26.644 Y0.346
X-26.688 Y0.369
X-26.737 Y0.377
X-26.817
X-26.866 Z-3.292
X-26.91 Z-3.27
X-26.945 Z-3.235
X-26.968 Z-3.19
X-26.975 Z-3.141
G0 Z3
Y0.059
Z-2.3
G1 Z-4.141 F100
X-26.968 Z-4.19
X-26.945 Z-4.235
X-26.91 Z-4.27
X-26.866 Z-4.292
X-26.817 Z-4.3
X-26.737
X-26.688 Y0.067
X-26.644 Y0.089
X-26.609 Y0.125
X-26.586 Y0.169
X-26.578 Y0.218
G3 X-28.171 I-0.796 F300
X-26.578 I0.796
G1 X-26.586 Y0.267 F100
X-26.609 Y0.311
X-26.644 Y0.346
X-26.688 Y0.369
X-26.737 Y0.377
X-26.817
X-26.866 Z-4.292
X-26.91 Z-4.27
X-26.945 Z-4.235
X-26.968 Z-4.19
X-26.975 Z-4.141
G0 Z3
Y0.059
Z-3.3
G1 Z-5.141 F100
X-26.968 Z-5.19
X-26.945 Z-5.235
X-26.91 Z-5.27
X-26.866 Z-5.292
X-26.817 Z-5.3
X-26.737
X-26.688 Y0.067
X-26.644 Y0.089
X-26.609 Y0.125
X-26.586 Y0.169
X-26.578 Y0.218
G3 X-28.171 I-0.796 F300
X-26.578 I0.796
G1 X-26.586 Y0.267 F100
X-26.609 Y0.311
X-26.644 Y0.346
X-26.688 Y0.369
X-26.737 Y0.377
X-26.817
X-26.866 Z-5.292
X-26.91 Z-5.27
X-26.945 Z-5.235
X-26.968 Z-5.19
X-26.975 Z-5.141
G0 Z3
Y0.059
Z-3.8
G1 Z-5.641 F100
X-26.968 Z-5.69
X-26.945 Z-5.735
X-26.91 Z-5.77
X-26.866 Z-5.792
X-26.817 Z-5.8
X-26.737
X-26.688 Y0.067
X-26.644 Y0.089
X-26.609 Y0.125
X-26.586 Y0.169
X-26.578 Y0.218
G3 X-28.171 I-0.796 F300
X-26.578 I0.796
G1 X-26.586 Y0.267 F100
X-26.609 Y0.311
X-26.644 Y0.346
X-26.688 Y0.369
X-26.737 Y0.377
X-26.817
X-26.866 Z-5.792
X-26.91 Z-5.77
X-26.945 Z-5.735
X-26.968 Z-5.69
X-26.975 Z-5.641
G0 Z3
Y0.059
Z-4.3
G1 Z-6.141 F100
X-26.968 Z-6.19
X-26.945 Z-6.235
X-26.91 Z-6.27
X-26.866 Z-6.292
X-26.817 Z-6.3
X-26.737
X-26.688 Y0.067
X-26.644 Y0.089
X-26.609 Y0.125
X-26.586 Y0.169
X-26.578 Y0.218
G3 X-28.171 I-0.796 F300
X-26.578 I0.796
G1 X-26.586 Y0.267 F100
X-26.609 Y0.311
X-26.644 Y0.346
X-26.688 Y0.369
X-26.737 Y0.377
X-26.817
X-26.866 Z-6.292
X-26.91 Z-6.27
X-26.945 Z-6.235
X-26.968 Z-6.19
X-26.975 Z-6.141
G0 Z3
X-65.975 Y-14.441
Z-0.033
G1 Z-1.874 F100
X-65.967 Z-1.923
X-65.945 Z-1.968
X-65.91 Z-2.003
X-65.865 Z-2.025
X-65.816 Z-2.033
X-65.737
X-65.688 Y-14.433
X-65.644 Y-14.411
X-65.608 Y-14.375
X-65.586 Y-14.331
X-65.578 Y-14.282
G3 X-67.171 I-0.796 F300
X-65.578 I0.796
G1 X-65.586 Y-14.233 F100
X-65.608 Y-14.189
X-65.644 Y-14.154
X-65.688 Y-14.131
X-65.737 Y-14.123
X-65.816
X-65.865 Z-2.025
X-65.91 Z-2.003
X-65.945 Z-1.968
X-65.967 Z-1.923
X-65.975 Z-1.874
G0 Z3
Y-14.441
Z-1.033
G1 Z-2.874 F100
X-65.967 Z-2.923
X-65.945 Z-2.968
X-65.91 Z-3.003
X-65.865 Z-3.025
X-65.816 Z-3.033
X-65.737
X-65.688 Y-14.433
X-65.644 Y-14.411
X-65.608 Y-14.375
X-65.586 Y-14.331
X-65.578 Y-14.282
G3 X-67.171 I-0.796 F300
X-65.578 I0.796
G1 X-65.586 Y-14.233 F100
X-65.608 Y-14.189
X-65.644 Y-14.154
X-65.688 Y-14.131
X-65.737 Y-14.123
X-65.816
X-65.865 Z-3.025
X-65.91 Z-3.003
X-65.945 Z-2.968
X-65.967 Z-2.923
X-65.975 Z-2.874
G0 Z3
Y-14.441
Z-2.033
G1 Z-3.874 F100
X-65.967 Z-3.923
X-65.945 Z-3.968
X-65.91 Z-4.003
X-65.865 Z-4.025
X-65.816 Z-4.033
X-65.737
X-65.688 Y-14.433
X-65.644 Y-14.411
X-65.608 Y-14.375
X-65.586 Y-14.331
X-65.578 Y-14.282
G3 X-67.171 I-0.796 F300
X-65.578 I0.796
G1 X-65.586 Y-14.233 F100
X-65.608 Y-14.189
X-65.644 Y-14.154
X-65.688 Y-14.131
X-65.737 Y-14.123
X-65.816
X-65.865 Z-4.025
X-65.91 Z-4.003
X-65.945 Z-3.968
X-65.967 Z-3.923
X-65.975 Z-3.874
G0 Z3
Y-14.441
Z-3.033
G1 Z-4.874 F100
X-65.967 Z-4.923
X-65.945 Z-4.968
X-65.91 Z-5.003
X-65.865 Z-5.025
X-65.816 Z-5.033
X-65.737
X-65.688 Y-14.433
X-65.644 Y-14.411
X-65.608 Y-14.375
X-65.586 Y-14.331
X-65.578 Y-14.282
G3 X-67.171 I-0.796 F300
X-65.578 I0.796
G1 X-65.586 Y-14.233 F100
X-65.608 Y-14.189
X-65.644 Y-14.154
X-65.688 Y-14.131
X-65.737 Y-14.123
X-65.816
X-65.865 Z-5.025
X-65.91 Z-5.003
X-65.945 Z-4.968
X-65.967 Z-4.923
X-65.975 Z-4.874
G0 Z3
Y-14.441
Z-3.533
G1 Z-5.374 F100
X-65.967 Z-5.423
X-65.945 Z-5.468
X-65.91 Z-5.503
X-65.865 Z-5.525
X-65.816 Z-5.533
X-65.737
X-65.688 Y-14.433
X-65.644 Y-14.411
X-65.608 Y-14.375
X-65.586 Y-14.331
X-65.578 Y-14.282
G3 X-67.171 I-0.796 F300
X-65.578 I0.796
G1 X-65.586 Y-14.233 F100
X-65.608 Y-14.189
X-65.644 Y-14.154
X-65.688 Y-14.131
X-65.737 Y-14.123
X-65.816
X-65.865 Z-5.525
X-65.91 Z-5.503
X-65.945 Z-5.468
X-65.967 Z-5.423
X-65.975 Z-5.374
G0 Z3
Y-14.441
Z-4.033
G1 Z-5.874 F100
X-65.967 Z-5.923
X-65.945 Z-5.968
X-65.91 Z-6.003
X-65.865 Z-6.025
X-65.816 Z-6.033
X-65.737
X-65.688 Y-14.433
X-65.644 Y-14.411
X-65.608 Y-14.375
X-65.586 Y-14.331
X-65.578 Y-14.282
G3 X-67.171 I-0.796 F300
X-65.578 I0.796
G1 X-65.586 Y-14.233 F100
X-65.608 Y-14.189
X-65.644 Y-14.154
X-65.688 Y-14.131
X-65.737 Y-14.123
X-65.816
X-65.865 Z-6.025
X-65.91 Z-6.003
X-65.945 Z-5.968
X-65.967 Z-5.923
X-65.975 Z-5.874
G0 Z3
X-55.025 Y3.941
Z-2.833
G1 Z-4.674 F100
X-55.033 Z-4.723
X-55.055 Z-4.768
X-55.09 Z-4.803
X-55.135 Z-4.825
X-55.184 Z-4.833
X-55.263
X-55.312 Y3.933
X-55.356 Y3.911
X-55.392 Y3.876
X-55.414 Y3.831
X-55.422 Y3.782
G3 X-53.829 I0.796 F300
X-55.422 I-0.796
G1 X-55.414 Y3.733 F100
X-55.392 Y3.689
X-55.356 Y3.654
X-55.312 Y3.631
X-55.263 Y3.623
X-55.184
X-55.135 Z-4.825
X-55.09 Z-4.803
X-55.055 Z-4.768
X-55.033 Z-4.723
X-55.025 Z-4.674
G0 Z3
Y3.941
Z-3.433
G1 Z-5.274 F100
X-55.033 Z-5.323
X-55.055 Z-5.368
X-55.09 Z-5.403
X-55.135 Z-5.425
X-55.184 Z-5.433
X-55.263
X-55.312 Y3.933
X-55.356 Y3.911
X-55.392 Y3.876
X-55.414 Y3.831
X-55.422 Y3.782
G3 X-53.829 I0.796 F300
X-55.422 I-0.796
G1 X-55.414 Y3.733 F100
X-55.392 Y3.689
X-55.356 Y3.654
X-55.312 Y3.631
X-55.263 Y3.623
X-55.184
X-55.135 Z-5.425
X-55.09 Z-5.403
X-55.055 Z-5.368
X-55.033 Z-5.323
X-55.025 Z-5.274
G0 Z3
Y3.941
Z-4.033
G1 Z-5.874 F100
X-55.033 Z-5.923
X-55.055 Z-5.968
X-55.09 Z-6.003
X-55.135 Z-6.025
X-55.184 Z-6.033
X-55.263
X-55.312 Y3.933
X-55.356 Y3.911
X-55.392 Y3.876
X-55.414 Y3.831
X-55.422 Y3.782
G3 X-53.829 I0.796 F300
X-55.422 I-0.796
G1 X-55.414 Y3.733 F100
X-55.392 Y3.689
X-55.356 Y3.654
X-55.312 Y3.631
X-55.263 Y3.623
X-55.184
X-55.135 Z-6.025
X-55.09 Z-6.003
X-55.055 Z-5.968
X-55.033 Z-5.923
X-55.025 Z-5.874
G0 Z3
Y24.941
Z-2.833
G1 Z-4.674 F100
X-55.033 Z-4.723
X-55.055 Z-4.768
X-55.09 Z-4.803
X-55.135 Z-4.825
X-55.184 Z-4.833
X-55.263
X-55.312 Y24.933
X-55.356 Y24.911
X-55.392 Y24.875
X-55.414 Y24.831
X-55.422 Y24.782
G3 X-53.829 I0.796 F300
X-55.422 I-0.796
G1 X-55.414 Y24.733 F100
X-55.392 Y24.689
X-55.356 Y24.654
X-55.312 Y24.631
X-55.263 Y24.623
X-55.184
X-55.135 Z-4.825
X-55.09 Z-4.803
X-55.055 Z-4.768
X-55.033 Z-4.723
X-55.025 Z-4.674
G0 Z3
Y24.941
Z-3.433
G1 Z-5.274 F100
X-55.033 Z-5.323
X-55.055 Z-5.368
X-55.09 Z-5.403
X-55.135 Z-5.425
X-55.184 Z-5.433
X-55.263
X-55.312 Y24.933
X-55.356 Y24.911
X-55.392 Y24.875
X-55.414 Y24.831
X-55.422 Y24.782
G3 X-53.829 I0.796 F300
X-55.422 I-0.796
G1 X-55.414 Y24.733 F100
X-55.392 Y24.689
X-55.356 Y24.654
X-55.312 Y24.631
X-55.263 Y24.623
X-55.184
X-55.135 Z-5.425
X-55.09 Z-5.403
X-55.055 Z-5.368
X-55.033 Z-5.323
X-55.025 Z-5.274
G0 Z3
Y24.941
Z-4.033
G1 Z-5.874 F100
X-55.033 Z-5.923
X-55.055 Z-5.968
X-55.09 Z-6.003
X-55.135 Z-6.025
X-55.184 Z-6.033
X-55.263
X-55.312 Y24.933
X-55.356 Y24.911
X-55.392 Y24.875
X-55.414 Y24.831
X-55.422 Y24.782
G3 X-53.829 I0.796 F300
X-55.422 I-0.796
G1 X-55.414 Y24.733 F100
X-55.392 Y24.689
X-55.356 Y24.654
X-55.312 Y24.631
X-55.263 Y24.623
X-55.184
X-55.135 Z-6.025
X-55.09 Z-6.003
X-55.055 Z-5.968
X-55.033 Z-5.923
X-55.025 Z-5.874
G0 Z3
X-84.025 Y14.441
Z-0.033
G1 Z-1.874 F100
X-84.033 Z-1.923
X-84.055 Z-1.968
X-84.09 Z-2.003
X-84.135 Z-2.025
X-84.184 Z-2.033
X-84.263
X-84.312 Y14.433
X-84.356 Y14.411
X-84.392 Y14.375
X-84.414 Y14.331
X-84.422 Y14.282
G3 X-82.829 I0.796 F300
X-84.422 I-0.796
G1 X-84.414 Y14.233 F100
X-84.392 Y14.189
X-84.356 Y14.154
X-84.312 Y14.131
X-84.263 Y14.123
X-84.184
X-84.135 Z-2.025
X-84.09 Z-2.003
X-84.055 Z-1.968
X-84.033 Z-1.923
X-84.025 Z-1.874
G0 Z3
Y14.441
Z-1.033
G1 Z-2.874 F100
X-84.033 Z-2.923
X-84.055 Z-2.968
X-84.09 Z-3.003
X-84.135 Z-3.025
X-84.184 Z-3.033
X-84.263
X-84.312 Y14.433
X-84.356 Y14.411
X-84.392 Y14.375
X-84.414 Y14.331
X-84.422 Y14.282
G3 X-82.829 I0.796 F300
X-84.422 I-0.796
G1 X-84.414 Y14.233 F100
X-84.392 Y14.189
X-84.356 Y14.154
X-84.312 Y14.131
X-84.263 Y14.123
X-84.184
X-84.135 Z-3.025
X-84.09 Z-3.003
X-84.055 Z-2.968
X-84.033 Z-2.923
X-84.025 Z-2.874
G0 Z3
Y14.441
Z-2.033
G1 Z-3.874 F100
X-84.033 Z-3.923
X-84.055 Z-3.968
X-84.09 Z-4.003
X-84.135 Z-4.025
X-84.184 Z-4.033
X-84.263
X-84.312 Y14.433
X-84.356 Y14.411
X-84.392 Y14.375
X-84.414 Y14.331
X-84.422 Y14.282
G3 X-82.829 I0.796 F300
X-84.422 I-0.796
G1 X-84.414 Y14.233 F100
X-84.392 Y14.189
X-84.356 Y14.154
X-84.312 Y14.131
X-84.263 Y14.123
X-84.184
X-84.135 Z-4.025
X-84.09 Z-4.003
X-84.055 Z-3.968
X-84.033 Z-3.923
X-84.025 Z-3.874
G0 Z3
Y14.441
Z-3.033
G1 Z-4.874 F100
X-84.033 Z-4.923
X-84.055 Z-4.968
X-84.09 Z-5.003
X-84.135 Z-5.025
X-84.184 Z-5.033
X-84.263
X-84.312 Y14.433
X-84.356 Y14.411
X-84.392 Y14.375
X-84.414 Y14.331
X-84.422 Y14.282
G3 X-82.829 I0.796 F300
X-84.422 I-0.796
G1 X-84.414 Y14.233 F100
X-84.392 Y14.189
X-84.356 Y14.154
X-84.312 Y14.131
X-84.263 Y14.123
X-84.184
X-84.135 Z-5.025
X-84.09 Z-5.003
X-84.055 Z-4.968
X-84.033 Z-4.923
X-84.025 Z-4.874
G0 Z3
Y14.441
Z-3.533
G1 Z-5.374 F100
X-84.033 Z-5.423
X-84.055 Z-5.468
X-84.09 Z-5.503
X-84.135 Z-5.525
X-84.184 Z-5.533
X-84.263
X-84.312 Y14.433
X-84.356 Y14.411
X-84.392 Y14.375
X-84.414 Y14.331
X-84.422 Y14.282
G3 X-82.829 I0.796 F300
X-84.422 I-0.796
G1 X-84.414 Y14.233 F100
X-84.392 Y14.189
X-84.356 Y14.154
X-84.312 Y14.131
X-84.263 Y14.123
X-84.184
X-84.135 Z-5.525
X-84.09 Z-5.503
X-84.055 Z-5.468
X-84.033 Z-5.423
X-84.025 Z-5.374
G0 Z3
Y14.441
Z-4.033
G1 Z-5.874 F100
X-84.033 Z-5.923
X-84.055 Z-5.968
X-84.09 Z-6.003
X-84.135 Z-6.025
X-84.184 Z-6.033
X-84.263
X-84.312 Y14.433
X-84.356 Y14.411
X-84.392 Y14.375
X-84.414 Y14.331
X-84.422 Y14.282
G3 X-82.829 I0.796 F300
X-84.422 I-0.796
G1 X-84.414 Y14.233 F100
X-84.392 Y14.189
X-84.356 Y14.154
X-84.312 Y14.131
X-84.263 Y14.123
X-84.184
X-84.135 Z-6.025
X-84.09 Z-6.003
X-84.055 Z-5.968
X-84.033 Z-5.923
X-84.025 Z-5.874
G0 Z3
X-95.025 Y14.441
Z-2.833
G1 Z-4.674 F100
X-95.033 Z-4.723
X-95.055 Z-4.768
X-95.09 Z-4.803
X-95.135 Z-4.825
X-95.184 Z-4.833
X-95.263
X-95.312 Y14.433
X-95.356 Y14.411
X-95.392 Y14.375
X-95.414 Y14.331
X-95.422 Y14.282
G3 X-93.829 I0.796 F300
X-95.422 I-0.796
G1 X-95.414 Y14.233 F100
X-95.392 Y14.189
X-95.356 Y14.154
X-95.312 Y14.131
X-95.263 Y14.123
X-95.184
X-95.135 Z-4.825
X-95.09 Z-4.803
X-95.055 Z-4.768
X-95.033 Z-4.723
X-95.025 Z-4.674
G0 Z3
Y14.441
Z-3.433
G1 Z-5.274 F100
X-95.033 Z-5.323
X-95.055 Z-5.368
X-95.09 Z-5.403
X-95.135 Z-5.425
X-95.184 Z-5.433
X-95.263
X-95.312 Y14.433
X-95.356 Y14.411
X-95.392 Y14.375
X-95.414 Y14.331
X-95.422 Y14.282
G3 X-93.829 I0.796 F300
X-95.422 I-0.796
G1 X-95.414 Y14.233 F100
X-95.392 Y14.189
X-95.356 Y14.154
X-95.312 Y14.131
X-95.263 Y14.123
X-95.184
X-95.135 Z-5.425
X-95.09 Z-5.403
X-95.055 Z-5.368
X-95.033 Z-5.323
X-95.025 Z-5.274
G0 Z3
Y14.441
Z-4.033
G1 Z-5.874 F100
X-95.033 Z-5.923
X-95.055 Z-5.968
X-95.09 Z-6.003
X-95.135 Z-6.025
X-95.184 Z-6.033
X-95.263
X-95.312 Y14.433
X-95.356 Y14.411
X-95.392 Y14.375
X-95.414 Y14.331
X-95.422 Y14.282
G3 X-93.829 I0.796 F300
X-95.422 I-0.796
G1 X-95.414 Y14.233 F100
X-95.392 Y14.189
X-95.356 Y14.154
X-95.312 Y14.131
X-95.263 Y14.123
X-95.184
X-95.135 Z-6.025
X-95.09 Z-6.003
X-95.055 Z-5.968
X-95.033 Z-5.923
X-95.025 Z-5.874
G0 Z6
G28 G91 Z0
G90
G28 G91 X0 Y0
G90
M30
%
