(1001)
(T1  D=1.587 CR=0 - ZMIN=-6.35 - flat end mill)
G90 G94
G17
G21
G28 G91 Z0
G90

(Thread1)
M9
S20000 M3
G54
G0 X24.025 Y0.377
Z6
Z0.75
G1 Z-1.091 F100
X24.033 Z-1.14
X24.055 Z-1.185
X24.09 Z-1.22
X24.135 Z-1.242
X24.184 Z-1.25
X24.263
X24.312 Y0.369 Z-1.26
X24.356 Y0.346 Z-1.27
X24.392 Y0.311 Z-1.28
X24.414 Y0.267 Z-1.29
X24.422 Y0.218 Z-1.3
G2 X22.829 Z-1.8 I-0.796 F300
X24.422 Z-2.3 I0.796
X22.829 Z-2.8 I-0.796
X24.422 Z-3.3 I0.796
X22.829 Z-3.8 I-0.796
X24.422 Z-4.3 I0.796
X22.829 Z-4.8 I-0.796
X24.422 Z-5.3 I0.796
X22.829 Z-5.8 I-0.796
X24.422 Z-6.3 I0.796
G1 X24.414 Y0.169 Z-6.31 F100
X24.392 Y0.124 Z-6.32
X24.356 Y0.089 Z-6.33
X24.312 Y0.067 Z-6.34
X24.263 Y0.059 Z-6.35
X24.184
X24.135 Z-6.342
X24.09 Z-6.32
X24.055 Z-6.284
X24.033 Z-6.24
X24.025 Z-6.191
G0 Z3
X9.025 Y-14.123
Z1.017
G1 Z-0.824 F100
X9.033 Z-0.873
X9.055 Z-0.918
X9.09 Z-0.953
X9.135 Z-0.975
X9.184 Z-0.983
X9.263
X9.312 Y-14.131 Z-0.993
X9.356 Y-14.154 Z-1.003
X9.392 Y-14.189 Z-1.013
X9.414 Y-14.233 Z-1.023
X9.422 Y-14.282 Z-1.033
G2 X7.829 Z-1.533 I-0.796 F300
X9.422 Z-2.033 I0.796
X7.829 Z-2.533 I-0.796
X9.422 Z-3.033 I0.796
X7.829 Z-3.533 I-0.796
X9.422 Z-4.033 I0.796
X7.829 Z-4.533 I-0.796
X9.422 Z-5.033 I0.796
X7.829 Z-5.533 I-0.796
X9.422 Z-6.033 I0.796
G1 X9.414 Y-14.331 Z-6.043 F100
X9.392 Y-14.375 Z-6.053
X9.356 Y-14.411 Z-6.063
X9.312 Y-14.433 Z-6.073
X9.263 Y-14.441 Z-6.083
X9.184
X9.135 Z-6.075
X9.09 Z-6.052
X9.055 Z-6.017
X9.033 Z-5.973
X9.025 Z-5.924
G0 Z3
X4.025 Y0.377
Z0.75
G1 Z-1.091 F100
X4.033 Z-1.14
X4.055 Z-1.185
X4.09 Z-1.22
X4.135 Z-1.242
X4.184 Z-1.25
X4.263
X4.312 Y0.369 Z-1.26
X4.356 Y0.346 Z-1.27
X4.392 Y0.311 Z-1.28
X4.414 Y0.267 Z-1.29
X4.422 Y0.218 Z-1.3
G2 X2.829 Z-1.8 I-0.796 F300
X4.422 Z-2.3 I0.796
X2.829 Z-2.8 I-0.796
X4.422 Z-3.3 I0.796
X2.829 Z-3.8 I-0.796
X4.422 Z-4.3 I0.796
X2.829 Z-4.8 I-0.796
X4.422 Z-5.3 I0.796
X2.829 Z-5.8 I-0.796
X4.422 Z-6.3 I0.796
G1 X4.414 Y0.169 Z-6.31 F100
X4.392 Y0.125 Z-6.32
X4.356 Y0.089 Z-6.33
X4.312 Y0.067 Z-6.34
X4.263 Y0.059 Z-6.35
X4.184
X4.135 Z-6.342
X4.09 Z-6.32
X4.055 Z-6.284
X4.033 Z-6.24
X4.025 Z-6.191
G0 Z3
X-8.226 Y14.441
Z1.017
G1 Z-0.824 F100
X-8.219 Z-0.873
X-8.196 Z-0.918
X-8.161 Z-0.953
X-8.117 Z-0.975
X-8.068 Z-0.983
X-7.988
X-7.939 Y14.433 Z-0.993
X-7.895 Y14.411 Z-1.003
X-7.86 Y14.375 Z-1.013
X-7.837 Y14.331 Z-1.023
X-7.829 Y14.282 Z-1.033
G2 X-9.422 Z-1.533 I-0.796 F300
X-7.829 Z-2.033 I0.796
X-9.422 Z-2.533 I-0.796
X-7.829 Z-3.033 I0.796
X-9.422 Z-3.533 I-0.796
X-7.829 Z-4.033 I0.796
X-9.422 Z-4.533 I-0.796
X-7.829 Z-5.033 I0.796
X-9.422 Z-5.533 I-0.796
X-7.829 Z-6.033 I0.796
G1 X-7.837 Y14.233 Z-6.043 F100
X-7.86 Y14.189 Z-6.053
X-7.895 Y14.154 Z-6.063
X-7.939 Y14.131 Z-6.073
X-7.988 Y14.123 Z-6.083
X-8.068
X-8.117 Z-6.075
X-8.161 Z-6.052
X-8.196 Z-6.017
X-8.219 Z-5.973
X-8.226 Z-5.924
G0 Z3
X-15.975 Y0.377
Z0.75
G1 Z-1.091 F100
X-15.967 Z-1.14
X-15.945 Z-1.185
X-15.91 Z-1.22
X-15.865 Z-1.242
X-15.816 Z-1.25
X-15.737
X-15.688 Y0.369 Z-1.26
X-15.644 Y0.346 Z-1.27
X-15.608 Y0.311 Z-1.28
X-15.586 Y0.267 Z-1.29
X-15.578 Y0.218 Z-1.3
G2 X-17.171 Z-1.8 I-0.796 F300
X-15.578 Z-2.3 I0.796
X-17.171 Z-2.8 I-0.796
X-15.578 Z-3.3 I0.796
X-17.171 Z-3.8 I-0.796
X-15.578 Z-4.3 I0.796
X-17.171 Z-4.8 I-0.796
X-15.578 Z-5.3 I0.796
X-17.171 Z-5.8 I-0.796
X-15.578 Z-6.3 I0.796
G1 X-15.586 Y0.169 Z-6.31 F100
X-15.608 Y0.125 Z-6.32
X-15.644 Y0.089 Z-6.33
X-15.688 Y0.067 Z-6.34
X-15.737 Y0.059 Z-6.35
X-15.816
X-15.865 Z-6.342
X-15.91 Z-6.32
X-15.945 Z-6.284
X-15.967 Z-6.24
X-15.975 Z-6.191
G0 Z3
X-26.975 Y0.377
Z0.75
G1 Z-1.091 F100
X-26.968 Z-1.14
X-26.945 Z-1.185
X-26.91 Z-1.22
X-26.866 Z-1.242
X-26.817 Z-1.25
X-26.737
X-26.688 Y0.369 Z-1.26
X-26.644 Y0.346 Z-1.27
X-26.609 Y0.311 Z-1.28
X-26.586 Y0.267 Z-1.29
X-26.578 Y0.218 Z-1.3
G2 X-28.171 Z-1.8 I-0.796 F300
X-26.578 Z-2.3 I0.796
X-28.171 Z-2.8 I-0.796
X-26.578 Z-3.3 I0.796
X-28.171 Z-3.8 I-0.796
X-26.578 Z-4.3 I0.796
X-28.171 Z-4.8 I-0.796
X-26.578 Z-5.3 I0.796
X-28.171 Z-5.8 I-0.796
X-26.578 Z-6.3 I0.796
G1 X-26.586 Y0.169 Z-6.31 F100
X-26.609 Y0.125 Z-6.32
X-26.644 Y0.089 Z-6.33
X-26.688 Y0.067 Z-6.34
X-26.737 Y0.059 Z-6.35
X-26.817
X-26.866 Z-6.342
X-26.91 Z-6.32
X-26.945 Z-6.284
X-26.968 Z-6.24
X-26.975 Z-6.191
G0 Z3
X-65.975 Y-14.123
Z1.017
G1 Z-0.824 F100
X-65.967 Z-0.873
X-65.945 Z-0.918
X-65.91 Z-0.953
X-65.865 Z-0.975
X-65.816 Z-0.983
X-65.737
X-65.688 Y-14.131 Z-0.993
X-65.644 Y-14.154 Z-1.003
X-65.608 Y-14.189 Z-1.013
X-65.586 Y-14.233 Z-1.023
X-65.578 Y-14.282 Z-1.033
G2 X-67.171 Z-1.533 I-0.796 F300
X-65.578 Z-2.033 I0.796
X-67.171 Z-2.533 I-0.796
X-65.578 Z-3.033 I0.796
X-67.171 Z-3.533 I-0.796
X-65.578 Z-4.033 I0.796
X-67.171 Z-4.533 I-0.796
X-65.578 Z-5.033 I0.796
X-67.171 Z-5.533 I-0.796
X-65.578 Z-6.033 I0.796
G1 X-65.586 Y-14.331 Z-6.043 F100
X-65.608 Y-14.375 Z-6.053
X-65.644 Y-14.411 Z-6.063
X-65.688 Y-14.433 Z-6.073
X-65.737 Y-14.441 Z-6.083
X-65.816
X-65.865 Z-6.075
X-65.91 Z-6.052
X-65.945 Z-6.017
X-65.967 Z-5.973
X-65.975 Z-5.924
G0 Z3
X-54.226 Y3.941
Z-1.783
G1 Z-3.624 F100
X-54.218 Z-3.673
X-54.196 Z-3.718
X-54.161 Z-3.753
X-54.117 Z-3.775
X-54.068 Z-3.783
X-53.988
X-53.939 Y3.933 Z-3.793
X-53.895 Y3.911 Z-3.803
X-53.86 Y3.876 Z-3.813
X-53.837 Y3.831 Z-3.823
X-53.829 Y3.782 Z-3.833
G2 X-55.422 Z-4.333 I-0.796 F300
X-53.829 Z-4.833 I0.796
X-55.422 Z-5.333 I-0.796
X-53.829 Z-5.833 I0.796
X-54.38 Y3.025 Z-6.033 I-0.796
G1 X-54.429 Y3.017 Z-6.043 F100
X-54.478 Y3.025 Z-6.053
X-54.522 Y3.047 Z-6.063
X-54.557 Y3.083 Z-6.073
X-54.58 Y3.127 Z-6.083
X-54.604 Y3.202
X-54.619 Y3.249 Z-6.075
X-54.633 Y3.291 Z-6.052
X-54.644 Y3.324 Z-6.017
X-54.651 Y3.346 Z-5.973
X-54.653 Y3.353 Z-5.924
G0 Z3
X-54.226 Y24.941
Z-1.783
G1 Z-3.624 F100
X-54.218 Z-3.673
X-54.196 Z-3.718
X-54.161 Z-3.753
X-54.117 Z-3.775
X-54.068 Z-3.783
X-53.988
X-53.939 Y24.933 Z-3.793
X-53.895 Y24.911 Z-3.803
X-53.86 Y24.875 Z-3.813
X-53.837 Y24.831 Z-3.823
X-53.829 Y24.782 Z-3.833
G2 X-55.422 Z-4.333 I-0.796 F300
X-53.829 Z-4.833 I0.796
X-55.422 Z-5.333 I-0.796
X-53.829 Z-5.833 I0.796
X-54.38 Y24.025 Z-6.033 I-0.796
G1 X-54.429 Y24.017 Z-6.043 F100
X-54.478 Y24.025 Z-6.053
X-54.522 Y24.047 Z-6.063
X-54.557 Y24.083 Z-6.073
X-54.58 Y24.127 Z-6.083
X-54.604 Y24.202
X-54.619 Y24.249 Z-6.075
X-54.633 Y24.291 Z-6.052
X-54.644 Y24.324 Z-6.017
X-54.651 Y24.346 Z-5.973
X-54.653 Y24.353 Z-5.924
G0 Z3
X-83.226 Y14.441
Z1.017
G1 Z-0.824 F100
X-83.219 Z-0.873
X-83.196 Z-0.918
X-83.161 Z-0.953
X-83.117 Z-0.975
X-83.068 Z-0.983
X-82.988
X-82.939 Y14.433 Z-0.993
X-82.895 Y14.411 Z-1.003
X-82.86 Y14.375 Z-1.013
X-82.837 Y14.331 Z-1.023
X-82.829 Y14.282 Z-1.033
G2 X-84.422 Z-1.533 I-0.796 F300
X-82.829 Z-2.033 I0.796
X-84.422 Z-2.533 I-0.796
X-82.829 Z-3.033 I0.796
X-84.422 Z-3.533 I-0.796
X-82.829 Z-4.033 I0.796
X-84.422 Z-4.533 I-0.796
X-82.829 Z-5.033 I0.796
X-84.422 Z-5.533 I-0.796
X-82.829 Z-6.033 I0.796
G1 X-82.837 Y14.233 Z-6.043 F100
X-82.86 Y14.189 Z-6.053
X-82.895 Y14.154 Z-6.063
X-82.939 Y14.131 Z-6.073
X-82.988 Y14.123 Z-6.083
X-83.068
X-83.117 Z-6.075
X-83.161 Z-6.052
X-83.196 Z-6.017
X-83.219 Z-5.973
X-83.226 Z-5.924
G0 Z3
X-94.226 Y14.441
Z-1.783
G1 Z-3.624 F100
X-94.218 Z-3.673
X-94.196 Z-3.718
X-94.161 Z-3.753
X-94.117 Z-3.775
X-94.067 Z-3.783
X-93.988
X-93.939 Y14.433 Z-3.793
X-93.895 Y14.411 Z-3.803
X-93.86 Y14.375 Z-3.813
X-93.837 Y14.331 Z-3.823
X-93.829 Y14.282 Z-3.833
G2 X-95.422 Z-4.333 I-0.796 F300
X-93.829 Z-4.833 I0.796
X-95.422 Z-5.333 I-0.796
X-93.829 Z-5.833 I0.796
X-94.38 Y13.525 Z-6.033 I-0.796
G1 X-94.429 Y13.517 Z-6.043 F100
X-94.478 Y13.525 Z-6.053
X-94.522 Y13.547 Z-6.063
X-94.557 Y13.583 Z-6.073
X-94.58 Y13.627 Z-6.083
X-94.604 Y13.702
X-94.619 Y13.749 Z-6.075
X-94.633 Y13.791 Z-6.052
X-94.644 Y13.824 Z-6.017
X-94.651 Y13.846 Z-5.973
X-94.653 Y13.853 Z-5.924
G0 Z6
G28 G91 Z0
G90
G28 G91 X0 Y0
G90
M30
%
