(1001)
(T1  D=1.587 CR=0 - ZMIN=-6.3 - flat end mill)
G90 G94
G17
G21
G28 G91 Z0
G90

(Circular1)
M9
S20000 M3
G54
G0 X54.626 Y-24.782
Z2
Z-2.833
G1 Z-4.833 F1000
X55.422
G3 X53.829 I-0.796 F800
X55.422 I0.796
G1 X54.626 F1000
G0 Z1
Z-3.433
G1 Z-5.433 F1000
X55.422
G3 X53.829 I-0.796 F800
X55.422 I0.796
G1 X54.626 F1000
G0 Z1
Z-4.033
G1 Z-6.033 F1000
X55.422
G3 X53.829 I-0.796 F800
X55.422 I0.796
G1 X54.626 F1000
G0 Z1
X83.626 Y-14.282
Z-0.033
G1 Z-2.033 F1000
X84.422
G3 X82.829 I-0.796 F800
X84.422 I0.796
G1 X83.626 F1000
G0 Z1
Z-1.033
G1 Z-3.033 F1000
X84.422
G3 X82.829 I-0.796 F800
X84.422 I0.796
G1 X83.626 F1000
G0 Z1
Z-2.033
G1 Z-4.033 F1000
X84.422
G3 X82.829 I-0.796 F800
X84.422 I0.796
G1 X83.626 F1000
G0 Z1
Z-3.033
G1 Z-5.033 F1000
X84.422
G3 X82.829 I-0.796 F800
X84.422 I0.796
G1 X83.626 F1000
G0 Z1
Z-3.533
G1 Z-5.533 F1000
X84.422
G3 X82.829 I-0.796 F800
X84.422 I0.796
G1 X83.626 F1000
G0 Z1
Z-4.033
G1 Z-6.033 F1000
X84.422
G3 X82.829 I-0.796 F800
X84.422 I0.796
G1 X83.626 F1000
G0 Z1
X94.626
Z-2.833
G1 Z-4.833 F1000
X95.422
G3 X93.829 I-0.796 F800
X95.422 I0.796
G1 X94.626 F1000
G0 Z1
Z-3.433
G1 Z-5.433 F1000
X95.422
G3 X93.829 I-0.796 F800
X95.422 I0.796
G1 X94.626 F1000
G0 Z1
Z-4.033
G1 Z-6.033 F1000
X95.422
G3 X93.829 I-0.796 F800
X95.422 I0.796
G1 X94.626 F1000
G0 Z1
X66.374 Y14.282
Z-0.033
G1 Z-2.033 F1000
X65.578
G3 X67.171 I0.796 F800
X65.578 I-0.796
G1 X66.374 F1000
G0 Z1
Z-1.033
G1 Z-3.033 F1000
X65.578
G3 X67.171 I0.796 F800
X65.578 I-0.796
G1 X66.374 F1000
G0 Z1
Z-2.033
G1 Z-4.033 F1000
X65.578
G3 X67.171 I0.796 F800
X65.578 I-0.796
G1 X66.374 F1000
G0 Z1
Z-3.033
G1 Z-5.033 F1000
X65.578
G3 X67.171 I0.796 F800
X65.578 I-0.796
G1 X66.374 F1000
G0 Z1
Z-3.533
G1 Z-5.533 F1000
X65.578
G3 X67.171 I0.796 F800
X65.578 I-0.796
G1 X66.374 F1000
G0 Z1
Z-4.033
G1 Z-6.033 F1000
X65.578
G3 X67.171 I0.796 F800
X65.578 I-0.796
G1 X66.374 F1000
G0 Z1
X54.626 Y-3.782
Z-2.833
G1 Z-4.833 F1000
X55.422
G3 X53.829 I-0.796 F800
X55.422 I0.796
G1 X54.626 F1000
G0 Z1
Z-3.433
G1 Z-5.433 F1000
X55.422
G3 X53.829 I-0.796 F800
X55.422 I0.796
G1 X54.626 F1000
G0 Z1
Z-4.033
G1 Z-6.033 F1000
X55.422
G3 X53.829 I-0.796 F800
X55.422 I0.796
G1 X54.626 F1000
G0 Z1
X34.626 Y0.218
Z-0.3
G1 Z-2.3 F1000
X35.422
G3 X33.83 I-0.796 F800
X35.422 I0.796
G1 X34.626 F1000
G0 Z1
Z-1.3
G1 Z-3.3 F1000
X35.422
G3 X33.83 I-0.796 F800
X35.422 I0.796
G1 X34.626 F1000
G0 Z1
Z-2.3
G1 Z-4.3 F1000
X35.422
G3 X33.83 I-0.796 F800
X35.422 I0.796
G1 X34.626 F1000
G0 Z1
Z-3.3
G1 Z-5.3 F1000
X35.422
G3 X33.83 I-0.796 F800
X35.422 I0.796
G1 X34.626 F1000
G0 Z1
Z-3.8
G1 Z-5.8 F1000
X35.422
G3 X33.83 I-0.796 F800
X35.422 I0.796
G1 X34.626 F1000
G0 Z1
Z-4.3
G1 Z-6.3 F1000
X35.422
G3 X33.83 I-0.796 F800
X35.422 I0.796
G1 X34.626 F1000
G0 Z1
X23.626
Z-0.3
G1 Z-2.3 F1000
X24.422
G3 X22.829 I-0.796 F800
X24.422 I0.796
G1 X23.626 F1000
G0 Z1
Z-1.3
G1 Z-3.3 F1000
X24.422
G3 X22.829 I-0.796 F800
X24.422 I0.796
G1 X23.626 F1000
G0 Z1
Z-2.3
G1 Z-4.3 F1000
X24.422
G3 X22.829 I-0.796 F800
X24.422 I0.796
G1 X23.626 F1000
G0 Z1
Z-3.3
G1 Z-5.3 F1000
X24.422
G3 X22.829 I-0.796 F800
X24.422 I0.796
G1 X23.626 F1000
G0 Z1
Z-3.8
G1 Z-5.8 F1000
X24.422
G3 X22.829 I-0.796 F800
X24.422 I0.796
G1 X23.626 F1000
G0 Z1
Z-4.3
G1 Z-6.3 F1000
X24.422
G3 X22.829 I-0.796 F800
X24.422 I0.796
G1 X23.626 F1000
G0 Z1
X8.626 Y-14.282
Z-0.033
G1 Z-2.033 F1000
X9.422
G3 X7.829 I-0.796 F800
X9.422 I0.796
G1 X8.626 F1000
G0 Z1
Z-1.033
G1 Z-3.033 F1000
X9.422
G3 X7.829 I-0.796 F800
X9.422 I0.796
G1 X8.626 F1000
G0 Z1
Z-2.033
G1 Z-4.033 F1000
X9.422
G3 X7.829 I-0.796 F800
X9.422 I0.796
G1 X8.626 F1000
G0 Z1
Z-3.033
G1 Z-5.033 F1000
X9.422
G3 X7.829 I-0.796 F800
X9.422 I0.796
G1 X8.626 F1000
G0 Z1
Z-3.533
G1 Z-5.533 F1000
X9.422
G3 X7.829 I-0.796 F800
X9.422 I0.796
G1 X8.626 F1000
G0 Z1
Z-4.033
G1 Z-6.033 F1000
X9.422
G3 X7.829 I-0.796 F800
X9.422 I0.796
G1 X8.626 F1000
G0 Z1
X3.626 Y0.218
Z-0.3
G1 Z-2.3 F1000
X4.422
G3 X2.829 I-0.796 F800
X4.422 I0.796
G1 X3.626 F1000
G0 Z1
Z-1.3
G1 Z-3.3 F1000
X4.422
G3 X2.829 I-0.796 F800
X4.422 I0.796
G1 X3.626 F1000
G0 Z1
Z-2.3
G1 Z-4.3 F1000
X4.422
G3 X2.829 I-0.796 F800
X4.422 I0.796
G1 X3.626 F1000
G0 Z1
Z-3.3
G1 Z-5.3 F1000
X4.422
G3 X2.829 I-0.796 F800
X4.422 I0.796
G1 X3.626 F1000
G0 Z1
Z-3.8
G1 Z-5.8 F1000
X4.422
G3 X2.829 I-0.796 F800
X4.422 I0.796
G1 X3.626 F1000
G0 Z1
Z-4.3
G1 Z-6.3 F1000
X4.422
G3 X2.829 I-0.796 F800
X4.422 I0.796
G1 X3.626 F1000
G0 Z1
X-8.626 Y14.282
Z-0.033
G1 Z-2.033 F1000
X-9.422
G3 X-7.829 I0.796 F800
X-9.422 I-0.796
G1 X-8.626 F1000
G0 Z1
Z-1.033
G1 Z-3.033 F1000
X-9.422
G3 X-7.829 I0.796 F800
X-9.422 I-0.796
G1 X-8.626 F1000
G0 Z1
Z-2.033
G1 Z-4.033 F1000
X-9.422
G3 X-7.829 I0.796 F800
X-9.422 I-0.796
G1 X-8.626 F1000
G0 Z1
Z-3.033
G1 Z-5.033 F1000
X-9.422
G3 X-7.829 I0.796 F800
X-9.422 I-0.796
G1 X-8.626 F1000
G0 Z1
Z-3.533
G1 Z-5.533 F1000
X-9.422
G3 X-7.829 I0.796 F800
X-9.422 I-0.796
G1 X-8.626 F1000
G0 Z1
Z-4.033
G1 Z-6.033 F1000
X-9.422
G3 X-7.829 I0.796 F800
X-9.422 I-0.796
G1 X-8.626 F1000
G0 Z1
X-16.374 Y0.218
Z-0.3
G1 Z-2.3 F1000
X-15.578
G3 X-17.171 I-0.796 F800
X-15.578 I0.796
G1 X-16.374 F1000
G0 Z1
Z-1.3
G1 Z-3.3 F1000
X-15.578
G3 X-17.171 I-0.796 F800
X-15.578 I0.796
G1 X-16.374 F1000
G0 Z1
Z-2.3
G1 Z-4.3 F1000
X-15.578
G3 X-17.171 I-0.796 F800
X-15.578 I0.796
G1 X-16.374 F1000
G0 Z1
Z-3.3
G1 Z-5.3 F1000
X-15.578
G3 X-17.171 I-0.796 F800
X-15.578 I0.796
G1 X-16.374 F1000
G0 Z1
Z-3.8
G1 Z-5.8 F1000
X-15.578
G3 X-17.171 I-0.796 F800
X-15.578 I0.796
G1 X-16.374 F1000
G0 Z1
Z-4.3
G1 Z-6.3 F1000
X-15.578
G3 X-17.171 I-0.796 F800
X-15.578 I0.796
G1 X-16.374 F1000
G0 Z1
X-27.375
Z-0.3
G1 Z-2.3 F1000
X-26.578
G3 X-28.171 I-0.796 F800
X-26.578 I0.796
G1 X-27.375 F1000
G0 Z1
Z-1.3
G1 Z-3.3 F1000
X-26.578
G3 X-28.171 I-0.796 F800
X-26.578 I0.796
G1 X-27.375 F1000
G0 Z1
Z-2.3
G1 Z-4.3 F1000
X-26.578
G3 X-28.171 I-0.796 F800
X-26.578 I0.796
G1 X-27.375 F1000
G0 Z1
Z-3.3
G1 Z-5.3 F1000
X-26.578
G3 X-28.171 I-0.796 F800
X-26.578 I0.796
G1 X-27.375 F1000
G0 Z1
Z-3.8
G1 Z-5.8 F1000
X-26.578
G3 X-28.171 I-0.796 F800
X-26.578 I0.796
G1 X-27.375 F1000
G0 Z1
Z-4.3
G1 Z-6.3 F1000
X-26.578
G3 X-28.171 I-0.796 F800
X-26.578 I0.796
G1 X-27.375 F1000
G0 Z1
X-66.374 Y-14.282
Z-0.033
G1 Z-2.033 F1000
X-65.578
G3 X-67.171 I-0.796 F800
X-65.578 I0.796
G1 X-66.374 F1000
G0 Z1
Z-1.033
G1 Z-3.033 F1000
X-65.578
G3 X-67.171 I-0.796 F800
X-65.578 I0.796
G1 X-66.374 F1000
G0 Z1
Z-2.033
G1 Z-4.033 F1000
X-65.578
G3 X-67.171 I-0.796 F800
X-65.578 I0.796
G1 X-66.374 F1000
G0 Z1
Z-3.033
G1 Z-5.033 F1000
X-65.578
G3 X-67.171 I-0.796 F800
X-65.578 I0.796
G1 X-66.374 F1000
G0 Z1
Z-3.533
G1 Z-5.533 F1000
X-65.578
G3 X-67.171 I-0.796 F800
X-65.578 I0.796
G1 X-66.374 F1000
G0 Z1
Z-4.033
G1 Z-6.033 F1000
X-65.578
G3 X-67.171 I-0.796 F800
X-65.578 I0.796
G1 X-66.374 F1000
G0 Z1
X-54.626 Y3.782
Z-2.833
G1 Z-4.833 F1000
X-55.422
G3 X-53.829 I0.796 F800
X-55.422 I-0.796
G1 X-54.626 F1000
G0 Z1
Z-3.433
G1 Z-5.433 F1000
X-55.422
G3 X-53.829 I0.796 F800
X-55.422 I-0.796
G1 X-54.626 F1000
G0 Z1
Z-4.033
G1 Z-6.033 F1000
X-55.422
G3 X-53.829 I0.796 F800
X-55.422 I-0.796
G1 X-54.626 F1000
G0 Z1
Y24.782
Z-2.833
G1 Z-4.833 F1000
X-55.422
G3 X-53.829 I0.796 F800
X-55.422 I-0.796
G1 X-54.626 F1000
G0 Z1
Z-3.433
G1 Z-5.433 F1000
X-55.422
G3 X-53.829 I0.796 F800
X-55.422 I-0.796
G1 X-54.626 F1000
G0 Z1
Z-4.033
G1 Z-6.033 F1000
X-55.422
G3 X-53.829 I0.796 F800
X-55.422 I-0.796
G1 X-54.626 F1000
G0 Z1
X-83.626 Y14.282
Z-0.033
G1 Z-2.033 F1000
X-84.422
G3 X-82.829 I0.796 F800
X-84.422 I-0.796
G1 X-83.626 F1000
G0 Z1
Z-1.033
G1 Z-3.033 F1000
X-84.422
G3 X-82.829 I0.796 F800
X-84.422 I-0.796
G1 X-83.626 F1000
G0 Z1
Z-2.033
G1 Z-4.033 F1000
X-84.422
G3 X-82.829 I0.796 F800
X-84.422 I-0.796
G1 X-83.626 F1000
G0 Z1
Z-3.033
G1 Z-5.033 F1000
X-84.422
G3 X-82.829 I0.796 F800
X-84.422 I-0.796
G1 X-83.626 F1000
G0 Z1
Z-3.533
G1 Z-5.533 F1000
X-84.422
G3 X-82.829 I0.796 F800
X-84.422 I-0.796
G1 X-83.626 F1000
G0 Z1
Z-4.033
G1 Z-6.033 F1000
X-84.422
G3 X-82.829 I0.796 F800
X-84.422 I-0.796
G1 X-83.626 F1000
G0 Z1
X-94.626
Z-2.833
G1 Z-4.833 F1000
X-95.422
G3 X-93.829 I0.796 F800
X-95.422 I-0.796
G1 X-94.626 F1000
G0 Z1
Z-3.433
G1 Z-5.433 F1000
X-95.422
G3 X-93.829 I0.796 F800
X-95.422 I-0.796
G1 X-94.626 F1000
G0 Z1
Z-4.033
G1 Z-6.033 F1000
X-95.422
G3 X-93.829 I0.796 F800
X-95.422 I-0.796
G1 X-94.626 F1000
G0 Z2
G28 G91 Z0
G90
G28 G91 X0 Y0
G90
M30
%
