(Lock)
(T1  D=1 CR=0 - ZMIN=-4.6 - flat end mill)
G90 G94
G17
G21

(Drill1)
S20000 M3
G54
G0 X4.034 Y-7.395
Z3
Z2
G1 Z-4.6 F20
G0 Z3
X-2.966
Z2
G1 Z-4.6 F20
G0 Z3
X-2.534 Y7.395
Z2
G1 Z-4.6 F20
G0 Z3
X-9.534
Z2
G1 Z-4.6 F20
G0 Z3
(When using Fusion 360 for Personal Use, the feedrate of)
(rapid moves is reduced to match the feedrate of cutting)
(moves, which can increase machining time. Unrestricted rapid)
(moves are available with a Fusion 360 Subscription.)

(LargeHoles)
X1.051 Y-2.706
G1 Z3 F300
Z1
Z-0.6 F20
G3 X0.017 Y-3.083 I-0.517 J-0.188 F300
X1.051 Y-2.706 I0.517 J0.188
G1 Z-1.2 F20
G3 X0.017 Y-3.083 I-0.517 J-0.188 F300
X1.051 Y-2.706 I0.517 J0.188
G1 Z-1.8 F20
G3 X0.017 Y-3.083 I-0.517 J-0.188 F300
X1.051 Y-2.706 I0.517 J0.188
G1 Z-2.4 F20
G3 X0.017 Y-3.083 I-0.517 J-0.188 F300
X1.051 Y-2.706 I0.517 J0.188
G1 Z-3 F20
G3 X0.017 Y-3.083 I-0.517 J-0.188 F300
X1.051 Y-2.706 I0.517 J0.188
G1 Z-3.6 F20
G3 X0.017 Y-3.083 I-0.517 J-0.188 F300
X1.051 Y-2.706 I0.517 J0.188
G1 Z-4.2 F20
G3 X0.017 Y-3.083 I-0.517 J-0.188 F300
X1.051 Y-2.706 I0.517 J0.188
G1 Z-4.6 F20
G3 X0.017 Y-3.083 I-0.517 J-0.188 F300
X1.051 Y-2.706 I0.517 J0.188
G1 Z2
Y-7.206
Z1
Z-0.6 F20
G3 X0.017 Y-7.583 I-0.517 J-0.188 F300
X1.051 Y-7.206 I0.517 J0.188
G1 Z-1.2 F20
G3 X0.017 Y-7.583 I-0.517 J-0.188 F300
X1.051 Y-7.206 I0.517 J0.188
G1 Z-1.8 F20
G3 X0.017 Y-7.583 I-0.517 J-0.188 F300
X1.051 Y-7.206 I0.517 J0.188
G1 Z-2.4 F20
G3 X0.017 Y-7.583 I-0.517 J-0.188 F300
X1.051 Y-7.206 I0.517 J0.188
G1 Z-3 F20
G3 X0.017 Y-7.583 I-0.517 J-0.188 F300
X1.051 Y-7.206 I0.517 J0.188
G1 Z-3.6 F20
G3 X0.017 Y-7.583 I-0.517 J-0.188 F300
X1.051 Y-7.206 I0.517 J0.188
G1 Z-4.2 F20
G3 X0.017 Y-7.583 I-0.517 J-0.188 F300
X1.051 Y-7.206 I0.517 J0.188
G1 Z-4.6 F20
G3 X0.017 Y-7.583 I-0.517 J-0.188 F300
X1.051 Y-7.206 I0.517 J0.188
G1 Z2
X1.084 Y-11.894
Z1
Z-0.6 F20
G3 X-0.016 Y-11.894 I-0.55 J0 F300
X1.084 Y-11.894 I0.55 J0
G1 Z-1.2 F20
G3 X-0.016 Y-11.894 I-0.55 J0 F300
X1.084 Y-11.894 I0.55 J0
G1 Z-1.8 F20
G3 X-0.016 Y-11.894 I-0.55 J0 F300
X1.084 Y-11.894 I0.55 J0
G1 Z-2.4 F20
G3 X-0.016 Y-11.894 I-0.55 J0 F300
X1.084 Y-11.894 I0.55 J0
G1 Z-3 F20
G3 X-0.016 Y-11.894 I-0.55 J0 F300
X1.084 Y-11.894 I0.55 J0
G1 Z-3.6 F20
G3 X-0.016 Y-11.894 I-0.55 J0 F300
X1.084 Y-11.894 I0.55 J0
G1 Z-4.2 F20
G3 X-0.016 Y-11.894 I-0.55 J0 F300
X1.084 Y-11.894 I0.55 J0
G1 Z-4.6 F20
G3 X-0.016 Y-11.894 I-0.55 J0 F300
X1.084 Y-11.894 I0.55 J0
G1 Z2
X9.034 Y-7.395
Z1
Z-0.6 F20
G3 X7.034 Y-7.395 I-1 J0 F300
X9.034 Y-7.395 I1 J0
G1 Z-1.2 F20
G3 X7.034 Y-7.395 I-1 J0 F300
X9.034 Y-7.395 I1 J0
G1 Z-1.8 F20
G3 X7.034 Y-7.395 I-1 J0 F300
X9.034 Y-7.395 I1 J0
G1 Z-2.4 F20
G3 X7.034 Y-7.395 I-1 J0 F300
X9.034 Y-7.395 I1 J0
G1 Z-3 F20
G3 X7.034 Y-7.395 I-1 J0 F300
X9.034 Y-7.395 I1 J0
G1 Z-3.6 F20
G3 X7.034 Y-7.395 I-1 J0 F300
X9.034 Y-7.395 I1 J0
G1 Z-4.2 F20
G3 X7.034 Y-7.395 I-1 J0 F300
X9.034 Y-7.395 I1 J0
G1 Z-4.6 F20
G3 X7.034 Y-7.395 I-1 J0 F300
X9.034 Y-7.395 I1 J0
G1 Z2
X6.717 Y6.835
Z1
Z-0.6 F20
G3 X5.767 Y6.835 I-0.475 J0 F300
X6.717 Y6.835 I0.475 J0
G1 Z-1.2 F20
G3 X5.767 Y6.835 I-0.475 J0 F300
X6.717 Y6.835 I0.475 J0
G1 Z-1.8 F20
G3 X5.767 Y6.835 I-0.475 J0 F300
X6.717 Y6.835 I0.475 J0
G1 Z-2.4 F20
G3 X5.767 Y6.835 I-0.475 J0 F300
X6.717 Y6.835 I0.475 J0
G1 Z-3 F20
G3 X5.767 Y6.835 I-0.475 J0 F300
X6.717 Y6.835 I0.475 J0
G1 Z-3.6 F20
G3 X5.767 Y6.835 I-0.475 J0 F300
X6.717 Y6.835 I0.475 J0
G1 Z-4.2 F20
G3 X5.767 Y6.835 I-0.475 J0 F300
X6.717 Y6.835 I0.475 J0
G1 Z-4.6 F20
G3 X5.767 Y6.835 I-0.475 J0 F300
X6.717 Y6.835 I0.475 J0
G1 Z2
X-5.484 Y7.395
Z1
Z-0.6 F20
G3 X-6.584 Y7.395 I-0.55 J0 F300
X-5.484 Y7.395 I0.55 J0
G1 Z-1.2 F20
G3 X-6.584 Y7.395 I-0.55 J0 F300
X-5.484 Y7.395 I0.55 J0
G1 Z-1.8 F20
G3 X-6.584 Y7.395 I-0.55 J0 F300
X-5.484 Y7.395 I0.55 J0
G1 Z-2.4 F20
G3 X-6.584 Y7.395 I-0.55 J0 F300
X-5.484 Y7.395 I0.55 J0
G1 Z-3 F20
G3 X-6.584 Y7.395 I-0.55 J0 F300
X-5.484 Y7.395 I0.55 J0
G1 Z-3.6 F20
G3 X-6.584 Y7.395 I-0.55 J0 F300
X-5.484 Y7.395 I0.55 J0
G1 Z-4.2 F20
G3 X-6.584 Y7.395 I-0.55 J0 F300
X-5.484 Y7.395 I0.55 J0
G1 Z-4.6 F20
G3 X-6.584 Y7.395 I-0.55 J0 F300
X-5.484 Y7.395 I0.55 J0
G1 Z2
X-5.517 Y12.083
Z1
Z-0.6 F20
G3 X-6.551 Y11.706 I-0.517 J-0.188 F300
X-5.517 Y12.083 I0.517 J0.188
G1 Z-1.2 F20
G3 X-6.551 Y11.706 I-0.517 J-0.188 F300
X-5.517 Y12.083 I0.517 J0.188
G1 Z-1.8 F20
G3 X-6.551 Y11.706 I-0.517 J-0.188 F300
X-5.517 Y12.083 I0.517 J0.188
G1 Z-2.4 F20
G3 X-6.551 Y11.706 I-0.517 J-0.188 F300
X-5.517 Y12.083 I0.517 J0.188
G1 Z-3 F20
G3 X-6.551 Y11.706 I-0.517 J-0.188 F300
X-5.517 Y12.083 I0.517 J0.188
G1 Z-3.6 F20
G3 X-6.551 Y11.706 I-0.517 J-0.188 F300
X-5.517 Y12.083 I0.517 J0.188
G1 Z-4.2 F20
G3 X-6.551 Y11.706 I-0.517 J-0.188 F300
X-5.517 Y12.083 I0.517 J0.188
G1 Z-4.6 F20
G3 X-6.551 Y11.706 I-0.517 J-0.188 F300
X-5.517 Y12.083 I0.517 J0.188
G1 Z2
X-5.484 Y2.895
Z1
Z-0.6 F20
G3 X-6.584 Y2.895 I-0.55 J0 F300
X-5.484 Y2.895 I0.55 J0
G1 Z-1.2 F20
G3 X-6.584 Y2.895 I-0.55 J0 F300
X-5.484 Y2.895 I0.55 J0
G1 Z-1.8 F20
G3 X-6.584 Y2.895 I-0.55 J0 F300
X-5.484 Y2.895 I0.55 J0
G1 Z-2.4 F20
G3 X-6.584 Y2.895 I-0.55 J0 F300
X-5.484 Y2.895 I0.55 J0
G1 Z-3 F20
G3 X-6.584 Y2.895 I-0.55 J0 F300
X-5.484 Y2.895 I0.55 J0
G1 Z-3.6 F20
G3 X-6.584 Y2.895 I-0.55 J0 F300
X-5.484 Y2.895 I0.55 J0
G1 Z-4.2 F20
G3 X-6.584 Y2.895 I-0.55 J0 F300
X-5.484 Y2.895 I0.55 J0
G1 Z-4.6 F20
G3 X-6.584 Y2.895 I-0.55 J0 F300
X-5.484 Y2.895 I0.55 J0
G1 Z2
X-5.985 Y-7.199
Z1
Z-0.6 F20
G3 X-7.947 Y-7.59 I-0.981 J-0.195 F300
X-5.985 Y-7.199 I0.981 J0.195
G1 Z-1.2 F20
G3 X-7.947 Y-7.59 I-0.981 J-0.195 F300
X-5.985 Y-7.199 I0.981 J0.195
G1 Z-1.8 F20
G3 X-7.947 Y-7.59 I-0.981 J-0.195 F300
X-5.985 Y-7.199 I0.981 J0.195
G1 Z-2.4 F20
G3 X-7.947 Y-7.59 I-0.981 J-0.195 F300
X-5.985 Y-7.199 I0.981 J0.195
G1 Z-3 F20
G3 X-7.947 Y-7.59 I-0.981 J-0.195 F300
X-5.985 Y-7.199 I0.981 J0.195
G1 Z-3.6 F20
G3 X-7.947 Y-7.59 I-0.981 J-0.195 F300
X-5.985 Y-7.199 I0.981 J0.195
G1 Z-4.2 F20
G3 X-7.947 Y-7.59 I-0.981 J-0.195 F300
X-5.985 Y-7.199 I0.981 J0.195
G1 Z-4.6 F20
G3 X-7.947 Y-7.59 I-0.981 J-0.195 F300
X-5.985 Y-7.199 I0.981 J0.195
G1 Z3
(When using Fusion 360 for Personal Use, the feedrate of)
(rapid moves is reduced to match the feedrate of cutting)
(moves, which can increase machining time. Unrestricted rapid)
(moves are available with a Fusion 360 Subscription.)

(SpringGroove)
G0 X2.034 Y-7.395
G1 Z3 F300
Z1
Z-0.6 F20
G3 X-0.966 Y-7.395 I-1.5 J0 F300
X2.034 Y-7.395 I1.5 J0
G1 Z-1.2 F20
G3 X-0.966 Y-7.395 I-1.5 J0 F300
X2.034 Y-7.395 I1.5 J0
G1 Z-1.8 F20
G3 X-0.966 Y-7.395 I-1.5 J0 F300
X2.034 Y-7.395 I1.5 J0
G1 Z-2 F20
G3 X-0.966 Y-7.395 I-1.5 J0 F300
X2.034 Y-7.395 I1.5 J0
G1 Z2
X7.742 Y6.835
Z1
Z-0.6 F20
G3 X4.742 Y6.835 I-1.5 J0 F300
X7.742 Y6.835 I1.5 J0
G1 Z-1.2 F20
G3 X4.742 Y6.835 I-1.5 J0 F300
X7.742 Y6.835 I1.5 J0
G1 Z-1.8 F20
G3 X4.742 Y6.835 I-1.5 J0 F300
X7.742 Y6.835 I1.5 J0
G1 Z-2 F20
G3 X4.742 Y6.835 I-1.5 J0 F300
X7.742 Y6.835 I1.5 J0
G1 Z3
(When using Fusion 360 for Personal Use, the feedrate of)
(rapid moves is reduced to match the feedrate of cutting)
(moves, which can increase machining time. Unrestricted rapid)
(moves are available with a Fusion 360 Subscription.)

(Borders)
G0 X0.353 Y0.601
G1 Z3 F300
Z1
Z-0.6 F20
G2 X4.034 Y-2.895 I0.18 J-3.495 F300
G3 X4.534 Y-3.395 I0.5 J0
G1 X8.034
G2 X12.034 Y-7.395 I0 J-4
X8.034 Y-11.394 I-4 J0
G1 X4.534
G3 X4.034 Y-11.894 I0 J-0.5
G2 X-2.966 Y-11.894 I-3.5 J0
G3 X-3.466 Y-11.394 I-0.5 J0
G1 X-6.966
G2 X-10.966 Y-7.395 I0 J4
X-6.966 Y-3.395 I4 J0
G1 X-3.466
G3 X-2.966 Y-2.895 I0 J0.5
G2 X0.353 Y0.601 I3.5 J0
G1 Z-1.2 F20
G2 X4.034 Y-2.895 I0.18 J-3.495 F300
G3 X4.534 Y-3.395 I0.5 J0
G1 X8.034
G2 X12.034 Y-7.395 I0 J-4
X8.034 Y-11.394 I-4 J0
G1 X4.534
G3 X4.034 Y-11.894 I0 J-0.5
G2 X-2.966 Y-11.894 I-3.5 J0
G3 X-3.466 Y-11.394 I-0.5 J0
G1 X-6.966
G2 X-10.966 Y-7.395 I0 J4
X-6.966 Y-3.395 I4 J0
G1 X-3.466
G3 X-2.966 Y-2.895 I0 J0.5
G2 X0.353 Y0.601 I3.5 J0
G1 Z-1.8 F20
G2 X4.034 Y-2.895 I0.18 J-3.495 F300
G3 X4.534 Y-3.395 I0.5 J0
G1 X8.034
G2 X12.034 Y-7.395 I0 J-4
X8.034 Y-11.394 I-4 J0
G1 X4.534
G3 X4.034 Y-11.894 I0 J-0.5
G2 X-2.966 Y-11.894 I-3.5 J0
G3 X-3.466 Y-11.394 I-0.5 J0
G1 X-6.966
G2 X-10.966 Y-7.395 I0 J4
X-6.966 Y-3.395 I4 J0
G1 X-3.466
G3 X-2.966 Y-2.895 I0 J0.5
G2 X0.353 Y0.601 I3.5 J0
G1 Z-2.4 F20
G2 X4.034 Y-2.895 I0.18 J-3.495 F300
G3 X4.534 Y-3.395 I0.5 J0
G1 X8.034
G2 X12.034 Y-7.395 I0 J-4
X8.034 Y-11.394 I-4 J0
G1 X4.534
G3 X4.034 Y-11.894 I0 J-0.5
G2 X-2.966 Y-11.894 I-3.5 J0
G3 X-3.466 Y-11.394 I-0.5 J0
G1 X-6.966
G2 X-10.966 Y-7.395 I0 J4
X-6.966 Y-3.395 I4 J0
G1 X-3.466
G3 X-2.966 Y-2.895 I0 J0.5
G2 X0.353 Y0.601 I3.5 J0
G1 Z-3 F20
G2 X4.034 Y-2.895 I0.18 J-3.495 F300
G3 X4.534 Y-3.395 I0.5 J0
G1 X8.034
G2 X12.034 Y-7.395 I0 J-4
X8.034 Y-11.394 I-4 J0
G1 X4.534
G3 X4.034 Y-11.894 I0 J-0.5
G2 X-2.966 Y-11.894 I-3.5 J0
G3 X-3.466 Y-11.394 I-0.5 J0
G1 X-6.966
G2 X-10.966 Y-7.395 I0 J4
X-6.966 Y-3.395 I4 J0
G1 X-3.466
G3 X-2.966 Y-2.895 I0 J0.5
G2 X0.353 Y0.601 I3.5 J0
G1 Z-3.6 F20
G2 X4.034 Y-2.895 I0.18 J-3.495 F300
G3 X4.534 Y-3.395 I0.5 J0
G1 X8.034
G2 X12.034 Y-7.395 I0 J-4
X8.034 Y-11.394 I-4 J0
G1 X4.534
G3 X4.034 Y-11.894 I0 J-0.5
G2 X-2.966 Y-11.894 I-3.5 J0
G3 X-3.466 Y-11.394 I-0.5 J0
G1 X-6.966
G2 X-10.966 Y-7.395 I0 J4
X-6.966 Y-3.395 I4 J0
G1 X-3.466
G3 X-2.966 Y-2.895 I0 J0.5
G2 X0.353 Y0.601 I3.5 J0
G1 Z-4.2 F20
G2 X4.034 Y-2.895 I0.18 J-3.495 F300
G3 X4.534 Y-3.395 I0.5 J0
G1 X8.034
G2 X12.034 Y-7.395 I0 J-4
X8.034 Y-11.394 I-4 J0
G1 X4.534
G3 X4.034 Y-11.894 I0 J-0.5
G2 X-2.966 Y-11.894 I-3.5 J0
G3 X-3.466 Y-11.394 I-0.5 J0
G1 X-6.966
G2 X-10.966 Y-7.395 I0 J4
X-6.966 Y-3.395 I4 J0
G1 X-3.466
G3 X-2.966 Y-2.895 I0 J0.5
G2 X0.353 Y0.601 I3.5 J0
G1 Z-4.6 F20
G2 X4.034 Y-2.895 I0.18 J-3.495 F300
G3 X4.534 Y-3.395 I0.5 J0
G1 X8.034
G2 X12.034 Y-7.395 I0 J-4
X8.034 Y-11.394 I-4 J0
G1 X4.534
G3 X4.034 Y-11.894 I0 J-0.5
G2 X-2.966 Y-11.894 I-3.5 J0
G3 X-3.466 Y-11.394 I-0.5 J0
G1 X-6.966
G2 X-10.966 Y-7.395 I0 J4
X-6.966 Y-3.395 I4 J0
G1 X-3.466
G3 X-2.966 Y-2.895 I0 J0.5
G2 X0.353 Y0.601 I3.5 J0
G1 Z2
X-1.172 Y5.298
Z1
Z-0.6 F20
G2 X-2.117 Y4.93 I-1.362 J2.096 F300
G3 X-2.534 Y4.436 I0.083 J-0.493
G1 Y2.895
G2 X-9.534 Y2.895 I-3.5 J0
G1 Y4.436
G3 X-9.951 Y4.93 I-0.5 J0
G2 X-9.951 Y9.86 I0.417 J2.465
G3 X-9.534 Y10.353 I-0.083 J0.493
G1 Y11.894
G2 X-2.534 Y11.894 I3.5 J0
G1 Y10.353
G3 X-2.117 Y9.86 I0.5 J0
G2 X-1.172 Y5.298 I-0.417 J-2.465
G1 Z-1.2 F20
G2 X-2.117 Y4.93 I-1.362 J2.096 F300
G3 X-2.534 Y4.436 I0.083 J-0.493
G1 Y2.895
G2 X-9.534 Y2.895 I-3.5 J0
G1 Y4.436
G3 X-9.951 Y4.93 I-0.5 J0
G2 X-9.951 Y9.86 I0.417 J2.465
G3 X-9.534 Y10.353 I-0.083 J0.493
G1 Y11.894
G2 X-2.534 Y11.894 I3.5 J0
G1 Y10.353
G3 X-2.117 Y9.86 I0.5 J0
G2 X-1.172 Y5.298 I-0.417 J-2.465
G1 Z-1.8 F20
G2 X-2.117 Y4.93 I-1.362 J2.096 F300
G3 X-2.534 Y4.436 I0.083 J-0.493
G1 Y2.895
G2 X-9.534 Y2.895 I-3.5 J0
G1 Y4.436
G3 X-9.951 Y4.93 I-0.5 J0
G2 X-9.951 Y9.86 I0.417 J2.465
G3 X-9.534 Y10.353 I-0.083 J0.493
G1 Y11.894
G2 X-2.534 Y11.894 I3.5 J0
G1 Y10.353
G3 X-2.117 Y9.86 I0.5 J0
G2 X-1.172 Y5.298 I-0.417 J-2.465
G1 Z-2.4 F20
G2 X-2.117 Y4.93 I-1.362 J2.096 F300
G3 X-2.534 Y4.436 I0.083 J-0.493
G1 Y2.895
G2 X-9.534 Y2.895 I-3.5 J0
G1 Y4.436
G3 X-9.951 Y4.93 I-0.5 J0
G2 X-9.951 Y9.86 I0.417 J2.465
G3 X-9.534 Y10.353 I-0.083 J0.493
G1 Y11.894
G2 X-2.534 Y11.894 I3.5 J0
G1 Y10.353
G3 X-2.117 Y9.86 I0.5 J0
G2 X-1.172 Y5.298 I-0.417 J-2.465
G1 Z-3 F20
G2 X-2.117 Y4.93 I-1.362 J2.096 F300
G3 X-2.534 Y4.436 I0.083 J-0.493
G1 Y2.895
G2 X-9.534 Y2.895 I-3.5 J0
G1 Y4.436
G3 X-9.951 Y4.93 I-0.5 J0
G2 X-9.951 Y9.86 I0.417 J2.465
G3 X-9.534 Y10.353 I-0.083 J0.493
G1 Y11.894
G2 X-2.534 Y11.894 I3.5 J0
G1 Y10.353
G3 X-2.117 Y9.86 I0.5 J0
G2 X-1.172 Y5.298 I-0.417 J-2.465
G1 Z-3.6 F20
G2 X-2.117 Y4.93 I-1.362 J2.096 F300
G3 X-2.534 Y4.436 I0.083 J-0.493
G1 Y2.895
G2 X-9.534 Y2.895 I-3.5 J0
G1 Y4.436
G3 X-9.951 Y4.93 I-0.5 J0
G2 X-9.951 Y9.86 I0.417 J2.465
G3 X-9.534 Y10.353 I-0.083 J0.493
G1 Y11.894
G2 X-2.534 Y11.894 I3.5 J0
G1 Y10.353
G3 X-2.117 Y9.86 I0.5 J0
G2 X-1.172 Y5.298 I-0.417 J-2.465
G1 Z-4.2 F20
G2 X-2.117 Y4.93 I-1.362 J2.096 F300
G3 X-2.534 Y4.436 I0.083 J-0.493
G1 Y2.895
G2 X-9.534 Y2.895 I-3.5 J0
G1 Y4.436
G3 X-9.951 Y4.93 I-0.5 J0
G2 X-9.951 Y9.86 I0.417 J2.465
G3 X-9.534 Y10.353 I-0.083 J0.493
G1 Y11.894
G2 X-2.534 Y11.894 I3.5 J0
G1 Y10.353
G3 X-2.117 Y9.86 I0.5 J0
G2 X-1.172 Y5.298 I-0.417 J-2.465
G1 Z-4.6 F20
G2 X-2.117 Y4.93 I-1.362 J2.096 F300
G3 X-2.534 Y4.436 I0.083 J-0.493
G1 Y2.895
G2 X-9.534 Y2.895 I-3.5 J0
G1 Y4.436
G3 X-9.951 Y4.93 I-0.5 J0
G2 X-9.951 Y9.86 I0.417 J2.465
G3 X-9.534 Y10.353 I-0.083 J0.493
G1 Y11.894
G2 X-2.534 Y11.894 I3.5 J0
G1 Y10.353
G3 X-2.117 Y9.86 I0.5 J0
G2 X-1.172 Y5.298 I-0.417 J-2.465
G1 Z2
X6.44 Y11.331
Z1
Z-0.6 F20
G2 X10.742 Y6.835 I-0.198 J-4.496 F300
X6.242 Y2.335 I-4.5 J0
X1.742 Y6.835 I0 J4.5
X1.751 Y7.113 I4.5 J0
X6.44 Y11.331 I4.491 J-0.278
G1 Z-1.2 F20
G2 X10.742 Y6.835 I-0.198 J-4.496 F300
X6.242 Y2.335 I-4.5 J0
X1.742 Y6.835 I0 J4.5
X1.751 Y7.113 I4.5 J0
X6.44 Y11.331 I4.491 J-0.278
G1 Z-1.8 F20
G2 X10.742 Y6.835 I-0.198 J-4.496 F300
X6.242 Y2.335 I-4.5 J0
X1.742 Y6.835 I0 J4.5
X1.751 Y7.113 I4.5 J0
X6.44 Y11.331 I4.491 J-0.278
G1 Z-2.4 F20
G2 X10.742 Y6.835 I-0.198 J-4.496 F300
X6.242 Y2.335 I-4.5 J0
X1.742 Y6.835 I0 J4.5
X1.751 Y7.113 I4.5 J0
X6.44 Y11.331 I4.491 J-0.278
G1 Z-3 F20
G2 X10.742 Y6.835 I-0.198 J-4.496 F300
X6.242 Y2.335 I-4.5 J0
X1.742 Y6.835 I0 J4.5
X1.751 Y7.113 I4.5 J0
X6.44 Y11.331 I4.491 J-0.278
G1 Z-3.6 F20
G2 X10.742 Y6.835 I-0.198 J-4.496 F300
X6.242 Y2.335 I-4.5 J0
X1.742 Y6.835 I0 J4.5
X1.751 Y7.113 I4.5 J0
X6.44 Y11.331 I4.491 J-0.278
G1 Z-4.2 F20
G2 X10.742 Y6.835 I-0.198 J-4.496 F300
X6.242 Y2.335 I-4.5 J0
X1.742 Y6.835 I0 J4.5
X1.751 Y7.113 I4.5 J0
X6.44 Y11.331 I4.491 J-0.278
G1 Z-4.6 F20
G2 X10.742 Y6.835 I-0.198 J-4.496 F300
X6.242 Y2.335 I-4.5 J0
X1.742 Y6.835 I0 J4.5
X1.751 Y7.113 I4.5 J0
X6.44 Y11.331 I4.491 J-0.278
G1 Z3
M5
M30
