(mod)
(T1  D=1 CR=0 - ZMIN=-4.4 - flat end mill)
G90 G94
G17
G21
(When using Fusion 360 for Personal Use, the feedrate of)
(rapid moves is reduced to match the feedrate of cutting)
(moves, which can increase machining time. Unrestricted rapid)
(moves are available with a Fusion 360 Subscription.)

(Holes 2)
S20000 M3
G54
G0 X30.52 Y20.095
Z3
G1 Z1 F300
Z-0.6 F20
G3 X28.569 Y20.095 I-0.975 J0 F300
X30.52 Y20.095 I0.975 J0
G1 Z-1.2 F20
G3 X28.569 Y20.095 I-0.975 J0 F300
X30.52 Y20.095 I0.975 J0
G1 Z-1.8 F20
G3 X28.569 Y20.095 I-0.975 J0 F300
X30.52 Y20.095 I0.975 J0
G1 Z-2.4 F20
G3 X28.569 Y20.095 I-0.975 J0 F300
X30.52 Y20.095 I0.975 J0
G1 Z-3 F20
G3 X28.569 Y20.095 I-0.975 J0 F300
X30.52 Y20.095 I0.975 J0
G1 Z-3.6 F20
G3 X28.569 Y20.095 I-0.975 J0 F300
X30.52 Y20.095 I0.975 J0
G1 Z-4.2 F20
G3 X28.569 Y20.095 I-0.975 J0 F300
X30.52 Y20.095 I0.975 J0
G1 Z-4.4 F20
G3 X28.569 Y20.095 I-0.975 J0 F300
X30.52 Y20.095 I0.975 J0
G1 Z2
X30.519 Y10.095
Z1
Z-0.6 F20
G3 X29.545 Y11.07 I-0.975 J0 F300
X29.545 Y9.12 I0 J-0.975
X30.519 Y10.095 I0 J0.975
G1 Z-1.2 F20
G3 X29.545 Y11.07 I-0.975 J0 F300
X29.545 Y9.12 I0 J-0.975
X30.519 Y10.095 I0 J0.975
G1 Z-1.8 F20
G3 X29.545 Y11.07 I-0.975 J0 F300
X29.545 Y9.12 I0 J-0.975
X30.519 Y10.095 I0 J0.975
G1 Z-2.4 F20
G3 X29.545 Y11.07 I-0.975 J0 F300
X29.545 Y9.12 I0 J-0.975
X30.519 Y10.095 I0 J0.975
G1 Z-3 F20
G3 X29.545 Y11.07 I-0.975 J0 F300
X29.545 Y9.12 I0 J-0.975
X30.519 Y10.095 I0 J0.975
G1 Z-3.6 F20
G3 X29.545 Y11.07 I-0.975 J0 F300
X29.545 Y9.12 I0 J-0.975
X30.519 Y10.095 I0 J0.975
G1 Z-4.2 F20
G3 X29.545 Y11.07 I-0.975 J0 F300
X29.545 Y9.12 I0 J-0.975
X30.519 Y10.095 I0 J0.975
G1 Z-4.4 F20
G3 X29.545 Y11.07 I-0.975 J0 F300
X29.545 Y9.12 I0 J-0.975
X30.519 Y10.095 I0 J0.975
G1 Z3
M5
M30
