(1001)
(T1  D=1.587 CR=0 - ZMIN=-3.833 - flat end mill)
G90 G94
G17
G21
G28 G91 Z0
G90

(2D Adaptive2)
M9
S20000 M3
G54
G0 X-63.247 Y20.6
Z6
Z3
Z-3.515
G1 Z-3.674 F100
X-63.24 Y20.596 Z-3.723
X-63.221 Y20.584 Z-3.768
X-63.191 Y20.566 Z-3.803
X-63.153 Y20.544 Z-3.825
X-63.11 Y20.519 Z-3.833
G3 X-61.603 Y20.076 I1.618 J2.721
G1 X-60.611 F300
X-60.461 Y20.083
X-60.315 Y20.117
X-60.179 Y20.18
X-60.052 Y20.26
X-59.917 Y20.364
X-59.806 Y20.464
X-59.705 Y20.575
X-59.619 Y20.698
X-59.534 Y20.847
X-59.435 Y21.059
X-59.383 Y21.201
X-59.342 Y21.346
X-59.317 Y21.494
X-59.301 Y21.688
X-59.3 Y21.964
X-59.324 Y22.27
X-59.394 Y22.715
X-59.497 Y23.153
X-59.612 Y23.589
X-59.682 Y24.034
X-59.717 Y24.483
X-59.735 Y24.933
X-59.695 Y25.382
X-59.615 Y25.825
X-59.516 Y26.265
X-59.361 Y26.687
X-59.168 Y27.094
X-58.958 Y27.493
X-58.697 Y27.86
X-58.404 Y28.202
X-58.098 Y28.532
X-57.75 Y28.819
X-57.378 Y29.072
X-56.995 Y29.31
X-56.585 Y29.495
X-56.159 Y29.643
X-55.728 Y29.773
X-55.283 Y29.844
X-54.834 Y29.875
X-54.383 Y29.888
X-53.936 Y29.84
X-53.494 Y29.752
X-53.056 Y29.647
X-52.636 Y29.483
X-52.233 Y29.282
X-51.837 Y29.066
X-51.475 Y28.798
X-51.139 Y28.499
X-50.813 Y28.188
X-50.534 Y27.834
X-50.287 Y27.457
X-50.055 Y27.071
X-49.878 Y26.657
X-49.738 Y26.229
X-49.615 Y25.796
X-49.553 Y25.35
X-49.53 Y24.9
X-49.524 Y24.449
X-49.581 Y24.002
X-49.677 Y23.562
X-49.789 Y23.126
X-49.894 Y22.688
X-49.944 Y22.468
X-49.971 Y22.312
X-49.991 Y22.103
X-49.995 Y21.798
X-49.98 Y21.569
X-49.958 Y21.421
X-49.917 Y21.257
X-49.845 Y21.039
X-49.732 Y20.776
X-49.663 Y20.643
X-49.579 Y20.519
X-49.458 Y20.368
X-49.291 Y20.192
X-49.213 Y20.129
X-49.121 Y20.089
X-49.022 Y20.076
X-47.765
G0 Z3
X-61.501 Y20.378
Z-3.515
G1 Z-3.674 F100
X-61.494 Y20.374 Z-3.723
X-61.475 Y20.363 Z-3.768
X-61.445 Y20.345 Z-3.803
X-61.407 Y20.322 Z-3.825
X-61.365 Y20.297 Z-3.833
G3 X-60.611 Y20.076 I0.809 J1.36
G1 X-59.997 F300
X-59.847 Y20.083
X-59.702 Y20.12
X-59.566 Y20.183
X-59.441 Y20.266
X-59.327 Y20.364
X-59.224 Y20.473
X-59.131 Y20.591
X-59.049 Y20.716
X-58.978 Y20.848
X-58.911 Y21.001
X-58.854 Y21.165
X-58.804 Y21.361
X-58.764 Y21.594
X-58.741 Y21.834
X-58.738 Y22.159
X-58.764 Y22.537
X-58.831 Y22.982
X-58.925 Y23.423
X-59.001 Y23.867
X-59.051 Y24.315
X-59.069 Y24.765
X-59.04 Y25.214
X-58.975 Y25.66
X-58.865 Y26.097
X-58.706 Y26.518
X-58.512 Y26.925
X-58.271 Y27.306
X-57.997 Y27.663
X-57.688 Y27.991
X-57.345 Y28.283
X-56.98 Y28.546
X-56.585 Y28.763
X-56.17 Y28.938
X-55.741 Y29.076
X-55.299 Y29.163
X-54.851 Y29.212
X-54.401 Y29.214
X-53.953 Y29.165
X-53.511 Y29.078
X-53.083 Y28.939
X-52.669 Y28.761
X-52.274 Y28.544
X-51.907 Y28.283
X-51.562 Y27.994
X-51.253 Y27.666
X-50.981 Y27.307
X-50.741 Y26.926
X-50.547 Y26.519
X-50.389 Y26.097
X-50.276 Y25.661
X-50.213 Y25.215
X-50.187 Y24.766
X-50.215 Y24.316
X-50.286 Y23.871
X-50.378 Y23.43
X-50.477 Y22.991
X-50.552 Y22.584
X-50.589 Y22.22
X-50.595 Y21.931
X-50.58 Y21.673
X-50.543 Y21.412
X-50.481 Y21.134
X-50.408 Y20.9
X-50.326 Y20.696
X-50.226 Y20.494
X-50.105 Y20.292
X-50.061 Y20.231
X-49.979 Y20.148
X-49.875 Y20.094
X-49.76 Y20.076
X-49.022
G0 Z3
X-60.887 Y20.378
Z-3.515
G1 Z-3.674 F100
X-60.881 Y20.374 Z-3.723
X-60.861 Y20.363 Z-3.768
X-60.831 Y20.345 Z-3.803
X-60.793 Y20.322 Z-3.825
X-60.751 Y20.297 Z-3.833
G3 X-59.997 Y20.076 I0.809 J1.36
G1 X-59.429 F300
X-59.28 Y20.083
X-59.134 Y20.122
X-58.999 Y20.186
X-58.875 Y20.271
X-58.763 Y20.371
X-58.663 Y20.483
X-58.574 Y20.603
X-58.495 Y20.731
X-58.415 Y20.889
X-58.341 Y21.067
X-58.279 Y21.26
X-58.222 Y21.501
X-58.181 Y21.768
X-58.16 Y22.072
X-58.163 Y22.455
X-58.204 Y22.904
X-58.273 Y23.349
X-58.341 Y23.794
X-58.39 Y24.242
X-58.405 Y24.692
X-58.379 Y25.142
X-58.306 Y25.587
X-58.18 Y26.019
X-58.005 Y26.434
X-57.782 Y26.825
X-57.515 Y27.188
X-57.207 Y27.517
X-56.863 Y27.808
X-56.485 Y28.052
X-56.08 Y28.25
X-55.654 Y28.398
X-55.215 Y28.496
X-54.767 Y28.542
X-54.316 Y28.531
X-53.871 Y28.466
X-53.436 Y28.348
X-53.018 Y28.181
X-52.623 Y27.965
X-52.255 Y27.705
X-51.924 Y27.399
X-51.631 Y27.057
X-51.381 Y26.682
X-51.177 Y26.281
X-51.02 Y25.858
X-50.918 Y25.419
X-50.869 Y24.972
X-50.875 Y24.521
X-50.925 Y24.074
X-51.001 Y23.63
X-51.085 Y23.187
X-51.156 Y22.742
X-51.195 Y22.334
X-51.2 Y21.981
X-51.177 Y21.635
X-51.13 Y21.311
X-51.061 Y21.012
X-50.972 Y20.73
X-50.868 Y20.475
X-50.784 Y20.309
X-50.75 Y20.254
X-50.668 Y20.159
X-50.558 Y20.097
X-50.434 Y20.076
X-49.76
G0 Z3
X-60.319 Y20.378
Z-3.515
G1 Z-3.674 F100
X-60.313 Y20.374 Z-3.723
X-60.293 Y20.363 Z-3.768
X-60.263 Y20.345 Z-3.803
X-60.225 Y20.322 Z-3.825
X-60.183 Y20.297 Z-3.833
G3 X-59.429 Y20.076 I0.809 J1.36
G1 X-58.872 F300
X-58.722 Y20.083
X-58.577 Y20.124
X-58.443 Y20.191
X-58.321 Y20.277
X-58.21 Y20.379
X-58.111 Y20.491
X-58.022 Y20.612
X-57.931 Y20.759
X-57.85 Y20.919
X-57.771 Y21.11
X-57.697 Y21.341
X-57.641 Y21.584
X-57.596 Y21.885
X-57.57 Y22.255
X-57.575 Y22.683
X-57.617 Y23.132
X-57.673 Y23.579
X-57.722 Y24.027
X-57.745 Y24.477
X-57.728 Y24.927
X-57.661 Y25.372
X-57.537 Y25.805
X-57.352 Y26.216
X-57.111 Y26.597
X-56.82 Y26.94
X-56.482 Y27.238
X-56.104 Y27.482
X-55.693 Y27.667
X-55.26 Y27.792
X-54.814 Y27.853
X-54.363 Y27.85
X-53.919 Y27.777
X-53.49 Y27.641
X-53.084 Y27.445
X-52.711 Y27.192
X-52.38 Y26.887
X-52.098 Y26.536
X-51.869 Y26.148
X-51.698 Y25.731
X-51.589 Y25.294
X-51.548 Y24.845
X-51.562 Y24.395
X-51.612 Y23.947
X-51.68 Y23.502
X-51.746 Y23.057
X-51.796 Y22.609
X-51.814 Y22.162
X-51.798 Y21.746
X-51.751 Y21.359
X-51.678 Y20.996
X-51.585 Y20.675
X-51.507 Y20.469
X-51.431 Y20.307
X-51.405 Y20.262
X-51.322 Y20.163
X-51.211 Y20.098
X-51.084 Y20.076
X-50.434
G0 Z3
X-59.762 Y20.378
Z-3.515
G1 Z-3.674 F100
X-59.755 Y20.374 Z-3.723
X-59.736 Y20.363 Z-3.768
X-59.705 Y20.345 Z-3.803
X-59.667 Y20.322 Z-3.825
X-59.625 Y20.297 Z-3.833
G3 X-58.872 Y20.076 I0.809 J1.36
G1 X-58.304 F300
X-58.154 Y20.083
X-58.011 Y20.129
X-57.878 Y20.199
X-57.757 Y20.287
X-57.648 Y20.39
X-57.549 Y20.502
X-57.456 Y20.63
X-57.362 Y20.782
X-57.278 Y20.948
X-57.191 Y21.159
X-57.116 Y21.392
X-57.051 Y21.67
X-56.999 Y22.015
X-56.973 Y22.39
X-56.978 Y22.841
X-57.013 Y23.29
X-57.056 Y23.738
X-57.086 Y24.187
X-57.082 Y24.638
X-57.027 Y25.085
X-56.91 Y25.52
X-56.721 Y25.929
X-56.463 Y26.298
X-56.144 Y26.616
X-55.772 Y26.869
X-55.357 Y27.046
X-54.917 Y27.142
X-54.467 Y27.157
X-54.022 Y27.083
X-53.6 Y26.927
X-53.213 Y26.696
X-52.877 Y26.396
X-52.606 Y26.037
X-52.405 Y25.633
X-52.281 Y25.2
X-52.235 Y24.752
X-52.245 Y24.302
X-52.287 Y23.853
X-52.343 Y23.406
X-52.393 Y22.959
X-52.425 Y22.51
X-52.43 Y22.059
X-52.402 Y21.61
X-52.343 Y21.189
X-52.264 Y20.836
X-52.18 Y20.564
X-52.112 Y20.394
X-52.045 Y20.26
X-52.042 Y20.254
X-51.959 Y20.159
X-51.849 Y20.097
X-51.725 Y20.076
X-51.084
G0 Z3
X-59.194 Y20.378
Z-3.515
G1 Z-3.674 F100
X-59.187 Y20.374 Z-3.723
X-59.168 Y20.363 Z-3.768
X-59.138 Y20.345 Z-3.803
X-59.1 Y20.322 Z-3.825
X-59.057 Y20.297 Z-3.833
G3 X-58.304 Y20.076 I0.809 J1.36
G1 X-57.746 F300
X-57.596 Y20.083
X-57.451 Y20.119
X-57.314 Y20.182
X-57.189 Y20.264
X-57.075 Y20.361
X-56.971 Y20.469
X-56.877 Y20.587
X-56.793 Y20.711
X-56.718 Y20.841
X-56.651 Y20.975
X-56.593 Y21.113
X-56.541 Y21.254
X-56.496 Y21.397
X-56.457 Y21.542
X-56.424 Y21.688
X-56.397 Y21.835
X-56.375 Y21.984
X-56.358 Y22.133
X-56.345 Y22.282
X-56.336 Y22.432
X-56.332 Y22.582
X-56.33 Y22.732
X-56.332 Y22.882
X-56.336 Y23.032
X-56.346 Y23.27
X-56.367 Y23.72
X-56.381 Y24.17
X-56.359 Y24.62
X-56.27 Y25.061
X-56.099 Y25.478
X-55.835 Y25.843
X-55.488 Y26.13
X-55.282 Y26.22
X-54.851 Y26.354
X-54.626
X-54.179 Y26.299
X-53.973 Y26.208
X-53.589 Y25.973
X-53.289 Y25.637
X-53.097 Y25.229
X-53.005 Y24.788
X-52.985 Y24.338
X-53.006 Y23.888
X-53.054 Y23.327
X-53.066 Y23.178
X-53.076 Y23.028
X-53.084 Y22.878
X-53.092 Y22.729
X-53.096 Y22.579
X-53.098 Y22.429
Y22.279
X-53.096 Y22.129
X-53.09 Y21.979
X-53.081 Y21.829
X-53.069 Y21.68
X-53.054 Y21.53
X-53.035 Y21.382
X-53.012 Y21.233
X-52.986 Y21.086
X-52.955 Y20.939
X-52.92 Y20.793
X-52.88 Y20.649
X-52.834 Y20.506
X-52.779 Y20.366
X-52.742 Y20.287
X-52.66 Y20.176
X-52.543 Y20.102
X-52.407 Y20.076
X-51.725
G0 Z3
X-58.636 Y20.378
Z-3.515
G1 Z-3.674 F100
X-58.63 Y20.374 Z-3.723
X-58.61 Y20.363 Z-3.768
X-58.58 Y20.345 Z-3.803
X-58.542 Y20.322 Z-3.825
X-58.5 Y20.297 Z-3.833
G3 X-57.746 Y20.076 I0.809 J1.36
G1 X-57.132 F300
X-56.983 Y20.083
X-56.84 Y20.131
X-56.708 Y20.202
X-56.587 Y20.29
X-56.476 Y20.391
X-56.376 Y20.503
X-56.278 Y20.633
X-56.18 Y20.786
X-56.083 Y20.97
X-55.989 Y21.188
X-55.902 Y21.444
X-55.825 Y21.75
X-55.763 Y22.123
X-55.724 Y22.572
X-55.723 Y22.685
X-55.722 Y22.797
X-55.688 Y22.905
X-55.623 Y22.997
X-55.444 Y23.133
X-55.017 Y23.277
X-54.808 Y23.314
X-54.699 Y23.342
X-54.591 Y23.374
X-54.478 Y23.371
X-54.372 Y23.335
X-54.281 Y23.269
X-54.133 Y23.099
X-53.913 Y22.706
X-53.805 Y22.268
X-53.738 Y21.823
X-53.673 Y21.377
X-53.59 Y20.934
X-53.509 Y20.629
X-53.443 Y20.444
X-53.382 Y20.307
X-53.361 Y20.268
X-53.278 Y20.166
X-53.165 Y20.099
X-53.036 Y20.076
X-52.407
G0 Z3
X-58.022 Y20.378
Z-3.515
G1 Z-3.674 F100
X-58.016 Y20.374 Z-3.723
X-57.996 Y20.363 Z-3.768
X-57.966 Y20.345 Z-3.803
X-57.928 Y20.322 Z-3.825
X-57.886 Y20.297 Z-3.833
G3 X-57.132 Y20.076 I0.809 J1.36
G1 X-56.59 F300
X-56.44 Y20.083
X-56.296 Y20.125
X-56.162 Y20.192
X-56.038 Y20.278
X-55.925 Y20.376
X-55.823 Y20.485
X-55.72 Y20.616
X-55.621 Y20.763
X-55.514 Y20.955
X-55.42 Y21.16
X-55.324 Y21.425
X-55.294 Y21.534
X-55.241 Y21.753
X-55.216 Y21.862
X-55.171 Y21.966
G3 X-55.449 Y22.115 I-0.148 J0.057 F100
G1 X-55.637 Y21.848
X-56.458 Y20.689 F300
X-56.714 Y20.326 F100
G3 X-56.59 Y20.076 I0.13 J-0.092
G1 X-56.007 F300
X-55.857 Y20.083
X-55.711 Y20.117
X-55.574 Y20.178
X-55.447 Y20.257
X-55.33 Y20.352
X-55.223 Y20.457
X-55.126 Y20.571
X-55.038 Y20.693
X-54.958 Y20.82
X-54.905 Y20.919
G3 X-55.145 Y21.114 I-0.142 J0.071 F100
G1 X-55.425 Y20.893
X-55.787 Y20.606 F300
X-56.1 Y20.359 F100
G3 X-56.007 Y20.076 I0.098 J-0.125
G1 X-55.393 F300
X-55.243 Y20.083
X-55.099 Y20.125
X-54.998 Y20.175
X-54.889 Y20.204
X-54.664 Y20.194
X-54.4 Y20.098
X-54.359 Y20.086
X-54.316 Y20.078
X-54.274 Y20.076
G3 X-54.279 Y20.393 I-0.006 J0.159 F100
G1 X-54.571
X-55.095 F300
X-55.387 F100
G3 X-55.393 Y20.076 J-0.159
G1 X-53.036 F300
G3 X-53.041 Y20.393 I-0.006 J0.159 F100
G1 X-53.042
G3 X-53.195 Y20.192 J-0.159
G0 Z6
X-46.004 Y7.965
Z3
Z-3.515
G1 Z-3.674 F100
X-46.011 Y7.969 Z-3.723
X-46.03 Y7.98 Z-3.768
X-46.061 Y7.998 Z-3.803
X-46.099 Y8.021 Z-3.825
X-46.141 Y8.046 Z-3.833
G3 X-47.648 Y8.488 I-1.618 J-2.721
G1 X-48.64 F300
X-48.79 Y8.481
X-48.936 Y8.447
X-49.072 Y8.384
X-49.199 Y8.305
X-49.334 Y8.201
X-49.446 Y8.1
X-49.547 Y7.989
X-49.633 Y7.866
X-49.717 Y7.717
X-49.816 Y7.505
X-49.869 Y7.363
X-49.909 Y7.219
X-49.934 Y7.071
X-49.95 Y6.876
X-49.951 Y6.6
X-49.928 Y6.294
X-49.857 Y5.85
X-49.755 Y5.411
X-49.639 Y4.975
X-49.569 Y4.531
X-49.535 Y4.081
X-49.516 Y3.631
X-49.556 Y3.183
X-49.637 Y2.739
X-49.735 Y2.3
X-49.89 Y1.877
X-50.084 Y1.47
X-50.293 Y1.071
X-50.554 Y0.704
X-50.847 Y0.362
X-51.153 Y0.032
X-51.501 Y-0.254
X-51.874 Y-0.508
X-52.256 Y-0.746
X-52.667 Y-0.931
X-53.092 Y-1.078
X-53.523 Y-1.209
X-53.968 Y-1.28
X-54.418 Y-1.31
X-54.868 Y-1.323
X-55.316 Y-1.275
X-55.758 Y-1.187
X-56.196 Y-1.082
X-56.615 Y-0.918
X-57.019 Y-0.718
X-57.414 Y-0.502
X-57.776 Y-0.234
X-58.113 Y0.065
X-58.438 Y0.377
X-58.717 Y0.73
X-58.964 Y1.107
X-59.196 Y1.493
X-59.373 Y1.907
X-59.513 Y2.336
X-59.636 Y2.769
X-59.698 Y3.215
X-59.721 Y3.665
X-59.727 Y4.115
X-59.67 Y4.562
X-59.574 Y5.002
X-59.462 Y5.438
X-59.357 Y5.876
X-59.308 Y6.096
X-59.28 Y6.252
X-59.261 Y6.462
X-59.256 Y6.767
X-59.272 Y6.995
X-59.294 Y7.144
X-59.334 Y7.308
X-59.407 Y7.525
X-59.519 Y7.788
X-59.589 Y7.921
X-59.673 Y8.045
X-59.794 Y8.196
X-59.96 Y8.372
X-60.038 Y8.435
X-60.13 Y8.475
X-60.229 Y8.488
X-61.486
G0 Z3
X-47.75 Y8.186
Z-3.515
G1 Z-3.674 F100
X-47.757 Y8.19 Z-3.723
X-47.776 Y8.201 Z-3.768
X-47.806 Y8.219 Z-3.803
X-47.844 Y8.242 Z-3.825
X-47.887 Y8.267 Z-3.833
G3 X-48.64 Y8.488 I-0.809 J-1.36
G1 X-49.254 F300
X-49.404 Y8.481
X-49.549 Y8.444
X-49.685 Y8.381
X-49.81 Y8.298
X-49.924 Y8.2
X-50.027 Y8.091
X-50.12 Y7.973
X-50.202 Y7.848
X-50.273 Y7.716
X-50.34 Y7.564
X-50.397 Y7.399
X-50.447 Y7.203
X-50.488 Y6.971
X-50.51 Y6.73
X-50.514 Y6.405
X-50.487 Y6.027
X-50.42 Y5.582
X-50.326 Y5.141
X-50.25 Y4.697
X-50.2 Y4.25
X-50.182 Y3.8
X-50.211 Y3.35
X-50.276 Y2.904
X-50.387 Y2.468
X-50.545 Y2.046
X-50.74 Y1.64
X-50.98 Y1.259
X-51.255 Y0.902
X-51.563 Y0.573
X-51.906 Y0.282
X-52.272 Y0.018
X-52.666 Y-0.198
X-53.081 Y-0.374
X-53.51 Y-0.511
X-53.952 Y-0.599
X-54.4 Y-0.648
X-54.85 Y-0.649
X-55.298 Y-0.601
X-55.74 Y-0.514
X-56.169 Y-0.375
X-56.582 Y-0.197
X-56.977 Y0.021
X-57.344 Y0.281
X-57.69 Y0.57
X-57.998 Y0.899
X-58.271 Y1.257
X-58.51 Y1.639
X-58.704 Y2.045
X-58.862 Y2.467
X-58.975 Y2.903
X-59.039 Y3.349
X-59.064 Y3.799
X-59.036 Y4.248
X-58.966 Y4.693
X-58.873 Y5.134
X-58.774 Y5.574
X-58.7 Y5.98
X-58.663 Y6.344
X-58.656 Y6.634
X-58.672 Y6.891
X-58.708 Y7.152
X-58.77 Y7.43
X-58.843 Y7.664
X-58.925 Y7.869
X-59.025 Y8.07
X-59.147 Y8.273
X-59.19 Y8.334
X-59.272 Y8.417
X-59.376 Y8.47
X-59.492 Y8.488
X-60.229
G0 Z3
X-48.364 Y8.186
Z-3.515
G1 Z-3.674 F100
X-48.371 Y8.19 Z-3.723
X-48.39 Y8.201 Z-3.768
X-48.42 Y8.219 Z-3.803
X-48.458 Y8.242 Z-3.825
X-48.501 Y8.267 Z-3.833
G3 X-49.254 Y8.488 I-0.809 J-1.36
G1 X-49.822 F300
X-49.972 Y8.481
X-50.117 Y8.443
X-50.252 Y8.378
X-50.376 Y8.293
X-50.488 Y8.193
X-50.588 Y8.082
X-50.677 Y7.961
X-50.756 Y7.833
X-50.837 Y7.676
X-50.91 Y7.497
X-50.972 Y7.305
X-51.029 Y7.064
X-51.07 Y6.796
X-51.091 Y6.492
X-51.088 Y6.109
X-51.047 Y5.66
X-50.978 Y5.215
X-50.91 Y4.77
X-50.862 Y4.322
X-50.846 Y3.872
X-50.872 Y3.422
X-50.945 Y2.978
X-51.071 Y2.545
X-51.246 Y2.13
X-51.47 Y1.739
X-51.736 Y1.376
X-52.044 Y1.047
X-52.388 Y0.757
X-52.767 Y0.512
X-53.172 Y0.315
X-53.597 Y0.167
X-54.037 Y0.068
X-54.485 Y0.022
X-54.935 Y0.034
X-55.381 Y0.098
X-55.815 Y0.216
X-56.234 Y0.383
X-56.629 Y0.6
X-56.996 Y0.86
X-57.328 Y1.165
X-57.62 Y1.508
X-57.87 Y1.883
X-58.075 Y2.284
X-58.231 Y2.706
X-58.333 Y3.145
X-58.382 Y3.593
X-58.376 Y4.043
X-58.326 Y4.491
X-58.25 Y4.935
X-58.166 Y5.377
X-58.096 Y5.822
X-58.057 Y6.23
X-58.051 Y6.584
X-58.074 Y6.929
X-58.122 Y7.253
X-58.19 Y7.552
X-58.279 Y7.834
X-58.383 Y8.089
X-58.467 Y8.256
X-58.501 Y8.311
X-58.584 Y8.406
X-58.693 Y8.467
X-58.817 Y8.488
X-59.492
G0 Z3
X-48.932 Y8.186
Z-3.515
G1 Z-3.674 F100
X-48.939 Y8.19 Z-3.723
X-48.958 Y8.201 Z-3.768
X-48.988 Y8.219 Z-3.803
X-49.026 Y8.242 Z-3.825
X-49.068 Y8.267 Z-3.833
G3 X-49.822 Y8.488 I-0.809 J-1.36
G1 X-50.38 F300
X-50.529 Y8.481
X-50.674 Y8.441
X-50.808 Y8.374
X-50.931 Y8.287
X-51.041 Y8.186
X-51.141 Y8.074
X-51.23 Y7.953
X-51.32 Y7.806
X-51.402 Y7.645
X-51.48 Y7.454
X-51.554 Y7.223
X-51.611 Y6.98
X-51.656 Y6.679
X-51.681 Y6.31
X-51.676 Y5.881
X-51.634 Y5.432
X-51.578 Y4.986
X-51.529 Y4.538
X-51.506 Y4.088
X-51.523 Y3.638
X-51.591 Y3.192
X-51.714 Y2.759
X-51.899 Y2.349
X-52.14 Y1.968
X-52.432 Y1.625
X-52.769 Y1.327
X-53.148 Y1.082
X-53.558 Y0.897
X-53.991 Y0.772
X-54.437 Y0.711
X-54.888 Y0.714
X-55.332 Y0.787
X-55.762 Y0.924
X-56.167 Y1.12
X-56.54 Y1.372
X-56.872 Y1.677
X-57.153 Y2.029
X-57.382 Y2.417
X-57.553 Y2.834
X-57.662 Y3.271
X-57.704 Y3.719
X-57.69 Y4.169
X-57.639 Y4.617
X-57.571 Y5.062
X-57.505 Y5.508
X-57.456 Y5.955
X-57.437 Y6.402
X-57.454 Y6.818
X-57.5 Y7.206
X-57.574 Y7.568
X-57.666 Y7.889
X-57.744 Y8.095
X-57.82 Y8.257
X-57.846 Y8.303
X-57.929 Y8.401
X-58.041 Y8.466
X-58.168 Y8.488
X-58.817
G0 Z3
X-49.49 Y8.186
Z-3.515
G1 Z-3.674 F100
X-49.496 Y8.19 Z-3.723
X-49.516 Y8.201 Z-3.768
X-49.546 Y8.219 Z-3.803
X-49.584 Y8.242 Z-3.825
X-49.626 Y8.267 Z-3.833
G3 X-50.38 Y8.488 I-0.809 J-1.36
G1 X-50.947 F300
X-51.097 Y8.481
X-51.24 Y8.436
X-51.373 Y8.366
X-51.494 Y8.277
X-51.603 Y8.175
X-51.703 Y8.062
X-51.796 Y7.935
X-51.889 Y7.783
X-51.974 Y7.616
X-52.06 Y7.406
X-52.135 Y7.172
X-52.2 Y6.895
X-52.252 Y6.55
X-52.278 Y6.174
X-52.273 Y5.724
X-52.239 Y5.275
X-52.195 Y4.826
X-52.166 Y4.377
X-52.17 Y3.926
X-52.224 Y3.479
X-52.342 Y3.044
X-52.53 Y2.635
X-52.788 Y2.266
X-53.107 Y1.949
X-53.48 Y1.695
X-53.894 Y1.519
X-54.334 Y1.422
X-54.784 Y1.408
X-55.229 Y1.481
X-55.651 Y1.637
X-56.038 Y1.868
X-56.374 Y2.168
X-56.646 Y2.528
X-56.846 Y2.931
X-56.97 Y3.364
X-57.017 Y3.812
X-57.007 Y4.262
X-56.964 Y4.711
X-56.909 Y5.158
X-56.858 Y5.606
X-56.826 Y6.055
X-56.822 Y6.505
X-56.849 Y6.955
X-56.908 Y7.375
X-56.988 Y7.729
X-57.072 Y8
X-57.14 Y8.17
X-57.206 Y8.304
X-57.21 Y8.31
X-57.293 Y8.405
X-57.402 Y8.467
X-57.527 Y8.488
X-58.168
G0 Z3
X-50.057 Y8.186
Z-3.515
G1 Z-3.674 F100
X-50.064 Y8.19 Z-3.723
X-50.083 Y8.201 Z-3.768
X-50.114 Y8.219 Z-3.803
X-50.152 Y8.242 Z-3.825
X-50.194 Y8.267 Z-3.833
G3 X-50.947 Y8.488 I-0.809 J-1.36
G1 X-51.505 F300
X-51.655 Y8.481
X-51.801 Y8.445
X-51.937 Y8.383
X-52.062 Y8.301
X-52.177 Y8.203
X-52.281 Y8.095
X-52.374 Y7.978
X-52.458 Y7.854
X-52.533 Y7.724
X-52.6 Y7.59
X-52.659 Y7.451
X-52.71 Y7.311
X-52.756 Y7.168
X-52.794 Y7.023
X-52.827 Y6.876
X-52.855 Y6.729
X-52.876 Y6.58
X-52.894 Y6.431
X-52.907 Y6.282
X-52.915 Y6.132
X-52.92 Y5.982
X-52.921 Y5.832
X-52.919 Y5.682
X-52.915 Y5.532
X-52.905 Y5.295
X-52.884 Y4.845
X-52.871 Y4.395
X-52.892 Y3.945
X-52.981 Y3.503
X-53.152 Y3.086
X-53.416 Y2.722
X-53.764 Y2.435
X-53.97 Y2.344
X-54.4 Y2.21
X-54.625
X-55.072 Y2.266
X-55.278 Y2.356
X-55.662 Y2.591
X-55.962 Y2.927
X-56.154 Y3.335
X-56.246 Y3.776
X-56.267 Y4.226
X-56.245 Y4.676
X-56.197 Y5.237
X-56.185 Y5.386
X-56.175 Y5.536
X-56.167 Y5.686
X-56.16 Y5.836
X-56.155 Y5.985
X-56.153 Y6.135
Y6.285
X-56.156 Y6.435
X-56.162 Y6.585
X-56.171 Y6.735
X-56.182 Y6.885
X-56.198 Y7.034
X-56.217 Y7.183
X-56.239 Y7.331
X-56.266 Y7.479
X-56.296 Y7.625
X-56.331 Y7.771
X-56.372 Y7.916
X-56.418 Y8.058
X-56.472 Y8.198
X-56.509 Y8.277
X-56.591 Y8.389
X-56.708 Y8.463
X-56.844 Y8.488
X-57.527
G0 Z3
X-50.615 Y8.186
Z-3.515
G1 Z-3.674 F100
X-50.622 Y8.19 Z-3.723
X-50.641 Y8.201 Z-3.768
X-50.671 Y8.219 Z-3.803
X-50.709 Y8.242 Z-3.825
X-50.751 Y8.267 Z-3.833
G3 X-51.505 Y8.488 I-0.809 J-1.36
G1 X-52.119 F300
X-52.269 Y8.481
X-52.411 Y8.433
X-52.543 Y8.363
X-52.665 Y8.274
X-52.775 Y8.173
X-52.875 Y8.061
X-52.974 Y7.931
X-53.071 Y7.778
X-53.169 Y7.595
X-53.263 Y7.376
X-53.349 Y7.12
X-53.426 Y6.815
X-53.489 Y6.441
X-53.527 Y5.992
X-53.529 Y5.88
Y5.767
X-53.563 Y5.66
X-53.628 Y5.568
X-53.808 Y5.431
X-54.234 Y5.287
X-54.443 Y5.25
X-54.552 Y5.222
X-54.66 Y5.191
X-54.773 Y5.193
X-54.88 Y5.229
X-54.971 Y5.296
X-55.118 Y5.466
X-55.338 Y5.859
X-55.446 Y6.296
X-55.514 Y6.742
X-55.579 Y7.187
X-55.662 Y7.63
X-55.743 Y7.936
X-55.808 Y8.12
X-55.869 Y8.257
X-55.89 Y8.296
X-55.973 Y8.398
X-56.086 Y8.465
X-56.215 Y8.488
X-56.844
G0 Z3
X-51.229 Y8.186
Z-3.515
G1 Z-3.674 F100
X-51.236 Y8.19 Z-3.723
X-51.255 Y8.201 Z-3.768
X-51.285 Y8.219 Z-3.803
X-51.323 Y8.242 Z-3.825
X-51.365 Y8.267 Z-3.833
G3 X-52.119 Y8.488 I-0.809 J-1.36
G1 X-52.661 F300
X-52.811 Y8.481
X-52.955 Y8.439
X-53.09 Y8.372
X-53.213 Y8.287
X-53.326 Y8.188
X-53.429 Y8.079
X-53.532 Y7.949
X-53.63 Y7.801
X-53.737 Y7.609
X-53.831 Y7.405
X-53.927 Y7.139
X-53.957 Y7.031
X-54.011 Y6.812
X-54.036 Y6.702
X-54.08 Y6.598
G3 X-53.802 Y6.45 I0.148 J-0.057 F100
G1 X-53.614 Y6.716
X-52.794 Y7.876 F300
X-52.537 Y8.238 F100
G3 X-52.661 Y8.488 I-0.13 J0.092
G1 X-53.244 F300
X-53.394 Y8.481
X-53.54 Y8.447
X-53.678 Y8.387
X-53.805 Y8.307
X-53.921 Y8.213
X-54.028 Y8.107
X-54.125 Y7.993
X-54.214 Y7.872
X-54.293 Y7.745
X-54.347 Y7.646
G3 X-54.106 Y7.45 I0.142 J-0.071 F100
G1 X-53.826 Y7.672
X-53.464 Y7.958 F300
X-53.151 Y8.205 F100
G3 X-53.244 Y8.488 I-0.098 J0.125
G1 X-53.858 F300
X-54.008 Y8.481
X-54.152 Y8.439
X-54.253 Y8.389
X-54.362 Y8.361
X-54.587 Y8.371
X-54.852 Y8.466
X-54.893 Y8.479
X-54.935 Y8.486
X-54.978 Y8.488
G3 X-54.972 Y8.171 I0.006 J-0.159 F100
G1 X-54.68
X-54.156 F300
X-53.864 F100
G3 X-53.858 Y8.488 J0.159
G1 X-56.215 F300
G3 X-56.21 Y8.171 I0.006 J-0.159 F100
X-56.057 Y8.372 J0.159
G0 Z6
X-90.443 Y6.821
Z3
Z-3.515
G1 Z-3.674 F100
X-90.439 Y6.828 Z-3.723
X-90.428 Y6.847 Z-3.768
X-90.41 Y6.877 Z-3.803
X-90.387 Y6.915 Z-3.825
X-90.362 Y6.957 Z-3.833
G3 X-89.919 Y8.465 I-2.721 J1.618
G1 Y8.567 F300
X-89.921 Y8.604
X-90.023 Y8.714
X-90.147 Y8.798
X-90.282 Y8.864
X-90.433 Y8.92
X-90.639 Y8.978
X-90.946 Y9.037
X-91.394 Y9.088
X-91.844 Y9.109
X-92.294 Y9.117
X-92.744 Y9.121
X-93.645 Y9.123
X-94.096
X-94.546 Y9.142
X-94.994 Y9.183
X-95.442 Y9.235
X-95.882 Y9.331
X-96.31 Y9.47
X-96.732 Y9.629
X-97.133 Y9.835
X-97.51 Y10.08
X-97.877 Y10.342
X-98.209 Y10.646
X-98.51 Y10.982
X-98.795 Y11.33
X-99.036 Y11.711
X-99.238 Y12.113
X-99.424 Y12.524
X-99.555 Y12.955
X-99.645 Y13.396
X-99.717 Y13.841
X-99.73 Y14.291
X-99.702 Y14.74
X-99.657 Y15.189
X-99.55 Y15.626
X-99.406 Y16.053
X-99.245 Y16.474
X-99.027 Y16.868
X-98.776 Y17.242
X-98.512 Y17.607
X-98.197 Y17.929
X-97.857 Y18.225
X-97.507 Y18.508
X-97.119 Y18.736
X-96.714 Y18.933
X-96.302 Y19.116
X-95.867 Y19.234
X-95.425 Y19.318
X-94.98 Y19.388
X-94.53 Y19.418
X-94.08 Y19.431
X-93.63 Y19.437
X-93.179 Y19.439
X-91.828 Y19.441
X-90.29
X-90.148 Y19.469
X-90.028 Y19.549
X-89.948 Y19.67
X-89.919 Y19.811
G0 Z3
X-90.222 Y7.677
Z-3.515
G1 Z-3.674 F100
X-90.218 Y7.683 Z-3.723
X-90.206 Y7.703 Z-3.768
X-90.188 Y7.733 Z-3.803
X-90.166 Y7.771 Z-3.825
X-90.141 Y7.813 Z-3.833
G3 X-89.919 Y8.567 I-1.36 J0.809
G1 Y8.817 F300
X-89.923 Y8.892
X-89.992 Y9.025
X-90.087 Y9.141
X-90.2 Y9.24
X-90.324 Y9.324
X-90.456 Y9.396
X-90.631 Y9.473
X-90.827 Y9.54
X-91.103 Y9.612
X-91.492 Y9.68
X-91.941 Y9.722
X-92.391 Y9.741
X-92.841 Y9.751
X-93.292 Y9.755
X-93.742 Y9.757
X-94.192 Y9.769
X-94.642 Y9.798
X-95.09 Y9.846
X-95.532 Y9.93
X-95.966 Y10.051
X-96.388 Y10.209
X-96.79 Y10.412
X-97.174 Y10.648
X-97.528 Y10.926
X-97.851 Y11.24
X-98.145 Y11.582
X-98.398 Y11.954
X-98.617 Y12.348
X-98.794 Y12.762
X-98.924 Y13.193
X-99.016 Y13.634
X-99.056 Y14.083
X-99.053 Y14.533
X-99.007 Y14.982
X-98.91 Y15.421
X-98.778 Y15.852
X-98.596 Y16.264
X-98.372 Y16.655
X-98.115 Y17.025
X-97.816 Y17.362
X-97.489 Y17.672
X-97.131 Y17.945
X-96.746 Y18.178
X-96.342 Y18.378
X-95.917 Y18.527
X-95.48 Y18.636
X-95.036 Y18.713
X-94.588 Y18.758
X-94.138 Y18.782
X-93.688 Y18.794
X-93.237 Y18.8
X-92.787 Y18.803
X-91.886 Y18.805
X-90.985 Y18.806
X-90.685 Y18.807
X-90.524 Y18.821
X-90.376 Y18.846
X-90.231 Y18.884
X-90.16 Y18.911
X-90.034 Y18.99
X-89.949 Y19.112
X-89.919 Y19.258
G0 Z3
X-90.222 Y7.927
Z-3.515
G1 Z-3.674 F100
X-90.218 Y7.934 Z-3.723
X-90.206 Y7.953 Z-3.768
X-90.188 Y7.983 Z-3.803
X-90.166 Y8.021 Z-3.825
X-90.141 Y8.063 Z-3.833
G3 X-89.919 Y8.817 I-1.36 J0.809
G1 Y9.154 F300
X-89.927 Y9.304
X-89.982 Y9.444
X-90.064 Y9.569
X-90.164 Y9.681
X-90.277 Y9.78
X-90.399 Y9.867
X-90.535 Y9.947
X-90.722 Y10.037
X-90.919 Y10.114
X-91.2 Y10.198
X-91.556 Y10.274
X-92.002 Y10.332
X-92.452 Y10.363
X-92.902 Y10.378
X-93.352 Y10.386
X-93.803 Y10.395
X-94.253 Y10.416
X-94.702 Y10.454
X-95.147 Y10.523
X-95.584 Y10.629
X-96.009 Y10.778
X-96.416 Y10.971
X-96.799 Y11.209
X-97.149 Y11.492
X-97.464 Y11.815
X-97.737 Y12.173
X-97.968 Y12.56
X-98.15 Y12.971
X-98.284 Y13.401
X-98.362 Y13.845
X-98.386 Y14.295
X-98.356 Y14.745
X-98.276 Y15.188
X-98.144 Y15.618
X-97.958 Y16.029
X-97.725 Y16.414
X-97.447 Y16.769
X-97.13 Y17.089
X-96.777 Y17.368
X-96.395 Y17.607
X-95.984 Y17.792
X-95.556 Y17.931
X-95.116 Y18.027
X-94.67 Y18.089
X-94.221 Y18.126
X-93.771 Y18.147
X-93.32 Y18.159
X-92.87 Y18.165
X-92.42 Y18.168
X-91.068 Y18.171
X-90.752 Y18.189
X-90.545 Y18.218
X-90.383 Y18.254
X-90.239 Y18.298
X-90.151 Y18.334
X-90.029 Y18.414
X-89.948 Y18.535
X-89.919 Y18.677
Y19.258
G0 Z3
X-90.222 Y8.264
Z-3.515
G1 Z-3.674 F100
X-90.218 Y8.271 Z-3.723
X-90.206 Y8.29 Z-3.768
X-90.188 Y8.321 Z-3.803
X-90.166 Y8.359 Z-3.825
X-90.141 Y8.401 Z-3.833
G3 X-89.919 Y9.154 I-1.36 J0.809
G1 Y9.634 F300
X-89.927 Y9.784
X-89.976 Y9.926
X-90.051 Y10.056
X-90.143 Y10.174
X-90.25 Y10.28
X-90.366 Y10.374
X-90.501 Y10.466
X-90.665 Y10.559
X-90.865 Y10.652
X-91.112 Y10.744
X-91.419 Y10.831
X-91.841 Y10.915
X-92.289 Y10.967
X-92.738 Y10.995
X-93.188 Y11.012
X-93.638 Y11.027
X-94.088 Y11.05
X-94.537 Y11.091
X-94.982 Y11.163
X-95.418 Y11.275
X-95.839 Y11.436
X-96.235 Y11.65
X-96.598 Y11.917
X-96.92 Y12.231
X-97.196 Y12.588
X-97.415 Y12.981
X-97.574 Y13.402
X-97.671 Y13.842
X-97.703 Y14.292
X-97.669 Y14.741
X-97.57 Y15.18
X-97.407 Y15.6
X-97.185 Y15.992
X-96.909 Y16.348
X-96.583 Y16.659
X-96.215 Y16.919
X-95.814 Y17.124
X-95.389 Y17.274
X-94.951 Y17.378
X-94.505 Y17.444
X-94.057 Y17.484
X-93.607 Y17.507
X-93.156 Y17.52
X-92.706 Y17.528
X-92.256 Y17.531
X-91.355 Y17.536
X-90.939 Y17.555
X-90.652 Y17.592
X-90.461 Y17.632
X-90.294 Y17.681
X-90.154 Y17.735
X-90.122 Y17.751
X-90.015 Y17.833
X-89.944 Y17.948
X-89.919 Y18.081
Y18.677
G0 Z3
X-90.222 Y8.744
Z-3.515
G1 Z-3.674 F100
X-90.218 Y8.751 Z-3.723
X-90.206 Y8.77 Z-3.768
X-90.188 Y8.8 Z-3.803
X-90.166 Y8.839 Z-3.825
X-90.141 Y8.881 Z-3.833
G3 X-89.919 Y9.634 I-1.36 J0.809
G1 Y10.145 F300
X-89.927 Y10.295
X-89.97 Y10.438
X-90.04 Y10.571
X-90.127 Y10.693
X-90.229 Y10.804
X-90.341 Y10.904
X-90.463 Y10.996
X-90.629 Y11.101
X-90.807 Y11.196
X-91.059 Y11.304
X-91.329 Y11.395
X-91.701 Y11.488
X-92.145 Y11.562
X-92.594 Y11.606
X-93.043 Y11.634
X-93.493 Y11.656
X-93.943 Y11.684
X-94.391 Y11.73
X-94.835 Y11.808
X-95.267 Y11.932
X-95.678 Y12.118
X-96.055 Y12.365
X-96.385 Y12.67
X-96.654 Y13.032
X-96.85 Y13.438
X-96.969 Y13.872
X-97.006 Y14.321
X-96.954 Y14.769
X-96.82 Y15.199
X-96.611 Y15.598
X-96.327 Y15.947
X-95.982 Y16.237
X-95.592 Y16.463
X-95.172 Y16.625
X-94.735 Y16.733
X-94.29 Y16.802
X-93.841 Y16.844
X-93.391 Y16.868
X-92.941 Y16.883
X-92.491 Y16.891
X-91.59 Y16.901
X-91.14 Y16.918
X-90.788 Y16.956
X-90.524 Y17.006
X-90.364 Y17.05
X-90.215 Y17.105
X-90.136 Y17.141
X-90.021 Y17.222
X-89.946 Y17.34
X-89.919 Y17.478
Y18.081
G0 Z3
X-90.222 Y9.255
Z-3.515
G1 Z-3.674 F100
X-90.218 Y9.262 Z-3.723
X-90.206 Y9.281 Z-3.768
X-90.188 Y9.311 Z-3.803
X-90.166 Y9.349 Z-3.825
X-90.141 Y9.391 Z-3.833
G3 X-89.919 Y10.145 I-1.36 J0.809
G1 Y10.712 F300
X-89.927 Y10.862
X-89.962 Y11.008
X-90.024 Y11.144
X-90.106 Y11.27
X-90.202 Y11.385
X-90.309 Y11.491
X-90.424 Y11.586
X-90.547 Y11.673
X-90.674 Y11.751
X-90.807 Y11.822
X-90.942 Y11.886
X-91.081 Y11.943
X-91.222 Y11.994
X-91.365 Y12.04
X-91.509 Y12.081
X-91.655 Y12.117
X-91.801 Y12.149
X-91.949 Y12.178
X-92.097 Y12.203
X-92.245 Y12.224
X-92.394 Y12.244
X-92.543 Y12.261
X-92.692 Y12.276
X-92.885 Y12.294
X-93.334 Y12.331
X-93.783 Y12.369
X-94.23 Y12.423
X-94.672 Y12.511
X-95.096 Y12.662
X-95.487 Y12.887
X-95.817 Y13.193
X-96.06 Y13.572
X-96.197 Y14.001
X-96.209 Y14.452
X-96.154 Y14.67
X-95.992 Y15.09
X-95.712 Y15.443
X-95.351 Y15.713
X-94.942 Y15.902
X-94.508 Y16.024
X-94.064 Y16.099
X-93.616 Y16.145
X-93.167 Y16.172
X-92.716 Y16.188
X-92.041 Y16.202
X-91.831 Y16.207
X-91.682 Y16.212
X-91.532 Y16.219
X-91.382 Y16.227
X-91.232 Y16.239
X-91.083 Y16.253
X-90.934 Y16.271
X-90.786 Y16.294
X-90.638 Y16.322
X-90.492 Y16.355
X-90.348 Y16.396
X-90.207 Y16.447
X-90.139 Y16.478
X-90.023 Y16.559
X-89.946 Y16.677
X-89.919 Y16.816
Y17.478
G0 Z3
X-90.222 Y9.822
Z-3.515
G1 Z-3.674 F100
X-90.218 Y9.829 Z-3.723
X-90.206 Y9.848 Z-3.768
X-90.188 Y9.878 Z-3.803
X-90.166 Y9.916 Z-3.825
X-90.141 Y9.958 Z-3.833
G3 X-89.919 Y10.712 I-1.36 J0.809
G1 Y11.325 F300
X-89.927 Y11.475
X-89.972 Y11.618
X-90.04 Y11.751
X-90.126 Y11.874
X-90.225 Y11.987
X-90.334 Y12.09
X-90.465 Y12.195
X-90.625 Y12.304
X-90.822 Y12.416
X-91.06 Y12.526
X-91.36 Y12.637
X-91.752 Y12.747
X-92.194 Y12.834
X-92.64 Y12.894
X-92.864 Y12.918
X-92.968 Y12.962
X-93.053 Y13.036
X-93.112 Y13.131
X-93.223 Y13.568
X-93.219 Y13.793
X-93.239 Y14.151
X-93.259 Y14.299
X-93.294 Y14.445
X-93.331 Y14.551
X-93.374 Y14.656
X-93.384 Y14.768
X-93.359 Y14.878
X-93.302 Y14.975
X-93.139 Y15.13
X-92.755 Y15.365
X-92.319 Y15.48
X-91.873 Y15.539
X-91.424 Y15.582
X-90.977 Y15.635
X-90.621 Y15.7
X-90.416 Y15.754
X-90.246 Y15.815
X-90.109 Y15.876
X-90.104 Y15.879
X-90.006 Y15.962
X-89.942 Y16.073
X-89.919 Y16.199
Y16.816
G0 Z3
X-90.222 Y10.435
Z-3.515
G1 Z-3.674 F100
X-90.218 Y10.442 Z-3.723
X-90.206 Y10.461 Z-3.768
X-90.188 Y10.491 Z-3.803
X-90.166 Y10.529 Z-3.825
X-90.141 Y10.571 Z-3.833
G3 X-89.919 Y11.325 I-1.36 J0.809
G1 Y11.882 F300
X-89.927 Y12.031
X-89.967 Y12.176
X-90.031 Y12.311
X-90.114 Y12.437
X-90.21 Y12.552
X-90.317 Y12.658
X-90.444 Y12.764
X-90.605 Y12.879
X-90.796 Y12.993
X-91.037 Y13.112
X-91.342 Y13.233
X-91.772 Y13.365
X-91.979 Y13.453
X-92.144 Y13.607
X-92.274 Y13.791
X-92.327 Y13.89
X-92.349 Y14
X-92.336 Y14.112
X-92.243 Y14.318
X-92.165 Y14.399
X-91.822 Y14.69
X-91.403 Y14.855
X-90.966 Y14.967
X-90.541 Y15.072
X-90.342 Y15.138
X-90.184 Y15.205
X-90.118 Y15.24
X-90.013 Y15.322
X-89.943 Y15.436
X-89.919 Y15.568
Y16.199
G0 Z3
X-90.222 Y10.992
Z-3.515
G1 Z-3.674 F100
X-90.218 Y10.998 Z-3.723
X-90.206 Y11.018 Z-3.768
X-90.188 Y11.048 Z-3.803
X-90.166 Y11.086 Z-3.825
X-90.141 Y11.128 Z-3.833
G3 X-89.919 Y11.882 I-1.36 J0.809
G1 Y12.449 F300
X-89.927 Y12.598
X-89.962 Y12.744
X-90.024 Y12.881
X-90.104 Y13.008
X-90.197 Y13.125
X-90.302 Y13.233
X-90.427 Y13.343
X-90.506 Y13.402
X-90.587 Y13.457
X-90.682 Y13.517
X-90.78 Y13.574
X-90.856 Y13.656
X-90.904 Y13.758
X-90.918 Y13.87
X-90.899 Y13.981
X-90.847 Y14.081
X-90.688 Y14.241
X-90.287 Y14.446
X-90.106 Y14.548
X-90.082 Y14.564
X-89.995 Y14.647
X-89.939 Y14.753
X-89.919 Y14.871
G0 Z3
X-90.222 Y11.559
Z-3.515
G1 Z-3.674 F100
X-90.218 Y11.565 Z-3.723
X-90.206 Y11.585 Z-3.768
X-90.188 Y11.615 Z-3.803
X-90.166 Y11.653 Z-3.825
X-90.141 Y11.695 Z-3.833
G3 X-89.919 Y12.449 I-1.36 J0.809
G1 Y15.568 F300
G3 X-90.237 Y15.563 I-0.159 J-0.006 F100
G1 Y15.562
G3 X-90.036 Y15.409 I0.159
G0 Z6
X46.004 Y-7.965
Z3
Z-3.515
G1 Z-3.674 F100
X46.011 Y-7.969 Z-3.723
X46.03 Y-7.98 Z-3.768
X46.061 Y-7.998 Z-3.803
X46.099 Y-8.021 Z-3.825
X46.141 Y-8.046 Z-3.833
G3 X47.648 Y-8.488 I1.618 J2.721
G1 X48.64 F300
X48.79 Y-8.481
X48.936 Y-8.447
X49.072 Y-8.384
X49.199 Y-8.305
X49.334 Y-8.201
X49.446 Y-8.1
X49.547 Y-7.989
X49.633 Y-7.866
X49.717 Y-7.717
X49.816 Y-7.505
X49.869 Y-7.363
X49.909 Y-7.219
X49.934 Y-7.071
X49.95 Y-6.876
X49.951 Y-6.6
X49.928 Y-6.294
X49.857 Y-5.85
X49.755 Y-5.411
X49.639 Y-4.975
X49.569 Y-4.531
X49.535 Y-4.081
X49.516 Y-3.631
X49.556 Y-3.183
X49.637 Y-2.739
X49.735 Y-2.3
X49.89 Y-1.877
X50.084 Y-1.47
X50.293 Y-1.071
X50.554 Y-0.704
X50.847 Y-0.362
X51.153 Y-0.032
X51.501 Y0.254
X51.874 Y0.508
X52.256 Y0.746
X52.667 Y0.931
X53.092 Y1.078
X53.523 Y1.209
X53.968 Y1.28
X54.418 Y1.31
X54.868 Y1.323
X55.316 Y1.275
X55.758 Y1.187
X56.196 Y1.082
X56.615 Y0.918
X57.019 Y0.718
X57.414 Y0.502
X57.776 Y0.234
X58.113 Y-0.065
X58.438 Y-0.377
X58.717 Y-0.73
X58.964 Y-1.107
X59.196 Y-1.493
X59.373 Y-1.907
X59.513 Y-2.336
X59.636 Y-2.769
X59.698 Y-3.215
X59.721 Y-3.665
X59.727 Y-4.115
X59.67 Y-4.562
X59.574 Y-5.002
X59.462 Y-5.438
X59.357 Y-5.876
X59.308 Y-6.096
X59.28 Y-6.252
X59.261 Y-6.462
X59.256 Y-6.767
X59.272 Y-6.995
X59.294 Y-7.144
X59.334 Y-7.308
X59.407 Y-7.525
X59.519 Y-7.788
X59.589 Y-7.921
X59.673 Y-8.045
X59.794 Y-8.196
X59.96 Y-8.372
X60.038 Y-8.435
X60.13 Y-8.475
X60.229 Y-8.488
X61.486
G0 Z3
X47.75 Y-8.186
Z-3.515
G1 Z-3.674 F100
X47.757 Y-8.19 Z-3.723
X47.776 Y-8.201 Z-3.768
X47.806 Y-8.219 Z-3.803
X47.844 Y-8.242 Z-3.825
X47.887 Y-8.267 Z-3.833
G3 X48.64 Y-8.488 I0.809 J1.36
G1 X49.254 F300
X49.404 Y-8.481
X49.549 Y-8.444
X49.685 Y-8.381
X49.81 Y-8.298
X49.924 Y-8.2
X50.027 Y-8.091
X50.12 Y-7.973
X50.202 Y-7.848
X50.273 Y-7.716
X50.34 Y-7.564
X50.397 Y-7.399
X50.447 Y-7.203
X50.488 Y-6.971
X50.51 Y-6.73
X50.514 Y-6.405
X50.487 Y-6.027
X50.42 Y-5.582
X50.326 Y-5.141
X50.25 Y-4.697
X50.2 Y-4.25
X50.182 Y-3.8
X50.211 Y-3.35
X50.276 Y-2.904
X50.387 Y-2.468
X50.545 Y-2.046
X50.74 Y-1.64
X50.98 Y-1.259
X51.255 Y-0.902
X51.563 Y-0.573
X51.906 Y-0.282
X52.272 Y-0.018
X52.666 Y0.198
X53.081 Y0.374
X53.51 Y0.511
X53.952 Y0.599
X54.4 Y0.648
X54.85 Y0.649
X55.298 Y0.601
X55.74 Y0.514
X56.169 Y0.375
X56.582 Y0.197
X56.977 Y-0.021
X57.344 Y-0.281
X57.69 Y-0.57
X57.998 Y-0.899
X58.271 Y-1.257
X58.51 Y-1.639
X58.704 Y-2.045
X58.862 Y-2.467
X58.975 Y-2.903
X59.039 Y-3.349
X59.064 Y-3.799
X59.036 Y-4.248
X58.966 Y-4.693
X58.873 Y-5.134
X58.774 Y-5.574
X58.7 Y-5.98
X58.663 Y-6.344
X58.656 Y-6.634
X58.672 Y-6.891
X58.708 Y-7.152
X58.77 Y-7.43
X58.843 Y-7.664
X58.925 Y-7.869
X59.025 Y-8.07
X59.147 Y-8.273
X59.19 Y-8.334
X59.272 Y-8.417
X59.376 Y-8.47
X59.492 Y-8.488
X60.229
G0 Z3
X48.364 Y-8.186
Z-3.515
G1 Z-3.674 F100
X48.371 Y-8.19 Z-3.723
X48.39 Y-8.201 Z-3.768
X48.42 Y-8.219 Z-3.803
X48.458 Y-8.242 Z-3.825
X48.501 Y-8.267 Z-3.833
G3 X49.254 Y-8.488 I0.809 J1.36
G1 X49.822 F300
X49.972 Y-8.481
X50.117 Y-8.443
X50.252 Y-8.378
X50.376 Y-8.293
X50.488 Y-8.193
X50.588 Y-8.082
X50.677 Y-7.961
X50.756 Y-7.833
X50.837 Y-7.676
X50.91 Y-7.497
X50.972 Y-7.305
X51.029 Y-7.064
X51.07 Y-6.796
X51.091 Y-6.492
X51.088 Y-6.109
X51.047 Y-5.66
X50.978 Y-5.215
X50.91 Y-4.77
X50.862 Y-4.322
X50.846 Y-3.872
X50.872 Y-3.422
X50.945 Y-2.978
X51.071 Y-2.545
X51.246 Y-2.13
X51.47 Y-1.739
X51.736 Y-1.376
X52.044 Y-1.047
X52.388 Y-0.757
X52.767 Y-0.512
X53.172 Y-0.315
X53.597 Y-0.167
X54.037 Y-0.068
X54.485 Y-0.022
X54.935 Y-0.034
X55.381 Y-0.098
X55.815 Y-0.216
X56.234 Y-0.383
X56.629 Y-0.6
X56.996 Y-0.86
X57.328 Y-1.165
X57.62 Y-1.508
X57.87 Y-1.883
X58.075 Y-2.284
X58.231 Y-2.706
X58.333 Y-3.145
X58.382 Y-3.593
X58.376 Y-4.043
X58.326 Y-4.491
X58.25 Y-4.935
X58.166 Y-5.377
X58.096 Y-5.822
X58.057 Y-6.23
X58.051 Y-6.584
X58.074 Y-6.929
X58.122 Y-7.253
X58.19 Y-7.552
X58.279 Y-7.834
X58.383 Y-8.089
X58.467 Y-8.256
X58.501 Y-8.311
X58.584 Y-8.406
X58.693 Y-8.467
X58.817 Y-8.488
X59.492
G0 Z3
X48.932 Y-8.186
Z-3.515
G1 Z-3.674 F100
X48.939 Y-8.19 Z-3.723
X48.958 Y-8.201 Z-3.768
X48.988 Y-8.219 Z-3.803
X49.026 Y-8.242 Z-3.825
X49.068 Y-8.267 Z-3.833
G3 X49.822 Y-8.488 I0.809 J1.36
G1 X50.38 F300
X50.529 Y-8.481
X50.674 Y-8.441
X50.808 Y-8.374
X50.931 Y-8.287
X51.041 Y-8.186
X51.141 Y-8.074
X51.23 Y-7.953
X51.32 Y-7.806
X51.402 Y-7.645
X51.48 Y-7.454
X51.554 Y-7.223
X51.611 Y-6.98
X51.656 Y-6.679
X51.681 Y-6.31
X51.676 Y-5.881
X51.634 Y-5.432
X51.578 Y-4.986
X51.529 Y-4.538
X51.506 Y-4.088
X51.523 Y-3.638
X51.591 Y-3.192
X51.714 Y-2.759
X51.899 Y-2.349
X52.14 Y-1.968
X52.432 Y-1.625
X52.769 Y-1.327
X53.148 Y-1.082
X53.558 Y-0.897
X53.991 Y-0.772
X54.437 Y-0.711
X54.888 Y-0.714
X55.332 Y-0.787
X55.762 Y-0.924
X56.167 Y-1.12
X56.54 Y-1.372
X56.872 Y-1.677
X57.153 Y-2.029
X57.382 Y-2.417
X57.553 Y-2.834
X57.662 Y-3.271
X57.704 Y-3.719
X57.69 Y-4.169
X57.639 Y-4.617
X57.571 Y-5.062
X57.505 Y-5.508
X57.456 Y-5.955
X57.437 Y-6.402
X57.454 Y-6.818
X57.5 Y-7.206
X57.574 Y-7.568
X57.666 Y-7.889
X57.744 Y-8.095
X57.82 Y-8.257
X57.846 Y-8.303
X57.929 Y-8.401
X58.041 Y-8.466
X58.168 Y-8.488
X58.817
G0 Z3
X49.49 Y-8.186
Z-3.515
G1 Z-3.674 F100
X49.496 Y-8.19 Z-3.723
X49.516 Y-8.201 Z-3.768
X49.546 Y-8.219 Z-3.803
X49.584 Y-8.242 Z-3.825
X49.626 Y-8.267 Z-3.833
G3 X50.38 Y-8.488 I0.809 J1.36
G1 X50.947 F300
X51.097 Y-8.481
X51.24 Y-8.436
X51.373 Y-8.366
X51.494 Y-8.277
X51.603 Y-8.175
X51.703 Y-8.062
X51.796 Y-7.935
X51.889 Y-7.783
X51.974 Y-7.616
X52.06 Y-7.406
X52.135 Y-7.172
X52.2 Y-6.895
X52.252 Y-6.55
X52.278 Y-6.174
X52.273 Y-5.724
X52.239 Y-5.275
X52.195 Y-4.826
X52.166 Y-4.377
X52.17 Y-3.926
X52.224 Y-3.479
X52.342 Y-3.044
X52.53 Y-2.635
X52.788 Y-2.266
X53.107 Y-1.949
X53.48 Y-1.695
X53.894 Y-1.519
X54.334 Y-1.422
X54.784 Y-1.408
X55.229 Y-1.481
X55.651 Y-1.637
X56.038 Y-1.868
X56.374 Y-2.168
X56.646 Y-2.528
X56.846 Y-2.931
X56.97 Y-3.364
X57.017 Y-3.812
X57.007 Y-4.262
X56.964 Y-4.711
X56.909 Y-5.158
X56.858 Y-5.606
X56.826 Y-6.055
X56.822 Y-6.505
X56.849 Y-6.955
X56.908 Y-7.375
X56.988 Y-7.729
X57.072 Y-8
X57.14 Y-8.17
X57.206 Y-8.304
X57.21 Y-8.31
X57.293 Y-8.405
X57.402 Y-8.467
X57.527 Y-8.488
X58.168
G0 Z3
X50.057 Y-8.186
Z-3.515
G1 Z-3.674 F100
X50.064 Y-8.19 Z-3.723
X50.083 Y-8.201 Z-3.768
X50.114 Y-8.219 Z-3.803
X50.152 Y-8.242 Z-3.825
X50.194 Y-8.267 Z-3.833
G3 X50.947 Y-8.488 I0.809 J1.36
G1 X51.505 F300
X51.655 Y-8.481
X51.801 Y-8.445
X51.937 Y-8.383
X52.062 Y-8.301
X52.177 Y-8.203
X52.281 Y-8.095
X52.374 Y-7.978
X52.458 Y-7.854
X52.533 Y-7.724
X52.6 Y-7.59
X52.659 Y-7.451
X52.71 Y-7.311
X52.756 Y-7.168
X52.794 Y-7.023
X52.827 Y-6.876
X52.855 Y-6.729
X52.876 Y-6.58
X52.894 Y-6.431
X52.907 Y-6.282
X52.915 Y-6.132
X52.92 Y-5.982
X52.921 Y-5.832
X52.919 Y-5.682
X52.915 Y-5.532
X52.905 Y-5.295
X52.884 Y-4.845
X52.871 Y-4.395
X52.892 Y-3.945
X52.981 Y-3.503
X53.152 Y-3.086
X53.416 Y-2.722
X53.764 Y-2.435
X53.97 Y-2.344
X54.4 Y-2.21
X54.625
X55.072 Y-2.266
X55.278 Y-2.356
X55.662 Y-2.591
X55.962 Y-2.927
X56.154 Y-3.335
X56.246 Y-3.776
X56.267 Y-4.226
X56.245 Y-4.676
X56.197 Y-5.237
X56.185 Y-5.386
X56.175 Y-5.536
X56.167 Y-5.686
X56.16 Y-5.836
X56.155 Y-5.985
X56.153 Y-6.135
Y-6.285
X56.156 Y-6.435
X56.162 Y-6.585
X56.171 Y-6.735
X56.182 Y-6.885
X56.198 Y-7.034
X56.217 Y-7.183
X56.239 Y-7.331
X56.266 Y-7.479
X56.296 Y-7.625
X56.331 Y-7.771
X56.372 Y-7.916
X56.418 Y-8.058
X56.472 Y-8.198
X56.509 Y-8.277
X56.591 Y-8.389
X56.708 Y-8.463
X56.844 Y-8.488
X57.527
G0 Z3
X50.615 Y-8.186
Z-3.515
G1 Z-3.674 F100
X50.622 Y-8.19 Z-3.723
X50.641 Y-8.201 Z-3.768
X50.671 Y-8.219 Z-3.803
X50.709 Y-8.242 Z-3.825
X50.751 Y-8.267 Z-3.833
G3 X51.505 Y-8.488 I0.809 J1.36
G1 X52.119 F300
X52.269 Y-8.481
X52.411 Y-8.433
X52.543 Y-8.363
X52.665 Y-8.274
X52.775 Y-8.173
X52.875 Y-8.061
X52.974 Y-7.931
X53.071 Y-7.778
X53.169 Y-7.595
X53.263 Y-7.376
X53.349 Y-7.12
X53.426 Y-6.815
X53.489 Y-6.441
X53.527 Y-5.992
X53.529 Y-5.88
Y-5.767
X53.563 Y-5.66
X53.628 Y-5.568
X53.808 Y-5.431
X54.234 Y-5.287
X54.443 Y-5.25
X54.552 Y-5.222
X54.66 Y-5.191
X54.773 Y-5.193
X54.88 Y-5.229
X54.971 Y-5.296
X55.118 Y-5.466
X55.338 Y-5.859
X55.446 Y-6.296
X55.514 Y-6.742
X55.579 Y-7.187
X55.662 Y-7.63
X55.743 Y-7.936
X55.808 Y-8.12
X55.869 Y-8.257
X55.89 Y-8.296
X55.973 Y-8.398
X56.086 Y-8.465
X56.215 Y-8.488
X56.844
G0 Z3
X51.229 Y-8.186
Z-3.515
G1 Z-3.674 F100
X51.236 Y-8.19 Z-3.723
X51.255 Y-8.201 Z-3.768
X51.285 Y-8.219 Z-3.803
X51.323 Y-8.242 Z-3.825
X51.365 Y-8.267 Z-3.833
G3 X52.119 Y-8.488 I0.809 J1.36
G1 X52.661 F300
X52.811 Y-8.481
X52.955 Y-8.439
X53.09 Y-8.372
X53.213 Y-8.287
X53.326 Y-8.188
X53.429 Y-8.079
X53.532 Y-7.949
X53.63 Y-7.801
X53.737 Y-7.609
X53.831 Y-7.405
X53.927 Y-7.139
X53.957 Y-7.031
X54.011 Y-6.812
X54.036 Y-6.702
X54.08 Y-6.598
G3 X53.802 Y-6.45 I-0.148 J0.057 F100
G1 X53.614 Y-6.716
X52.794 Y-7.876 F300
X52.537 Y-8.238 F100
G3 X52.661 Y-8.488 I0.13 J-0.092
G1 X53.244 F300
X53.394 Y-8.481
X53.54 Y-8.447
X53.678 Y-8.387
X53.805 Y-8.307
X53.921 Y-8.213
X54.028 Y-8.107
X54.125 Y-7.993
X54.214 Y-7.872
X54.293 Y-7.745
X54.347 Y-7.646
G3 X54.106 Y-7.45 I-0.142 J0.071 F100
G1 X53.826 Y-7.672
X53.464 Y-7.958 F300
X53.151 Y-8.205 F100
G3 X53.244 Y-8.488 I0.098 J-0.125
G1 X53.858 F300
X54.008 Y-8.481
X54.152 Y-8.439
X54.253 Y-8.389
X54.362 Y-8.361
X54.587 Y-8.371
X54.852 Y-8.466
X54.893 Y-8.479
X54.935 Y-8.486
X54.978 Y-8.488
G3 X54.972 Y-8.171 I-0.006 J0.159 F100
G1 X54.68
X54.156 F300
X53.864 F100
G3 X53.858 Y-8.488 J-0.159
G1 X56.215 F300
G3 X56.21 Y-8.171 I-0.006 J0.159 F100
X56.057 Y-8.372 J-0.159
G0 Z6
X63.247 Y-20.6
Z3
Z-3.515
G1 Z-3.674 F100
X63.24 Y-20.596 Z-3.723
X63.221 Y-20.584 Z-3.768
X63.191 Y-20.566 Z-3.803
X63.153 Y-20.544 Z-3.825
X63.11 Y-20.519 Z-3.833
G3 X61.603 Y-20.076 I-1.618 J-2.721
G1 X60.611 F300
X60.461 Y-20.083
X60.315 Y-20.117
X60.179 Y-20.18
X60.052 Y-20.26
X59.917 Y-20.364
X59.806 Y-20.464
X59.705 Y-20.575
X59.619 Y-20.698
X59.534 Y-20.847
X59.435 Y-21.059
X59.383 Y-21.201
X59.342 Y-21.346
X59.317 Y-21.494
X59.301 Y-21.688
X59.3 Y-21.964
X59.324 Y-22.27
X59.394 Y-22.715
X59.497 Y-23.153
X59.612 Y-23.589
X59.682 Y-24.034
X59.717 Y-24.483
X59.735 Y-24.933
X59.695 Y-25.382
X59.615 Y-25.825
X59.516 Y-26.265
X59.361 Y-26.687
X59.168 Y-27.094
X58.958 Y-27.493
X58.697 Y-27.86
X58.404 Y-28.202
X58.098 Y-28.532
X57.75 Y-28.819
X57.378 Y-29.072
X56.995 Y-29.31
X56.585 Y-29.495
X56.159 Y-29.643
X55.728 Y-29.773
X55.283 Y-29.844
X54.834 Y-29.875
X54.383 Y-29.888
X53.936 Y-29.84
X53.494 Y-29.752
X53.056 Y-29.647
X52.636 Y-29.483
X52.233 Y-29.282
X51.837 Y-29.066
X51.475 Y-28.798
X51.139 Y-28.499
X50.813 Y-28.188
X50.534 Y-27.834
X50.287 Y-27.457
X50.055 Y-27.071
X49.878 Y-26.657
X49.738 Y-26.229
X49.615 Y-25.796
X49.553 Y-25.35
X49.53 Y-24.9
X49.524 Y-24.449
X49.581 Y-24.002
X49.677 Y-23.562
X49.789 Y-23.126
X49.894 Y-22.688
X49.944 Y-22.468
X49.971 Y-22.312
X49.991 Y-22.103
X49.995 Y-21.798
X49.98 Y-21.569
X49.958 Y-21.421
X49.917 Y-21.257
X49.845 Y-21.039
X49.732 Y-20.776
X49.663 Y-20.643
X49.579 Y-20.519
X49.458 Y-20.368
X49.291 Y-20.192
X49.213 Y-20.129
X49.121 Y-20.089
X49.022 Y-20.076
X47.765
G0 Z3
X61.501 Y-20.378
Z-3.515
G1 Z-3.674 F100
X61.494 Y-20.374 Z-3.723
X61.475 Y-20.363 Z-3.768
X61.445 Y-20.345 Z-3.803
X61.407 Y-20.322 Z-3.825
X61.365 Y-20.297 Z-3.833
G3 X60.611 Y-20.076 I-0.809 J-1.36
G1 X59.997 F300
X59.847 Y-20.083
X59.702 Y-20.12
X59.566 Y-20.183
X59.441 Y-20.266
X59.327 Y-20.364
X59.224 Y-20.473
X59.131 Y-20.591
X59.049 Y-20.716
X58.978 Y-20.848
X58.911 Y-21.001
X58.854 Y-21.165
X58.804 Y-21.361
X58.764 Y-21.594
X58.741 Y-21.834
X58.738 Y-22.159
X58.764 Y-22.537
X58.831 Y-22.982
X58.925 Y-23.423
X59.001 Y-23.867
X59.051 Y-24.315
X59.069 Y-24.765
X59.04 Y-25.214
X58.975 Y-25.66
X58.865 Y-26.097
X58.706 Y-26.518
X58.512 Y-26.925
X58.271 Y-27.306
X57.997 Y-27.663
X57.688 Y-27.991
X57.345 Y-28.283
X56.98 Y-28.546
X56.585 Y-28.763
X56.17 Y-28.938
X55.741 Y-29.076
X55.299 Y-29.163
X54.851 Y-29.212
X54.401 Y-29.214
X53.953 Y-29.165
X53.511 Y-29.078
X53.083 Y-28.939
X52.669 Y-28.761
X52.274 Y-28.544
X51.907 Y-28.283
X51.562 Y-27.994
X51.253 Y-27.666
X50.981 Y-27.307
X50.741 Y-26.926
X50.547 Y-26.519
X50.389 Y-26.097
X50.276 Y-25.661
X50.213 Y-25.215
X50.187 Y-24.766
X50.215 Y-24.316
X50.286 Y-23.871
X50.378 Y-23.43
X50.477 Y-22.991
X50.552 Y-22.584
X50.589 Y-22.22
X50.595 Y-21.931
X50.58 Y-21.673
X50.543 Y-21.412
X50.481 Y-21.134
X50.408 Y-20.9
X50.326 Y-20.696
X50.226 Y-20.494
X50.105 Y-20.292
X50.061 Y-20.231
X49.979 Y-20.148
X49.875 Y-20.094
X49.76 Y-20.076
X49.022
G0 Z3
X60.887 Y-20.378
Z-3.515
G1 Z-3.674 F100
X60.881 Y-20.374 Z-3.723
X60.861 Y-20.363 Z-3.768
X60.831 Y-20.345 Z-3.803
X60.793 Y-20.322 Z-3.825
X60.751 Y-20.297 Z-3.833
G3 X59.997 Y-20.076 I-0.809 J-1.36
G1 X59.429 F300
X59.28 Y-20.083
X59.134 Y-20.122
X58.999 Y-20.186
X58.875 Y-20.271
X58.763 Y-20.371
X58.663 Y-20.483
X58.574 Y-20.603
X58.495 Y-20.731
X58.415 Y-20.889
X58.341 Y-21.067
X58.279 Y-21.26
X58.222 Y-21.501
X58.181 Y-21.768
X58.16 Y-22.072
X58.163 Y-22.455
X58.204 Y-22.904
X58.273 Y-23.349
X58.341 Y-23.794
X58.39 Y-24.242
X58.405 Y-24.692
X58.379 Y-25.142
X58.306 Y-25.587
X58.18 Y-26.019
X58.005 Y-26.434
X57.782 Y-26.825
X57.515 Y-27.188
X57.207 Y-27.517
X56.863 Y-27.808
X56.485 Y-28.052
X56.08 Y-28.25
X55.654 Y-28.398
X55.215 Y-28.496
X54.767 Y-28.542
X54.316 Y-28.531
X53.871 Y-28.466
X53.436 Y-28.348
X53.018 Y-28.181
X52.623 Y-27.965
X52.255 Y-27.705
X51.924 Y-27.399
X51.631 Y-27.057
X51.381 Y-26.682
X51.177 Y-26.281
X51.02 Y-25.858
X50.918 Y-25.419
X50.869 Y-24.972
X50.875 Y-24.521
X50.925 Y-24.074
X51.001 Y-23.63
X51.085 Y-23.187
X51.156 Y-22.742
X51.195 Y-22.334
X51.2 Y-21.981
X51.177 Y-21.635
X51.13 Y-21.311
X51.061 Y-21.012
X50.972 Y-20.73
X50.868 Y-20.475
X50.784 Y-20.309
X50.75 Y-20.254
X50.668 Y-20.159
X50.558 Y-20.097
X50.434 Y-20.076
X49.76
G0 Z3
X60.319 Y-20.378
Z-3.515
G1 Z-3.674 F100
X60.313 Y-20.374 Z-3.723
X60.293 Y-20.363 Z-3.768
X60.263 Y-20.345 Z-3.803
X60.225 Y-20.322 Z-3.825
X60.183 Y-20.297 Z-3.833
G3 X59.429 Y-20.076 I-0.809 J-1.36
G1 X58.872 F300
X58.722 Y-20.083
X58.577 Y-20.124
X58.443 Y-20.191
X58.321 Y-20.277
X58.21 Y-20.379
X58.111 Y-20.491
X58.022 Y-20.612
X57.931 Y-20.759
X57.85 Y-20.919
X57.771 Y-21.11
X57.697 Y-21.341
X57.641 Y-21.584
X57.596 Y-21.885
X57.57 Y-22.255
X57.575 Y-22.683
X57.617 Y-23.132
X57.673 Y-23.579
X57.722 Y-24.027
X57.745 Y-24.477
X57.728 Y-24.927
X57.661 Y-25.372
X57.537 Y-25.805
X57.352 Y-26.216
X57.111 Y-26.597
X56.82 Y-26.94
X56.482 Y-27.238
X56.104 Y-27.482
X55.693 Y-27.667
X55.26 Y-27.792
X54.814 Y-27.853
X54.363 Y-27.85
X53.919 Y-27.777
X53.49 Y-27.641
X53.084 Y-27.445
X52.711 Y-27.192
X52.38 Y-26.887
X52.098 Y-26.536
X51.869 Y-26.148
X51.698 Y-25.731
X51.589 Y-25.294
X51.548 Y-24.845
X51.562 Y-24.395
X51.612 Y-23.947
X51.68 Y-23.502
X51.746 Y-23.057
X51.796 Y-22.609
X51.814 Y-22.162
X51.798 Y-21.746
X51.751 Y-21.359
X51.678 Y-20.996
X51.585 Y-20.675
X51.507 Y-20.469
X51.431 Y-20.307
X51.405 Y-20.262
X51.322 Y-20.163
X51.211 Y-20.098
X51.084 Y-20.076
X50.434
G0 Z3
X59.762 Y-20.378
Z-3.515
G1 Z-3.674 F100
X59.755 Y-20.374 Z-3.723
X59.736 Y-20.363 Z-3.768
X59.705 Y-20.345 Z-3.803
X59.667 Y-20.322 Z-3.825
X59.625 Y-20.297 Z-3.833
G3 X58.872 Y-20.076 I-0.809 J-1.36
G1 X58.304 F300
X58.154 Y-20.083
X58.011 Y-20.129
X57.878 Y-20.199
X57.757 Y-20.287
X57.648 Y-20.39
X57.549 Y-20.502
X57.456 Y-20.63
X57.362 Y-20.782
X57.278 Y-20.948
X57.191 Y-21.159
X57.116 Y-21.392
X57.051 Y-21.67
X56.999 Y-22.015
X56.973 Y-22.39
X56.978 Y-22.841
X57.013 Y-23.29
X57.056 Y-23.738
X57.086 Y-24.187
X57.082 Y-24.638
X57.027 Y-25.085
X56.91 Y-25.52
X56.721 Y-25.929
X56.463 Y-26.298
X56.144 Y-26.616
X55.772 Y-26.869
X55.357 Y-27.046
X54.917 Y-27.142
X54.467 Y-27.157
X54.022 Y-27.083
X53.6 Y-26.927
X53.213 Y-26.696
X52.877 Y-26.396
X52.606 Y-26.037
X52.405 Y-25.633
X52.281 Y-25.2
X52.235 Y-24.752
X52.245 Y-24.302
X52.287 Y-23.853
X52.343 Y-23.406
X52.393 Y-22.959
X52.425 Y-22.51
X52.43 Y-22.059
X52.402 Y-21.61
X52.343 Y-21.189
X52.264 Y-20.836
X52.18 Y-20.564
X52.112 Y-20.394
X52.045 Y-20.26
X52.042 Y-20.254
X51.959 Y-20.159
X51.849 Y-20.097
X51.725 Y-20.076
X51.084
G0 Z3
X59.194 Y-20.378
Z-3.515
G1 Z-3.674 F100
X59.187 Y-20.374 Z-3.723
X59.168 Y-20.363 Z-3.768
X59.138 Y-20.345 Z-3.803
X59.1 Y-20.322 Z-3.825
X59.057 Y-20.297 Z-3.833
G3 X58.304 Y-20.076 I-0.809 J-1.36
G1 X57.746 F300
X57.596 Y-20.083
X57.451 Y-20.119
X57.314 Y-20.182
X57.189 Y-20.264
X57.075 Y-20.361
X56.971 Y-20.469
X56.877 Y-20.587
X56.793 Y-20.711
X56.718 Y-20.841
X56.651 Y-20.975
X56.593 Y-21.113
X56.541 Y-21.254
X56.496 Y-21.397
X56.457 Y-21.542
X56.424 Y-21.688
X56.397 Y-21.835
X56.375 Y-21.984
X56.358 Y-22.133
X56.345 Y-22.282
X56.336 Y-22.432
X56.332 Y-22.582
X56.33 Y-22.732
X56.332 Y-22.882
X56.336 Y-23.032
X56.346 Y-23.27
X56.367 Y-23.72
X56.381 Y-24.17
X56.359 Y-24.62
X56.27 Y-25.061
X56.099 Y-25.478
X55.835 Y-25.843
X55.488 Y-26.13
X55.282 Y-26.22
X54.851 Y-26.354
X54.626
X54.179 Y-26.299
X53.973 Y-26.208
X53.589 Y-25.973
X53.289 Y-25.637
X53.097 Y-25.229
X53.005 Y-24.788
X52.985 Y-24.338
X53.006 Y-23.888
X53.054 Y-23.327
X53.066 Y-23.178
X53.076 Y-23.028
X53.084 Y-22.878
X53.092 Y-22.729
X53.096 Y-22.579
X53.098 Y-22.429
Y-22.279
X53.096 Y-22.129
X53.09 Y-21.979
X53.081 Y-21.829
X53.069 Y-21.68
X53.054 Y-21.53
X53.035 Y-21.382
X53.012 Y-21.233
X52.986 Y-21.086
X52.955 Y-20.939
X52.92 Y-20.793
X52.88 Y-20.649
X52.834 Y-20.506
X52.779 Y-20.366
X52.742 Y-20.287
X52.66 Y-20.176
X52.543 Y-20.102
X52.407 Y-20.076
X51.725
G0 Z3
X58.636 Y-20.378
Z-3.515
G1 Z-3.674 F100
X58.63 Y-20.374 Z-3.723
X58.61 Y-20.363 Z-3.768
X58.58 Y-20.345 Z-3.803
X58.542 Y-20.322 Z-3.825
X58.5 Y-20.297 Z-3.833
G3 X57.746 Y-20.076 I-0.809 J-1.36
G1 X57.132 F300
X56.983 Y-20.083
X56.84 Y-20.131
X56.708 Y-20.202
X56.587 Y-20.29
X56.476 Y-20.391
X56.376 Y-20.503
X56.278 Y-20.633
X56.18 Y-20.786
X56.083 Y-20.97
X55.989 Y-21.188
X55.902 Y-21.444
X55.825 Y-21.75
X55.763 Y-22.123
X55.724 Y-22.572
X55.723 Y-22.685
X55.722 Y-22.797
X55.688 Y-22.905
X55.623 Y-22.997
X55.444 Y-23.133
X55.017 Y-23.277
X54.808 Y-23.314
X54.699 Y-23.342
X54.591 Y-23.374
X54.478 Y-23.371
X54.372 Y-23.335
X54.281 Y-23.269
X54.133 Y-23.099
X53.913 Y-22.706
X53.805 Y-22.268
X53.738 Y-21.823
X53.673 Y-21.377
X53.59 Y-20.934
X53.509 Y-20.629
X53.443 Y-20.444
X53.382 Y-20.307
X53.361 Y-20.268
X53.278 Y-20.166
X53.165 Y-20.099
X53.036 Y-20.076
X52.407
G0 Z3
X58.022 Y-20.378
Z-3.515
G1 Z-3.674 F100
X58.016 Y-20.374 Z-3.723
X57.996 Y-20.363 Z-3.768
X57.966 Y-20.345 Z-3.803
X57.928 Y-20.322 Z-3.825
X57.886 Y-20.297 Z-3.833
G3 X57.132 Y-20.076 I-0.809 J-1.36
G1 X56.59 F300
X56.44 Y-20.083
X56.296 Y-20.125
X56.162 Y-20.192
X56.038 Y-20.278
X55.925 Y-20.376
X55.823 Y-20.485
X55.72 Y-20.616
X55.621 Y-20.763
X55.514 Y-20.955
X55.42 Y-21.16
X55.324 Y-21.425
X55.294 Y-21.534
X55.241 Y-21.753
X55.216 Y-21.862
X55.171 Y-21.966
G3 X55.449 Y-22.115 I0.148 J-0.057 F100
G1 X55.637 Y-21.848
X56.458 Y-20.689 F300
X56.714 Y-20.326 F100
G3 X56.59 Y-20.076 I-0.13 J0.092
G1 X56.007 F300
X55.857 Y-20.083
X55.711 Y-20.117
X55.574 Y-20.178
X55.447 Y-20.257
X55.33 Y-20.352
X55.223 Y-20.457
X55.126 Y-20.571
X55.038 Y-20.693
X54.958 Y-20.82
X54.905 Y-20.919
G3 X55.145 Y-21.114 I0.142 J-0.071 F100
G1 X55.425 Y-20.893
X55.787 Y-20.606 F300
X56.1 Y-20.359 F100
G3 X56.007 Y-20.076 I-0.098 J0.125
G1 X55.393 F300
X55.243 Y-20.083
X55.099 Y-20.125
X54.998 Y-20.175
X54.889 Y-20.204
X54.664 Y-20.194
X54.4 Y-20.098
X54.359 Y-20.086
X54.316 Y-20.078
X54.274 Y-20.076
G3 X54.279 Y-20.393 I0.006 J-0.159 F100
G1 X54.571
X55.095 F300
X55.387 F100
G3 X55.393 Y-20.076 J0.159
G1 X53.036 F300
G3 X53.041 Y-20.393 I0.006 J-0.159 F100
G1 X53.042
G3 X53.195 Y-20.192 J0.159
G0 Z6
X90.443 Y-6.821
Z3
Z-3.515
G1 Z-3.674 F100
X90.439 Y-6.828 Z-3.723
X90.428 Y-6.847 Z-3.768
X90.41 Y-6.877 Z-3.803
X90.387 Y-6.915 Z-3.825
X90.362 Y-6.957 Z-3.833
G3 X89.919 Y-8.465 I2.721 J-1.618
G1 Y-8.567 F300
X89.921 Y-8.604
X90.023 Y-8.714
X90.147 Y-8.798
X90.282 Y-8.864
X90.433 Y-8.92
X90.639 Y-8.978
X90.946 Y-9.037
X91.394 Y-9.088
X91.844 Y-9.109
X92.294 Y-9.117
X92.744 Y-9.121
X93.645 Y-9.123
X94.096
X94.546 Y-9.142
X94.994 Y-9.183
X95.442 Y-9.235
X95.882 Y-9.331
X96.31 Y-9.47
X96.732 Y-9.629
X97.133 Y-9.835
X97.51 Y-10.08
X97.877 Y-10.342
X98.209 Y-10.646
X98.51 Y-10.982
X98.795 Y-11.33
X99.036 Y-11.711
X99.238 Y-12.113
X99.424 Y-12.524
X99.555 Y-12.955
X99.645 Y-13.396
X99.717 Y-13.841
X99.73 Y-14.291
X99.702 Y-14.74
X99.657 Y-15.189
X99.55 Y-15.626
X99.406 Y-16.053
X99.245 Y-16.474
X99.027 Y-16.868
X98.776 Y-17.242
X98.512 Y-17.607
X98.197 Y-17.929
X97.857 Y-18.225
X97.507 Y-18.508
X97.119 Y-18.736
X96.714 Y-18.933
X96.302 Y-19.116
X95.867 Y-19.234
X95.425 Y-19.318
X94.98 Y-19.388
X94.53 Y-19.418
X94.08 Y-19.431
X93.63 Y-19.437
X93.179 Y-19.439
X91.828 Y-19.441
X90.29
X90.148 Y-19.469
X90.028 Y-19.549
X89.948 Y-19.67
X89.919 Y-19.811
G0 Z3
X90.222 Y-7.677
Z-3.515
G1 Z-3.674 F100
X90.218 Y-7.683 Z-3.723
X90.206 Y-7.703 Z-3.768
X90.188 Y-7.733 Z-3.803
X90.166 Y-7.771 Z-3.825
X90.141 Y-7.813 Z-3.833
G3 X89.919 Y-8.567 I1.36 J-0.809
G1 Y-8.817 F300
X89.923 Y-8.892
X89.992 Y-9.025
X90.087 Y-9.141
X90.2 Y-9.24
X90.324 Y-9.324
X90.456 Y-9.396
X90.631 Y-9.473
X90.827 Y-9.54
X91.103 Y-9.612
X91.492 Y-9.68
X91.941 Y-9.722
X92.391 Y-9.741
X92.841 Y-9.751
X93.292 Y-9.755
X93.742 Y-9.757
X94.192 Y-9.769
X94.642 Y-9.798
X95.09 Y-9.846
X95.532 Y-9.93
X95.966 Y-10.051
X96.388 Y-10.209
X96.79 Y-10.412
X97.174 Y-10.648
X97.528 Y-10.926
X97.851 Y-11.24
X98.145 Y-11.582
X98.398 Y-11.954
X98.617 Y-12.348
X98.794 Y-12.762
X98.924 Y-13.193
X99.016 Y-13.634
X99.056 Y-14.083
X99.053 Y-14.533
X99.007 Y-14.982
X98.91 Y-15.421
X98.778 Y-15.852
X98.596 Y-16.264
X98.372 Y-16.655
X98.115 Y-17.025
X97.816 Y-17.362
X97.489 Y-17.672
X97.131 Y-17.945
X96.746 Y-18.178
X96.342 Y-18.378
X95.917 Y-18.527
X95.48 Y-18.636
X95.036 Y-18.713
X94.588 Y-18.758
X94.138 Y-18.782
X93.688 Y-18.794
X93.237 Y-18.8
X92.787 Y-18.803
X91.886 Y-18.805
X90.985 Y-18.806
X90.685 Y-18.807
X90.524 Y-18.821
X90.376 Y-18.846
X90.231 Y-18.884
X90.16 Y-18.911
X90.034 Y-18.99
X89.949 Y-19.112
X89.919 Y-19.258
G0 Z3
X90.222 Y-7.927
Z-3.515
G1 Z-3.674 F100
X90.218 Y-7.934 Z-3.723
X90.206 Y-7.953 Z-3.768
X90.188 Y-7.983 Z-3.803
X90.166 Y-8.021 Z-3.825
X90.141 Y-8.063 Z-3.833
G3 X89.919 Y-8.817 I1.36 J-0.809
G1 Y-9.154 F300
X89.927 Y-9.304
X89.982 Y-9.444
X90.064 Y-9.569
X90.164 Y-9.681
X90.277 Y-9.78
X90.399 Y-9.867
X90.535 Y-9.947
X90.722 Y-10.037
X90.919 Y-10.114
X91.2 Y-10.198
X91.556 Y-10.274
X92.002 Y-10.332
X92.452 Y-10.363
X92.902 Y-10.378
X93.352 Y-10.386
X93.803 Y-10.395
X94.253 Y-10.416
X94.702 Y-10.454
X95.147 Y-10.523
X95.584 Y-10.629
X96.009 Y-10.778
X96.416 Y-10.971
X96.799 Y-11.209
X97.149 Y-11.492
X97.464 Y-11.815
X97.737 Y-12.173
X97.968 Y-12.56
X98.15 Y-12.971
X98.284 Y-13.401
X98.362 Y-13.845
X98.386 Y-14.295
X98.356 Y-14.745
X98.276 Y-15.188
X98.144 Y-15.618
X97.958 Y-16.029
X97.725 Y-16.414
X97.447 Y-16.769
X97.13 Y-17.089
X96.777 Y-17.368
X96.395 Y-17.607
X95.984 Y-17.792
X95.556 Y-17.931
X95.116 Y-18.027
X94.67 Y-18.089
X94.221 Y-18.126
X93.771 Y-18.147
X93.32 Y-18.159
X92.87 Y-18.165
X92.42 Y-18.168
X91.068 Y-18.171
X90.752 Y-18.189
X90.545 Y-18.218
X90.383 Y-18.254
X90.239 Y-18.298
X90.151 Y-18.334
X90.029 Y-18.414
X89.948 Y-18.535
X89.919 Y-18.677
Y-19.258
G0 Z3
X90.222 Y-8.264
Z-3.515
G1 Z-3.674 F100
X90.218 Y-8.271 Z-3.723
X90.206 Y-8.29 Z-3.768
X90.188 Y-8.321 Z-3.803
X90.166 Y-8.359 Z-3.825
X90.141 Y-8.401 Z-3.833
G3 X89.919 Y-9.154 I1.36 J-0.809
G1 Y-9.634 F300
X89.927 Y-9.784
X89.976 Y-9.926
X90.051 Y-10.056
X90.143 Y-10.174
X90.25 Y-10.28
X90.366 Y-10.374
X90.501 Y-10.466
X90.665 Y-10.559
X90.865 Y-10.652
X91.112 Y-10.744
X91.419 Y-10.831
X91.841 Y-10.915
X92.289 Y-10.967
X92.738 Y-10.995
X93.188 Y-11.012
X93.638 Y-11.027
X94.088 Y-11.05
X94.537 Y-11.091
X94.982 Y-11.163
X95.418 Y-11.275
X95.839 Y-11.436
X96.235 Y-11.65
X96.598 Y-11.917
X96.92 Y-12.231
X97.196 Y-12.588
X97.415 Y-12.981
X97.574 Y-13.402
X97.671 Y-13.842
X97.703 Y-14.292
X97.669 Y-14.741
X97.57 Y-15.18
X97.407 Y-15.6
X97.185 Y-15.992
X96.909 Y-16.348
X96.583 Y-16.659
X96.215 Y-16.919
X95.814 Y-17.124
X95.389 Y-17.274
X94.951 Y-17.378
X94.505 Y-17.444
X94.057 Y-17.484
X93.607 Y-17.507
X93.156 Y-17.52
X92.706 Y-17.528
X92.256 Y-17.531
X91.355 Y-17.536
X90.939 Y-17.555
X90.652 Y-17.592
X90.461 Y-17.632
X90.294 Y-17.681
X90.154 Y-17.735
X90.122 Y-17.751
X90.015 Y-17.833
X89.944 Y-17.948
X89.919 Y-18.081
Y-18.677
G0 Z3
X90.222 Y-8.744
Z-3.515
G1 Z-3.674 F100
X90.218 Y-8.751 Z-3.723
X90.206 Y-8.77 Z-3.768
X90.188 Y-8.8 Z-3.803
X90.166 Y-8.839 Z-3.825
X90.141 Y-8.881 Z-3.833
G3 X89.919 Y-9.634 I1.36 J-0.809
G1 Y-10.145 F300
X89.927 Y-10.295
X89.97 Y-10.438
X90.04 Y-10.571
X90.127 Y-10.693
X90.229 Y-10.804
X90.341 Y-10.904
X90.463 Y-10.996
X90.629 Y-11.101
X90.807 Y-11.196
X91.059 Y-11.304
X91.329 Y-11.395
X91.701 Y-11.488
X92.145 Y-11.562
X92.594 Y-11.606
X93.043 Y-11.634
X93.493 Y-11.656
X93.943 Y-11.684
X94.391 Y-11.73
X94.835 Y-11.808
X95.267 Y-11.932
X95.678 Y-12.118
X96.055 Y-12.365
X96.385 Y-12.67
X96.654 Y-13.032
X96.85 Y-13.438
X96.969 Y-13.872
X97.006 Y-14.321
X96.954 Y-14.769
X96.82 Y-15.199
X96.611 Y-15.598
X96.327 Y-15.947
X95.982 Y-16.237
X95.592 Y-16.463
X95.172 Y-16.625
X94.735 Y-16.733
X94.29 Y-16.802
X93.841 Y-16.844
X93.391 Y-16.868
X92.941 Y-16.883
X92.491 Y-16.891
X91.59 Y-16.901
X91.14 Y-16.918
X90.788 Y-16.956
X90.524 Y-17.006
X90.364 Y-17.05
X90.215 Y-17.105
X90.136 Y-17.141
X90.021 Y-17.222
X89.946 Y-17.34
X89.919 Y-17.478
Y-18.081
G0 Z3
X90.222 Y-9.255
Z-3.515
G1 Z-3.674 F100
X90.218 Y-9.262 Z-3.723
X90.206 Y-9.281 Z-3.768
X90.188 Y-9.311 Z-3.803
X90.166 Y-9.349 Z-3.825
X90.141 Y-9.391 Z-3.833
G3 X89.919 Y-10.145 I1.36 J-0.809
G1 Y-10.712 F300
X89.927 Y-10.862
X89.962 Y-11.008
X90.024 Y-11.144
X90.106 Y-11.27
X90.202 Y-11.385
X90.309 Y-11.491
X90.424 Y-11.586
X90.547 Y-11.673
X90.674 Y-11.751
X90.807 Y-11.822
X90.942 Y-11.886
X91.081 Y-11.943
X91.222 Y-11.994
X91.365 Y-12.04
X91.509 Y-12.081
X91.655 Y-12.117
X91.801 Y-12.149
X91.949 Y-12.178
X92.097 Y-12.203
X92.245 Y-12.224
X92.394 Y-12.244
X92.543 Y-12.261
X92.692 Y-12.276
X92.885 Y-12.294
X93.334 Y-12.331
X93.783 Y-12.369
X94.23 Y-12.423
X94.672 Y-12.511
X95.096 Y-12.662
X95.487 Y-12.887
X95.817 Y-13.193
X96.06 Y-13.572
X96.197 Y-14.001
X96.209 Y-14.452
X96.154 Y-14.67
X95.992 Y-15.09
X95.712 Y-15.443
X95.351 Y-15.713
X94.942 Y-15.902
X94.508 Y-16.024
X94.064 Y-16.099
X93.616 Y-16.145
X93.167 Y-16.172
X92.716 Y-16.188
X92.041 Y-16.202
X91.831 Y-16.207
X91.682 Y-16.212
X91.532 Y-16.219
X91.382 Y-16.227
X91.232 Y-16.239
X91.083 Y-16.253
X90.934 Y-16.271
X90.786 Y-16.294
X90.638 Y-16.322
X90.492 Y-16.355
X90.348 Y-16.396
X90.207 Y-16.447
X90.139 Y-16.478
X90.023 Y-16.559
X89.946 Y-16.677
X89.919 Y-16.816
Y-17.478
G0 Z3
X90.222 Y-9.822
Z-3.515
G1 Z-3.674 F100
X90.218 Y-9.829 Z-3.723
X90.206 Y-9.848 Z-3.768
X90.188 Y-9.878 Z-3.803
X90.166 Y-9.916 Z-3.825
X90.141 Y-9.958 Z-3.833
G3 X89.919 Y-10.712 I1.36 J-0.809
G1 Y-11.325 F300
X89.927 Y-11.475
X89.972 Y-11.618
X90.04 Y-11.751
X90.126 Y-11.874
X90.225 Y-11.987
X90.334 Y-12.09
X90.465 Y-12.195
X90.625 Y-12.304
X90.822 Y-12.416
X91.06 Y-12.526
X91.36 Y-12.637
X91.752 Y-12.747
X92.194 Y-12.834
X92.64 Y-12.894
X92.864 Y-12.918
X92.968 Y-12.962
X93.053 Y-13.036
X93.112 Y-13.131
X93.223 Y-13.568
X93.219 Y-13.793
X93.239 Y-14.151
X93.259 Y-14.299
X93.294 Y-14.445
X93.331 Y-14.551
X93.374 Y-14.656
X93.384 Y-14.768
X93.359 Y-14.878
X93.302 Y-14.975
X93.139 Y-15.13
X92.755 Y-15.365
X92.319 Y-15.48
X91.873 Y-15.539
X91.424 Y-15.582
X90.977 Y-15.635
X90.621 Y-15.7
X90.416 Y-15.754
X90.246 Y-15.815
X90.109 Y-15.876
X90.104 Y-15.879
X90.006 Y-15.962
X89.942 Y-16.073
X89.919 Y-16.199
Y-16.816
G0 Z3
X90.222 Y-10.435
Z-3.515
G1 Z-3.674 F100
X90.218 Y-10.442 Z-3.723
X90.206 Y-10.461 Z-3.768
X90.188 Y-10.491 Z-3.803
X90.166 Y-10.529 Z-3.825
X90.141 Y-10.571 Z-3.833
G3 X89.919 Y-11.325 I1.36 J-0.809
G1 Y-11.882 F300
X89.927 Y-12.031
X89.967 Y-12.176
X90.031 Y-12.311
X90.114 Y-12.437
X90.21 Y-12.552
X90.317 Y-12.658
X90.444 Y-12.764
X90.605 Y-12.879
X90.796 Y-12.993
X91.037 Y-13.112
X91.342 Y-13.233
X91.772 Y-13.365
X91.979 Y-13.453
X92.144 Y-13.607
X92.274 Y-13.791
X92.327 Y-13.89
X92.349 Y-14
X92.336 Y-14.112
X92.243 Y-14.318
X92.165 Y-14.399
X91.822 Y-14.69
X91.403 Y-14.855
X90.966 Y-14.967
X90.541 Y-15.072
X90.342 Y-15.138
X90.184 Y-15.205
X90.118 Y-15.24
X90.013 Y-15.322
X89.943 Y-15.436
X89.919 Y-15.568
Y-16.199
G0 Z3
X90.222 Y-10.992
Z-3.515
G1 Z-3.674 F100
X90.218 Y-10.998 Z-3.723
X90.206 Y-11.018 Z-3.768
X90.188 Y-11.048 Z-3.803
X90.166 Y-11.086 Z-3.825
X90.141 Y-11.128 Z-3.833
G3 X89.919 Y-11.882 I1.36 J-0.809
G1 Y-12.449 F300
X89.927 Y-12.598
X89.962 Y-12.744
X90.024 Y-12.881
X90.104 Y-13.008
X90.197 Y-13.125
X90.302 Y-13.233
X90.427 Y-13.343
X90.506 Y-13.402
X90.587 Y-13.457
X90.682 Y-13.517
X90.78 Y-13.574
X90.856 Y-13.656
X90.904 Y-13.758
X90.918 Y-13.87
X90.899 Y-13.981
X90.847 Y-14.081
X90.688 Y-14.241
X90.287 Y-14.446
X90.106 Y-14.548
X90.082 Y-14.564
X89.995 Y-14.647
X89.939 Y-14.753
X89.919 Y-14.871
G0 Z3
X90.222 Y-11.559
Z-3.515
G1 Z-3.674 F100
X90.218 Y-11.565 Z-3.723
X90.206 Y-11.585 Z-3.768
X90.188 Y-11.615 Z-3.803
X90.166 Y-11.653 Z-3.825
X90.141 Y-11.695 Z-3.833
G3 X89.919 Y-12.449 I1.36 J-0.809
G1 Y-15.568 F300
G3 X90.237 Y-15.563 I0.159 J0.006 F100
G1 Y-15.562
G3 X90.036 Y-15.409 I-0.159
G0 Z6
G28 G91 Z0
G90
G28 G91 X0 Y0
G90
M30
%
