(1001)
(T1  D=1.587 CR=0 - ZMIN=-3.833 - flat end mill)
G90 G94
G17
G21
G28 G91 Z0
G90

(2D Adaptive2)
M9
S20000 M3
G54
G0 X-46.004 Y20.6
Z6
Z3
Z-0.683
G1 Z-0.841 F100
X-46.011 Y20.596 Z-0.89
X-46.03 Y20.584 Z-0.935
X-46.061 Y20.566 Z-0.97
X-46.099 Y20.544 Z-0.992
X-46.141 Y20.519 Z-1
G2 X-47.648 Y20.076 I-1.618 J2.721
G1 X-48.64 F800
X-48.79 Y20.083
X-48.936 Y20.117
X-49.072 Y20.18
X-49.199 Y20.26
X-49.334 Y20.364
X-49.446 Y20.464
X-49.547 Y20.575
X-49.633 Y20.698
X-49.717 Y20.847
X-49.816 Y21.059
X-49.869 Y21.201
X-49.909 Y21.346
X-49.934 Y21.494
X-49.95 Y21.688
X-49.951 Y21.964
X-49.928 Y22.27
X-49.857 Y22.715
X-49.755 Y23.153
X-49.639 Y23.589
X-49.569 Y24.034
X-49.535 Y24.483
X-49.516 Y24.933
X-49.556 Y25.382
X-49.637 Y25.825
X-49.735 Y26.265
X-49.89 Y26.687
X-50.084 Y27.094
X-50.293 Y27.493
X-50.554 Y27.86
X-50.847 Y28.202
X-51.153 Y28.532
X-51.501 Y28.818
X-51.874 Y29.072
X-52.256 Y29.31
X-52.667 Y29.495
X-53.092 Y29.643
X-53.523 Y29.773
X-53.968 Y29.844
X-54.418 Y29.875
X-54.868 Y29.888
X-55.316 Y29.84
X-55.758 Y29.752
X-56.196 Y29.647
X-56.615 Y29.483
X-57.019 Y29.282
X-57.414 Y29.066
X-57.776 Y28.798
X-58.113 Y28.499
X-58.438 Y28.188
X-58.717 Y27.834
X-58.964 Y27.457
X-59.196 Y27.071
X-59.373 Y26.657
X-59.513 Y26.229
X-59.636 Y25.796
X-59.698 Y25.35
X-59.721 Y24.9
X-59.727 Y24.449
X-59.67 Y24.002
X-59.574 Y23.562
X-59.462 Y23.126
X-59.357 Y22.688
X-59.308 Y22.468
X-59.28 Y22.312
X-59.261 Y22.103
X-59.256 Y21.798
X-59.272 Y21.569
X-59.294 Y21.421
X-59.334 Y21.257
X-59.407 Y21.039
X-59.519 Y20.776
X-59.589 Y20.643
X-59.673 Y20.519
X-59.794 Y20.368
X-59.96 Y20.192
X-60.038 Y20.129
X-60.13 Y20.089
X-60.229 Y20.076
X-61.486
G0 Z3
X-47.75 Y20.378
Z-0.683
G1 Z-0.841 F100
X-47.757 Y20.374 Z-0.89
X-47.776 Y20.363 Z-0.935
X-47.806 Y20.345 Z-0.97
X-47.844 Y20.322 Z-0.992
X-47.887 Y20.297 Z-1
G2 X-48.64 Y20.076 I-0.809 J1.36
G1 X-49.254 F800
X-49.404 Y20.083
X-49.549 Y20.12
X-49.685 Y20.183
X-49.81 Y20.266
X-49.924 Y20.364
X-50.027 Y20.473
X-50.12 Y20.591
X-50.202 Y20.716
X-50.273 Y20.848
X-50.34 Y21.001
X-50.397 Y21.165
X-50.447 Y21.361
X-50.488 Y21.594
X-50.51 Y21.834
X-50.514 Y22.159
X-50.487 Y22.537
X-50.42 Y22.982
X-50.326 Y23.423
X-50.25 Y23.867
X-50.2 Y24.315
X-50.182 Y24.765
X-50.211 Y25.214
X-50.276 Y25.66
X-50.387 Y26.097
X-50.545 Y26.518
X-50.74 Y26.925
X-50.98 Y27.306
X-51.255 Y27.663
X-51.563 Y27.991
X-51.906 Y28.283
X-52.272 Y28.546
X-52.666 Y28.763
X-53.081 Y28.938
X-53.51 Y29.076
X-53.952 Y29.163
X-54.4 Y29.212
X-54.85 Y29.214
X-55.298 Y29.165
X-55.74 Y29.078
X-56.169 Y28.939
X-56.582 Y28.761
X-56.977 Y28.544
X-57.344 Y28.283
X-57.69 Y27.994
X-57.998 Y27.666
X-58.271 Y27.307
X-58.51 Y26.926
X-58.704 Y26.519
X-58.862 Y26.097
X-58.975 Y25.661
X-59.039 Y25.215
X-59.064 Y24.766
X-59.036 Y24.316
X-58.966 Y23.871
X-58.873 Y23.43
X-58.774 Y22.991
X-58.7 Y22.584
X-58.663 Y22.22
X-58.656 Y21.931
X-58.672 Y21.673
X-58.708 Y21.412
X-58.77 Y21.134
X-58.843 Y20.9
X-58.925 Y20.696
X-59.025 Y20.494
X-59.147 Y20.292
X-59.19 Y20.231
X-59.272 Y20.148
X-59.376 Y20.094
X-59.491 Y20.076
X-60.229
G0 Z3
X-48.364 Y20.378
Z-0.683
G1 Z-0.841 F100
X-48.371 Y20.374 Z-0.89
X-48.39 Y20.363 Z-0.935
X-48.42 Y20.345 Z-0.97
X-48.458 Y20.322 Z-0.992
X-48.501 Y20.297 Z-1
G2 X-49.254 Y20.076 I-0.809 J1.36
G1 X-49.822 F800
X-49.972 Y20.083
X-50.117 Y20.122
X-50.252 Y20.186
X-50.376 Y20.271
X-50.488 Y20.371
X-50.588 Y20.483
X-50.677 Y20.603
X-50.756 Y20.731
X-50.837 Y20.889
X-50.91 Y21.067
X-50.972 Y21.26
X-51.029 Y21.501
X-51.07 Y21.768
X-51.091 Y22.072
X-51.088 Y22.455
X-51.047 Y22.904
X-50.978 Y23.349
X-50.91 Y23.794
X-50.862 Y24.242
X-50.846 Y24.692
X-50.872 Y25.142
X-50.945 Y25.587
X-51.071 Y26.019
X-51.246 Y26.434
X-51.47 Y26.825
X-51.736 Y27.188
X-52.044 Y27.517
X-52.388 Y27.808
X-52.767 Y28.052
X-53.172 Y28.25
X-53.597 Y28.398
X-54.037 Y28.496
X-54.485 Y28.542
X-54.935 Y28.531
X-55.381 Y28.466
X-55.815 Y28.348
X-56.234 Y28.181
X-56.629 Y27.965
X-56.996 Y27.705
X-57.328 Y27.399
X-57.62 Y27.057
X-57.87 Y26.682
X-58.075 Y26.281
X-58.231 Y25.858
X-58.333 Y25.419
X-58.382 Y24.972
X-58.376 Y24.521
X-58.326 Y24.074
X-58.25 Y23.63
X-58.166 Y23.187
X-58.096 Y22.742
X-58.057 Y22.334
X-58.051 Y21.981
X-58.074 Y21.635
X-58.122 Y21.311
X-58.19 Y21.012
X-58.279 Y20.73
X-58.383 Y20.475
X-58.467 Y20.309
X-58.501 Y20.254
X-58.584 Y20.159
X-58.693 Y20.097
X-58.817 Y20.076
X-59.491
G0 Z3
X-48.932 Y20.378
Z-0.683
G1 Z-0.841 F100
X-48.939 Y20.374 Z-0.89
X-48.958 Y20.363 Z-0.935
X-48.988 Y20.345 Z-0.97
X-49.026 Y20.322 Z-0.992
X-49.068 Y20.297 Z-1
G2 X-49.822 Y20.076 I-0.809 J1.36
G1 X-50.38 F800
X-50.529 Y20.083
X-50.674 Y20.124
X-50.808 Y20.191
X-50.931 Y20.277
X-51.041 Y20.379
X-51.141 Y20.491
X-51.23 Y20.612
X-51.32 Y20.759
X-51.402 Y20.919
X-51.48 Y21.11
X-51.554 Y21.341
X-51.611 Y21.584
X-51.656 Y21.885
X-51.681 Y22.255
X-51.676 Y22.683
X-51.634 Y23.132
X-51.578 Y23.579
X-51.529 Y24.027
X-51.506 Y24.477
X-51.523 Y24.927
X-51.591 Y25.372
X-51.714 Y25.805
X-51.899 Y26.216
X-52.14 Y26.597
X-52.432 Y26.94
X-52.769 Y27.238
X-53.148 Y27.482
X-53.558 Y27.667
X-53.991 Y27.792
X-54.437 Y27.853
X-54.888 Y27.85
X-55.332 Y27.777
X-55.762 Y27.641
X-56.167 Y27.445
X-56.54 Y27.192
X-56.872 Y26.887
X-57.153 Y26.536
X-57.382 Y26.148
X-57.553 Y25.731
X-57.662 Y25.294
X-57.704 Y24.845
X-57.69 Y24.395
X-57.639 Y23.947
X-57.571 Y23.502
X-57.505 Y23.057
X-57.456 Y22.609
X-57.437 Y22.162
X-57.454 Y21.746
X-57.5 Y21.359
X-57.574 Y20.996
X-57.666 Y20.675
X-57.744 Y20.469
X-57.82 Y20.307
X-57.846 Y20.262
X-57.929 Y20.163
X-58.041 Y20.098
X-58.168 Y20.076
X-58.817
G0 Z3
X-49.49 Y20.378
Z-0.683
G1 Z-0.841 F100
X-49.496 Y20.374 Z-0.89
X-49.516 Y20.363 Z-0.935
X-49.546 Y20.345 Z-0.97
X-49.584 Y20.322 Z-0.992
X-49.626 Y20.297 Z-1
G2 X-50.38 Y20.076 I-0.809 J1.36
G1 X-50.947 F800
X-51.097 Y20.083
X-51.24 Y20.129
X-51.373 Y20.199
X-51.494 Y20.287
X-51.603 Y20.39
X-51.703 Y20.502
X-51.796 Y20.63
X-51.889 Y20.782
X-51.974 Y20.948
X-52.06 Y21.159
X-52.135 Y21.392
X-52.2 Y21.67
X-52.252 Y22.015
X-52.278 Y22.39
X-52.273 Y22.841
X-52.239 Y23.29
X-52.195 Y23.738
X-52.166 Y24.187
X-52.17 Y24.638
X-52.224 Y25.085
X-52.342 Y25.52
X-52.53 Y25.929
X-52.788 Y26.298
X-53.108 Y26.616
X-53.48 Y26.869
X-53.894 Y27.046
X-54.334 Y27.142
X-54.784 Y27.157
X-55.229 Y27.083
X-55.651 Y26.927
X-56.038 Y26.696
X-56.374 Y26.396
X-56.646 Y26.037
X-56.846 Y25.633
X-56.97 Y25.2
X-57.017 Y24.752
X-57.007 Y24.302
X-56.964 Y23.853
X-56.909 Y23.406
X-56.858 Y22.959
X-56.826 Y22.51
X-56.822 Y22.059
X-56.849 Y21.61
X-56.908 Y21.189
X-56.988 Y20.836
X-57.072 Y20.564
X-57.14 Y20.394
X-57.206 Y20.26
X-57.21 Y20.254
X-57.293 Y20.159
X-57.402 Y20.097
X-57.527 Y20.076
X-58.168
G0 Z3
X-50.057 Y20.378
Z-0.683
G1 Z-0.841 F100
X-50.064 Y20.374 Z-0.89
X-50.083 Y20.363 Z-0.935
X-50.114 Y20.345 Z-0.97
X-50.152 Y20.322 Z-0.992
X-50.194 Y20.297 Z-1
G2 X-50.947 Y20.076 I-0.809 J1.36
G1 X-51.505 F800
X-51.655 Y20.083
X-51.801 Y20.119
X-51.937 Y20.182
X-52.062 Y20.264
X-52.177 Y20.361
X-52.281 Y20.469
X-52.374 Y20.587
X-52.458 Y20.711
X-52.533 Y20.841
X-52.6 Y20.975
X-52.659 Y21.113
X-52.71 Y21.254
X-52.756 Y21.397
X-52.794 Y21.542
X-52.827 Y21.688
X-52.855 Y21.835
X-52.876 Y21.984
X-52.894 Y22.133
X-52.907 Y22.282
X-52.915 Y22.432
X-52.92 Y22.582
X-52.921 Y22.732
X-52.919 Y22.882
X-52.915 Y23.032
X-52.905 Y23.269
X-52.884 Y23.719
X-52.871 Y24.17
X-52.892 Y24.62
X-52.981 Y25.061
X-53.152 Y25.478
X-53.416 Y25.843
X-53.764 Y26.13
X-53.97 Y26.22
X-54.4 Y26.354
X-54.625
X-55.072 Y26.299
X-55.278 Y26.208
X-55.662 Y25.973
X-55.962 Y25.637
X-56.154 Y25.229
X-56.246 Y24.789
X-56.267 Y24.339
X-56.245 Y23.889
X-56.197 Y23.328
X-56.185 Y23.178
X-56.175 Y23.028
X-56.167 Y22.879
X-56.16 Y22.729
X-56.155 Y22.579
X-56.153 Y22.429
Y22.279
X-56.156 Y22.129
X-56.162 Y21.979
X-56.171 Y21.829
X-56.182 Y21.68
X-56.198 Y21.531
X-56.217 Y21.382
X-56.239 Y21.233
X-56.266 Y21.086
X-56.296 Y20.939
X-56.331 Y20.793
X-56.372 Y20.649
X-56.418 Y20.506
X-56.472 Y20.366
X-56.509 Y20.287
X-56.591 Y20.176
X-56.708 Y20.102
X-56.844 Y20.076
X-57.527
G0 Z3
X-50.615 Y20.378
Z-0.683
G1 Z-0.841 F100
X-50.622 Y20.374 Z-0.89
X-50.641 Y20.363 Z-0.935
X-50.671 Y20.345 Z-0.97
X-50.709 Y20.322 Z-0.992
X-50.751 Y20.297 Z-1
G2 X-51.505 Y20.076 I-0.809 J1.36
G1 X-52.119 F800
X-52.269 Y20.083
X-52.411 Y20.131
X-52.543 Y20.202
X-52.665 Y20.29
X-52.775 Y20.391
X-52.875 Y20.503
X-52.974 Y20.633
X-53.071 Y20.786
X-53.169 Y20.97
X-53.263 Y21.188
X-53.349 Y21.444
X-53.426 Y21.75
X-53.489 Y22.123
X-53.527 Y22.572
X-53.529 Y22.685
Y22.797
X-53.563 Y22.905
X-53.628 Y22.997
X-53.808 Y23.133
X-54.234 Y23.277
X-54.443 Y23.314
X-54.552 Y23.342
X-54.661 Y23.374
X-54.773 Y23.371
X-54.88 Y23.335
X-54.971 Y23.269
X-55.118 Y23.099
X-55.338 Y22.706
X-55.446 Y22.268
X-55.514 Y21.823
X-55.579 Y21.377
X-55.662 Y20.934
X-55.743 Y20.629
X-55.808 Y20.444
X-55.869 Y20.307
X-55.89 Y20.268
X-55.973 Y20.166
X-56.086 Y20.099
X-56.215 Y20.076
X-56.844
G0 Z3
X-51.229 Y20.378
Z-0.683
G1 Z-0.841 F100
X-51.236 Y20.374 Z-0.89
X-51.255 Y20.363 Z-0.935
X-51.285 Y20.345 Z-0.97
X-51.323 Y20.322 Z-0.992
X-51.365 Y20.297 Z-1
G2 X-52.119 Y20.076 I-0.809 J1.36
G1 X-52.661 F800
X-52.811 Y20.083
X-52.955 Y20.125
X-53.09 Y20.192
X-53.213 Y20.278
X-53.326 Y20.376
X-53.429 Y20.485
X-53.532 Y20.616
X-53.63 Y20.763
X-53.737 Y20.955
X-53.831 Y21.16
X-53.927 Y21.425
X-53.957 Y21.534
X-54.011 Y21.753
X-54.036 Y21.862
X-54.08 Y21.966
G2 X-53.802 Y22.115 I0.148 J0.057 F100
G1 X-53.614 Y21.848
X-52.794 Y20.689 F800
X-52.537 Y20.326 F100
G2 X-52.661 Y20.076 I-0.13 J-0.092
G1 X-53.244 F800
X-53.394 Y20.083
X-53.54 Y20.117
X-53.678 Y20.178
X-53.805 Y20.257
X-53.921 Y20.352
X-54.028 Y20.457
X-54.125 Y20.571
X-54.214 Y20.693
X-54.293 Y20.82
X-54.347 Y20.919
G2 X-54.106 Y21.114 I0.142 J0.071 F100
G1 X-53.826 Y20.893
X-53.464 Y20.606 F800
X-53.151 Y20.359 F100
G2 X-53.244 Y20.076 I-0.098 J-0.125
G1 X-53.858 F800
X-54.008 Y20.083
X-54.152 Y20.125
X-54.253 Y20.175
X-54.362 Y20.204
X-54.587 Y20.194
X-54.852 Y20.098
X-54.893 Y20.086
X-54.935 Y20.078
X-54.978 Y20.076
G2 X-54.972 Y20.393 I0.006 J0.159 F100
G1 X-54.68
X-54.156 F800
X-53.864 F100
G2 X-53.858 Y20.076 J-0.159
G1 X-56.215 F800
G2 X-56.21 Y20.393 I0.006 J0.159 F100
G1 X-56.166 Y20.387
X-56.125 Y20.369
X-56.091 Y20.34
X-56.077 Y20.304 Z-0.994
X-56.063 Y20.269 Z-0.979
X-56.051 Y20.24 Z-0.955
Y20.235 Z-0.95
X-56.054 Y20.212 Z-0.918
X-56.056 Y20.197 Z-0.881
X-56.057 Y20.192 Z-0.841
G0 Z3
X-46.004 Y20.6
Z-1.683
G1 Z-1.841 F100
X-46.011 Y20.596 Z-1.89
X-46.03 Y20.584 Z-1.935
X-46.061 Y20.566 Z-1.97
X-46.099 Y20.544 Z-1.992
X-46.141 Y20.519 Z-2
G2 X-47.648 Y20.076 I-1.618 J2.721
G1 X-48.64 F800
X-48.79 Y20.083
X-48.936 Y20.117
X-49.072 Y20.18
X-49.199 Y20.26
X-49.334 Y20.364
X-49.446 Y20.464
X-49.547 Y20.575
X-49.633 Y20.698
X-49.717 Y20.847
X-49.816 Y21.059
X-49.869 Y21.201
X-49.909 Y21.346
X-49.934 Y21.494
X-49.95 Y21.688
X-49.951 Y21.964
X-49.928 Y22.27
X-49.857 Y22.715
X-49.755 Y23.153
X-49.639 Y23.589
X-49.569 Y24.034
X-49.535 Y24.483
X-49.516 Y24.933
X-49.556 Y25.382
X-49.637 Y25.825
X-49.735 Y26.265
X-49.89 Y26.687
X-50.084 Y27.094
X-50.293 Y27.493
X-50.554 Y27.86
X-50.847 Y28.202
X-51.153 Y28.532
X-51.501 Y28.818
X-51.874 Y29.072
X-52.256 Y29.31
X-52.667 Y29.495
X-53.092 Y29.643
X-53.523 Y29.773
X-53.968 Y29.844
X-54.418 Y29.875
X-54.868 Y29.888
X-55.316 Y29.84
X-55.758 Y29.752
X-56.196 Y29.647
X-56.615 Y29.483
X-57.019 Y29.282
X-57.414 Y29.066
X-57.776 Y28.798
X-58.113 Y28.499
X-58.438 Y28.188
X-58.717 Y27.834
X-58.964 Y27.457
X-59.196 Y27.071
X-59.373 Y26.657
X-59.513 Y26.229
X-59.636 Y25.796
X-59.698 Y25.35
X-59.721 Y24.9
X-59.727 Y24.449
X-59.67 Y24.002
X-59.574 Y23.562
X-59.462 Y23.126
X-59.357 Y22.688
X-59.308 Y22.468
X-59.28 Y22.312
X-59.261 Y22.103
X-59.256 Y21.798
X-59.272 Y21.569
X-59.294 Y21.421
X-59.334 Y21.257
X-59.407 Y21.039
X-59.519 Y20.776
X-59.589 Y20.643
X-59.673 Y20.519
X-59.794 Y20.368
X-59.96 Y20.192
X-60.038 Y20.129
X-60.13 Y20.089
X-60.229 Y20.076
X-61.486
G0 Z3
X-47.75 Y20.378
Z-1.683
G1 Z-1.841 F100
X-47.757 Y20.374 Z-1.89
X-47.776 Y20.363 Z-1.935
X-47.806 Y20.345 Z-1.97
X-47.844 Y20.322 Z-1.992
X-47.887 Y20.297 Z-2
G2 X-48.64 Y20.076 I-0.809 J1.36
G1 X-49.254 F800
X-49.404 Y20.083
X-49.549 Y20.12
X-49.685 Y20.183
X-49.81 Y20.266
X-49.924 Y20.364
X-50.027 Y20.473
X-50.12 Y20.591
X-50.202 Y20.716
X-50.273 Y20.848
X-50.34 Y21.001
X-50.397 Y21.165
X-50.447 Y21.361
X-50.488 Y21.594
X-50.51 Y21.834
X-50.514 Y22.159
X-50.487 Y22.537
X-50.42 Y22.982
X-50.326 Y23.423
X-50.25 Y23.867
X-50.2 Y24.315
X-50.182 Y24.765
X-50.211 Y25.214
X-50.276 Y25.66
X-50.387 Y26.097
X-50.545 Y26.518
X-50.74 Y26.925
X-50.98 Y27.306
X-51.255 Y27.663
X-51.563 Y27.991
X-51.906 Y28.283
X-52.272 Y28.546
X-52.666 Y28.763
X-53.081 Y28.938
X-53.51 Y29.076
X-53.952 Y29.163
X-54.4 Y29.212
X-54.85 Y29.214
X-55.298 Y29.165
X-55.74 Y29.078
X-56.169 Y28.939
X-56.582 Y28.761
X-56.977 Y28.544
X-57.344 Y28.283
X-57.69 Y27.994
X-57.998 Y27.666
X-58.271 Y27.307
X-58.51 Y26.926
X-58.704 Y26.519
X-58.862 Y26.097
X-58.975 Y25.661
X-59.039 Y25.215
X-59.064 Y24.766
X-59.036 Y24.316
X-58.966 Y23.871
X-58.873 Y23.43
X-58.774 Y22.991
X-58.7 Y22.584
X-58.663 Y22.22
X-58.656 Y21.931
X-58.672 Y21.673
X-58.708 Y21.412
X-58.77 Y21.134
X-58.843 Y20.9
X-58.925 Y20.696
X-59.025 Y20.494
X-59.147 Y20.292
X-59.19 Y20.231
X-59.272 Y20.148
X-59.376 Y20.094
X-59.491 Y20.076
X-60.229
G0 Z3
X-48.364 Y20.378
Z-1.683
G1 Z-1.841 F100
X-48.371 Y20.374 Z-1.89
X-48.39 Y20.363 Z-1.935
X-48.42 Y20.345 Z-1.97
X-48.458 Y20.322 Z-1.992
X-48.501 Y20.297 Z-2
G2 X-49.254 Y20.076 I-0.809 J1.36
G1 X-49.822 F800
X-49.972 Y20.083
X-50.117 Y20.122
X-50.252 Y20.186
X-50.376 Y20.271
X-50.488 Y20.371
X-50.588 Y20.483
X-50.677 Y20.603
X-50.756 Y20.731
X-50.837 Y20.889
X-50.91 Y21.067
X-50.972 Y21.26
X-51.029 Y21.501
X-51.07 Y21.768
X-51.091 Y22.072
X-51.088 Y22.455
X-51.047 Y22.904
X-50.978 Y23.349
X-50.91 Y23.794
X-50.862 Y24.242
X-50.846 Y24.692
X-50.872 Y25.142
X-50.945 Y25.587
X-51.071 Y26.019
X-51.246 Y26.434
X-51.47 Y26.825
X-51.736 Y27.188
X-52.044 Y27.517
X-52.388 Y27.808
X-52.767 Y28.052
X-53.172 Y28.25
X-53.597 Y28.398
X-54.037 Y28.496
X-54.485 Y28.542
X-54.935 Y28.531
X-55.381 Y28.466
X-55.815 Y28.348
X-56.234 Y28.181
X-56.629 Y27.965
X-56.996 Y27.705
X-57.328 Y27.399
X-57.62 Y27.057
X-57.87 Y26.682
X-58.075 Y26.281
X-58.231 Y25.858
X-58.333 Y25.419
X-58.382 Y24.972
X-58.376 Y24.521
X-58.326 Y24.074
X-58.25 Y23.63
X-58.166 Y23.187
X-58.096 Y22.742
X-58.057 Y22.334
X-58.051 Y21.981
X-58.074 Y21.635
X-58.122 Y21.311
X-58.19 Y21.012
X-58.279 Y20.73
X-58.383 Y20.475
X-58.467 Y20.309
X-58.501 Y20.254
X-58.584 Y20.159
X-58.693 Y20.097
X-58.817 Y20.076
X-59.491
G0 Z3
X-48.932 Y20.378
Z-1.683
G1 Z-1.841 F100
X-48.939 Y20.374 Z-1.89
X-48.958 Y20.363 Z-1.935
X-48.988 Y20.345 Z-1.97
X-49.026 Y20.322 Z-1.992
X-49.068 Y20.297 Z-2
G2 X-49.822 Y20.076 I-0.809 J1.36
G1 X-50.38 F800
X-50.529 Y20.083
X-50.674 Y20.124
X-50.808 Y20.191
X-50.931 Y20.277
X-51.041 Y20.379
X-51.141 Y20.491
X-51.23 Y20.612
X-51.32 Y20.759
X-51.402 Y20.919
X-51.48 Y21.11
X-51.554 Y21.341
X-51.611 Y21.584
X-51.656 Y21.885
X-51.681 Y22.255
X-51.676 Y22.683
X-51.634 Y23.132
X-51.578 Y23.579
X-51.529 Y24.027
X-51.506 Y24.477
X-51.523 Y24.927
X-51.591 Y25.372
X-51.714 Y25.805
X-51.899 Y26.216
X-52.14 Y26.597
X-52.432 Y26.94
X-52.769 Y27.238
X-53.148 Y27.482
X-53.558 Y27.667
X-53.991 Y27.792
X-54.437 Y27.853
X-54.888 Y27.85
X-55.332 Y27.777
X-55.762 Y27.641
X-56.167 Y27.445
X-56.54 Y27.192
X-56.872 Y26.887
X-57.153 Y26.536
X-57.382 Y26.148
X-57.553 Y25.731
X-57.662 Y25.294
X-57.704 Y24.845
X-57.69 Y24.395
X-57.639 Y23.947
X-57.571 Y23.502
X-57.505 Y23.057
X-57.456 Y22.609
X-57.437 Y22.162
X-57.454 Y21.746
X-57.5 Y21.359
X-57.574 Y20.996
X-57.666 Y20.675
X-57.744 Y20.469
X-57.82 Y20.307
X-57.846 Y20.262
X-57.929 Y20.163
X-58.041 Y20.098
X-58.168 Y20.076
X-58.817
G0 Z3
X-49.49 Y20.378
Z-1.683
G1 Z-1.841 F100
X-49.496 Y20.374 Z-1.89
X-49.516 Y20.363 Z-1.935
X-49.546 Y20.345 Z-1.97
X-49.584 Y20.322 Z-1.992
X-49.626 Y20.297 Z-2
G2 X-50.38 Y20.076 I-0.809 J1.36
G1 X-50.947 F800
X-51.097 Y20.083
X-51.24 Y20.129
X-51.373 Y20.199
X-51.494 Y20.287
X-51.603 Y20.39
X-51.703 Y20.502
X-51.796 Y20.63
X-51.889 Y20.782
X-51.974 Y20.948
X-52.06 Y21.159
X-52.135 Y21.392
X-52.2 Y21.67
X-52.252 Y22.015
X-52.278 Y22.39
X-52.273 Y22.841
X-52.239 Y23.29
X-52.195 Y23.738
X-52.166 Y24.187
X-52.17 Y24.638
X-52.224 Y25.085
X-52.342 Y25.52
X-52.53 Y25.929
X-52.788 Y26.298
X-53.108 Y26.616
X-53.48 Y26.869
X-53.894 Y27.046
X-54.334 Y27.142
X-54.784 Y27.157
X-55.229 Y27.083
X-55.651 Y26.927
X-56.038 Y26.696
X-56.374 Y26.396
X-56.646 Y26.037
X-56.846 Y25.633
X-56.97 Y25.2
X-57.017 Y24.752
X-57.007 Y24.302
X-56.964 Y23.853
X-56.909 Y23.406
X-56.858 Y22.959
X-56.826 Y22.51
X-56.822 Y22.059
X-56.849 Y21.61
X-56.908 Y21.189
X-56.988 Y20.836
X-57.072 Y20.564
X-57.14 Y20.394
X-57.206 Y20.26
X-57.21 Y20.254
X-57.293 Y20.159
X-57.402 Y20.097
X-57.527 Y20.076
X-58.168
G0 Z3
X-50.057 Y20.378
Z-1.683
G1 Z-1.841 F100
X-50.064 Y20.374 Z-1.89
X-50.083 Y20.363 Z-1.935
X-50.114 Y20.345 Z-1.97
X-50.152 Y20.322 Z-1.992
X-50.194 Y20.297 Z-2
G2 X-50.947 Y20.076 I-0.809 J1.36
G1 X-51.505 F800
X-51.655 Y20.083
X-51.801 Y20.119
X-51.937 Y20.182
X-52.062 Y20.264
X-52.177 Y20.361
X-52.281 Y20.469
X-52.374 Y20.587
X-52.458 Y20.711
X-52.533 Y20.841
X-52.6 Y20.975
X-52.659 Y21.113
X-52.71 Y21.254
X-52.756 Y21.397
X-52.794 Y21.542
X-52.827 Y21.688
X-52.855 Y21.835
X-52.876 Y21.984
X-52.894 Y22.133
X-52.907 Y22.282
X-52.915 Y22.432
X-52.92 Y22.582
X-52.921 Y22.732
X-52.919 Y22.882
X-52.915 Y23.032
X-52.905 Y23.269
X-52.884 Y23.719
X-52.871 Y24.17
X-52.892 Y24.62
X-52.981 Y25.061
X-53.152 Y25.478
X-53.416 Y25.843
X-53.764 Y26.13
X-53.97 Y26.22
X-54.4 Y26.354
X-54.625
X-55.072 Y26.299
X-55.278 Y26.208
X-55.662 Y25.973
X-55.962 Y25.637
X-56.154 Y25.229
X-56.246 Y24.789
X-56.267 Y24.339
X-56.245 Y23.889
X-56.197 Y23.328
X-56.185 Y23.178
X-56.175 Y23.028
X-56.167 Y22.879
X-56.16 Y22.729
X-56.155 Y22.579
X-56.153 Y22.429
Y22.279
X-56.156 Y22.129
X-56.162 Y21.979
X-56.171 Y21.829
X-56.182 Y21.68
X-56.198 Y21.531
X-56.217 Y21.382
X-56.239 Y21.233
X-56.266 Y21.086
X-56.296 Y20.939
X-56.331 Y20.793
X-56.372 Y20.649
X-56.418 Y20.506
X-56.472 Y20.366
X-56.509 Y20.287
X-56.591 Y20.176
X-56.708 Y20.102
X-56.844 Y20.076
X-57.527
G0 Z3
X-50.615 Y20.378
Z-1.683
G1 Z-1.841 F100
X-50.622 Y20.374 Z-1.89
X-50.641 Y20.363 Z-1.935
X-50.671 Y20.345 Z-1.97
X-50.709 Y20.322 Z-1.992
X-50.751 Y20.297 Z-2
G2 X-51.505 Y20.076 I-0.809 J1.36
G1 X-52.119 F800
X-52.269 Y20.083
X-52.411 Y20.131
X-52.543 Y20.202
X-52.665 Y20.29
X-52.775 Y20.391
X-52.875 Y20.503
X-52.974 Y20.633
X-53.071 Y20.786
X-53.169 Y20.97
X-53.263 Y21.188
X-53.349 Y21.444
X-53.426 Y21.75
X-53.489 Y22.123
X-53.527 Y22.572
X-53.529 Y22.685
Y22.797
X-53.563 Y22.905
X-53.628 Y22.997
X-53.808 Y23.133
X-54.234 Y23.277
X-54.443 Y23.314
X-54.552 Y23.342
X-54.661 Y23.374
X-54.773 Y23.371
X-54.88 Y23.335
X-54.971 Y23.269
X-55.118 Y23.099
X-55.338 Y22.706
X-55.446 Y22.268
X-55.514 Y21.823
X-55.579 Y21.377
X-55.662 Y20.934
X-55.743 Y20.629
X-55.808 Y20.444
X-55.869 Y20.307
X-55.89 Y20.268
X-55.973 Y20.166
X-56.086 Y20.099
X-56.215 Y20.076
X-56.844
G0 Z3
X-51.229 Y20.378
Z-1.683
G1 Z-1.841 F100
X-51.236 Y20.374 Z-1.89
X-51.255 Y20.363 Z-1.935
X-51.285 Y20.345 Z-1.97
X-51.323 Y20.322 Z-1.992
X-51.365 Y20.297 Z-2
G2 X-52.119 Y20.076 I-0.809 J1.36
G1 X-52.661 F800
X-52.811 Y20.083
X-52.955 Y20.125
X-53.09 Y20.192
X-53.213 Y20.278
X-53.326 Y20.376
X-53.429 Y20.485
X-53.532 Y20.616
X-53.63 Y20.763
X-53.737 Y20.955
X-53.831 Y21.16
X-53.927 Y21.425
X-53.957 Y21.534
X-54.011 Y21.753
X-54.036 Y21.862
X-54.08 Y21.966
G2 X-53.802 Y22.115 I0.148 J0.057 F100
G1 X-53.614 Y21.848
X-52.794 Y20.689 F800
X-52.537 Y20.326 F100
G2 X-52.661 Y20.076 I-0.13 J-0.092
G1 X-53.244 F800
X-53.394 Y20.083
X-53.54 Y20.117
X-53.678 Y20.178
X-53.805 Y20.257
X-53.921 Y20.352
X-54.028 Y20.457
X-54.125 Y20.571
X-54.214 Y20.693
X-54.293 Y20.82
X-54.347 Y20.919
G2 X-54.106 Y21.114 I0.142 J0.071 F100
G1 X-53.826 Y20.893
X-53.464 Y20.606 F800
X-53.151 Y20.359 F100
G2 X-53.244 Y20.076 I-0.098 J-0.125
G1 X-53.858 F800
X-54.008 Y20.083
X-54.152 Y20.125
X-54.253 Y20.175
X-54.362 Y20.204
X-54.587 Y20.194
X-54.852 Y20.098
X-54.893 Y20.086
X-54.935 Y20.078
X-54.978 Y20.076
G2 X-54.972 Y20.393 I0.006 J0.159 F100
G1 X-54.68
X-54.156 F800
X-53.864 F100
G2 X-53.858 Y20.076 J-0.159
G1 X-56.215 F800
G2 X-56.21 Y20.393 I0.006 J0.159 F100
G1 X-56.166 Y20.387
X-56.125 Y20.369
X-56.091 Y20.34
X-56.077 Y20.304 Z-1.994
X-56.063 Y20.269 Z-1.979
X-56.051 Y20.24 Z-1.955
Y20.235 Z-1.95
X-56.054 Y20.212 Z-1.918
X-56.056 Y20.197 Z-1.881
X-56.057 Y20.192 Z-1.841
G0 Z3
X-46.004 Y20.6
Z-2.682
G1 Z-2.841 F100
X-46.011 Y20.596 Z-2.89
X-46.03 Y20.584 Z-2.935
X-46.061 Y20.566 Z-2.97
X-46.099 Y20.544 Z-2.992
X-46.141 Y20.519 Z-3
G2 X-47.648 Y20.076 I-1.618 J2.721
G1 X-48.64 F800
X-48.79 Y20.083
X-48.936 Y20.117
X-49.072 Y20.18
X-49.199 Y20.26
X-49.334 Y20.364
X-49.446 Y20.464
X-49.547 Y20.575
X-49.633 Y20.698
X-49.717 Y20.847
X-49.816 Y21.059
X-49.869 Y21.201
X-49.909 Y21.346
X-49.934 Y21.494
X-49.95 Y21.688
X-49.951 Y21.964
X-49.928 Y22.27
X-49.857 Y22.715
X-49.755 Y23.153
X-49.639 Y23.589
X-49.569 Y24.034
X-49.535 Y24.483
X-49.516 Y24.933
X-49.556 Y25.382
X-49.637 Y25.825
X-49.735 Y26.265
X-49.89 Y26.687
X-50.084 Y27.094
X-50.293 Y27.493
X-50.554 Y27.86
X-50.847 Y28.202
X-51.153 Y28.532
X-51.501 Y28.818
X-51.874 Y29.072
X-52.256 Y29.31
X-52.667 Y29.495
X-53.092 Y29.643
X-53.523 Y29.773
X-53.968 Y29.844
X-54.418 Y29.875
X-54.868 Y29.888
X-55.316 Y29.84
X-55.758 Y29.752
X-56.196 Y29.647
X-56.615 Y29.483
X-57.019 Y29.282
X-57.414 Y29.066
X-57.776 Y28.798
X-58.113 Y28.499
X-58.438 Y28.188
X-58.717 Y27.834
X-58.964 Y27.457
X-59.196 Y27.071
X-59.373 Y26.657
X-59.513 Y26.229
X-59.636 Y25.796
X-59.698 Y25.35
X-59.721 Y24.9
X-59.727 Y24.449
X-59.67 Y24.002
X-59.574 Y23.562
X-59.462 Y23.126
X-59.357 Y22.688
X-59.308 Y22.468
X-59.28 Y22.312
X-59.261 Y22.103
X-59.256 Y21.798
X-59.272 Y21.569
X-59.294 Y21.421
X-59.334 Y21.257
X-59.407 Y21.039
X-59.519 Y20.776
X-59.589 Y20.643
X-59.673 Y20.519
X-59.794 Y20.368
X-59.96 Y20.192
X-60.038 Y20.129
X-60.13 Y20.089
X-60.229 Y20.076
X-61.486
G0 Z3
X-47.75 Y20.378
Z-2.682
G1 Z-2.841 F100
X-47.757 Y20.374 Z-2.89
X-47.776 Y20.363 Z-2.935
X-47.806 Y20.345 Z-2.97
X-47.844 Y20.322 Z-2.992
X-47.887 Y20.297 Z-3
G2 X-48.64 Y20.076 I-0.809 J1.36
G1 X-49.254 F800
X-49.404 Y20.083
X-49.549 Y20.12
X-49.685 Y20.183
X-49.81 Y20.266
X-49.924 Y20.364
X-50.027 Y20.473
X-50.12 Y20.591
X-50.202 Y20.716
X-50.273 Y20.848
X-50.34 Y21.001
X-50.397 Y21.165
X-50.447 Y21.361
X-50.488 Y21.594
X-50.51 Y21.834
X-50.514 Y22.159
X-50.487 Y22.537
X-50.42 Y22.982
X-50.326 Y23.423
X-50.25 Y23.867
X-50.2 Y24.315
X-50.182 Y24.765
X-50.211 Y25.214
X-50.276 Y25.66
X-50.387 Y26.097
X-50.545 Y26.518
X-50.74 Y26.925
X-50.98 Y27.306
X-51.255 Y27.663
X-51.563 Y27.991
X-51.906 Y28.283
X-52.272 Y28.546
X-52.666 Y28.763
X-53.081 Y28.938
X-53.51 Y29.076
X-53.952 Y29.163
X-54.4 Y29.212
X-54.85 Y29.214
X-55.298 Y29.165
X-55.74 Y29.078
X-56.169 Y28.939
X-56.582 Y28.761
X-56.977 Y28.544
X-57.344 Y28.283
X-57.69 Y27.994
X-57.998 Y27.666
X-58.271 Y27.307
X-58.51 Y26.926
X-58.704 Y26.519
X-58.862 Y26.097
X-58.975 Y25.661
X-59.039 Y25.215
X-59.064 Y24.766
X-59.036 Y24.316
X-58.966 Y23.871
X-58.873 Y23.43
X-58.774 Y22.991
X-58.7 Y22.584
X-58.663 Y22.22
X-58.656 Y21.931
X-58.672 Y21.673
X-58.708 Y21.412
X-58.77 Y21.134
X-58.843 Y20.9
X-58.925 Y20.696
X-59.025 Y20.494
X-59.147 Y20.292
X-59.19 Y20.231
X-59.272 Y20.148
X-59.376 Y20.094
X-59.491 Y20.076
X-60.229
G0 Z3
X-48.364 Y20.378
Z-2.682
G1 Z-2.841 F100
X-48.371 Y20.374 Z-2.89
X-48.39 Y20.363 Z-2.935
X-48.42 Y20.345 Z-2.97
X-48.458 Y20.322 Z-2.992
X-48.501 Y20.297 Z-3
G2 X-49.254 Y20.076 I-0.809 J1.36
G1 X-49.822 F800
X-49.972 Y20.083
X-50.117 Y20.122
X-50.252 Y20.186
X-50.376 Y20.271
X-50.488 Y20.371
X-50.588 Y20.483
X-50.677 Y20.603
X-50.756 Y20.731
X-50.837 Y20.889
X-50.91 Y21.067
X-50.972 Y21.26
X-51.029 Y21.501
X-51.07 Y21.768
X-51.091 Y22.072
X-51.088 Y22.455
X-51.047 Y22.904
X-50.978 Y23.349
X-50.91 Y23.794
X-50.862 Y24.242
X-50.846 Y24.692
X-50.872 Y25.142
X-50.945 Y25.587
X-51.071 Y26.019
X-51.246 Y26.434
X-51.47 Y26.825
X-51.736 Y27.188
X-52.044 Y27.517
X-52.388 Y27.808
X-52.767 Y28.052
X-53.172 Y28.25
X-53.597 Y28.398
X-54.037 Y28.496
X-54.485 Y28.542
X-54.935 Y28.531
X-55.381 Y28.466
X-55.815 Y28.348
X-56.234 Y28.181
X-56.629 Y27.965
X-56.996 Y27.705
X-57.328 Y27.399
X-57.62 Y27.057
X-57.87 Y26.682
X-58.075 Y26.281
X-58.231 Y25.858
X-58.333 Y25.419
X-58.382 Y24.972
X-58.376 Y24.521
X-58.326 Y24.074
X-58.25 Y23.63
X-58.166 Y23.187
X-58.096 Y22.742
X-58.057 Y22.334
X-58.051 Y21.981
X-58.074 Y21.635
X-58.122 Y21.311
X-58.19 Y21.012
X-58.279 Y20.73
X-58.383 Y20.475
X-58.467 Y20.309
X-58.501 Y20.254
X-58.584 Y20.159
X-58.693 Y20.097
X-58.817 Y20.076
X-59.491
G0 Z3
X-48.932 Y20.378
Z-2.682
G1 Z-2.841 F100
X-48.939 Y20.374 Z-2.89
X-48.958 Y20.363 Z-2.935
X-48.988 Y20.345 Z-2.97
X-49.026 Y20.322 Z-2.992
X-49.068 Y20.297 Z-3
G2 X-49.822 Y20.076 I-0.809 J1.36
G1 X-50.38 F800
X-50.529 Y20.083
X-50.674 Y20.124
X-50.808 Y20.191
X-50.931 Y20.277
X-51.041 Y20.379
X-51.141 Y20.491
X-51.23 Y20.612
X-51.32 Y20.759
X-51.402 Y20.919
X-51.48 Y21.11
X-51.554 Y21.341
X-51.611 Y21.584
X-51.656 Y21.885
X-51.681 Y22.255
X-51.676 Y22.683
X-51.634 Y23.132
X-51.578 Y23.579
X-51.529 Y24.027
X-51.506 Y24.477
X-51.523 Y24.927
X-51.591 Y25.372
X-51.714 Y25.805
X-51.899 Y26.216
X-52.14 Y26.597
X-52.432 Y26.94
X-52.769 Y27.238
X-53.148 Y27.482
X-53.558 Y27.667
X-53.991 Y27.792
X-54.437 Y27.853
X-54.888 Y27.85
X-55.332 Y27.777
X-55.762 Y27.641
X-56.167 Y27.445
X-56.54 Y27.192
X-56.872 Y26.887
X-57.153 Y26.536
X-57.382 Y26.148
X-57.553 Y25.731
X-57.662 Y25.294
X-57.704 Y24.845
X-57.69 Y24.395
X-57.639 Y23.947
X-57.571 Y23.502
X-57.505 Y23.057
X-57.456 Y22.609
X-57.437 Y22.162
X-57.454 Y21.746
X-57.5 Y21.359
X-57.574 Y20.996
X-57.666 Y20.675
X-57.744 Y20.469
X-57.82 Y20.307
X-57.846 Y20.262
X-57.929 Y20.163
X-58.041 Y20.098
X-58.168 Y20.076
X-58.817
G0 Z3
X-49.49 Y20.378
Z-2.682
G1 Z-2.841 F100
X-49.496 Y20.374 Z-2.89
X-49.516 Y20.363 Z-2.935
X-49.546 Y20.345 Z-2.97
X-49.584 Y20.322 Z-2.992
X-49.626 Y20.297 Z-3
G2 X-50.38 Y20.076 I-0.809 J1.36
G1 X-50.947 F800
X-51.097 Y20.083
X-51.24 Y20.129
X-51.373 Y20.199
X-51.494 Y20.287
X-51.603 Y20.39
X-51.703 Y20.502
X-51.796 Y20.63
X-51.889 Y20.782
X-51.974 Y20.948
X-52.06 Y21.159
X-52.135 Y21.392
X-52.2 Y21.67
X-52.252 Y22.015
X-52.278 Y22.39
X-52.273 Y22.841
X-52.239 Y23.29
X-52.195 Y23.738
X-52.166 Y24.187
X-52.17 Y24.638
X-52.224 Y25.085
X-52.342 Y25.52
X-52.53 Y25.929
X-52.788 Y26.298
X-53.108 Y26.616
X-53.48 Y26.869
X-53.894 Y27.046
X-54.334 Y27.142
X-54.784 Y27.157
X-55.229 Y27.083
X-55.651 Y26.927
X-56.038 Y26.696
X-56.374 Y26.396
X-56.646 Y26.037
X-56.846 Y25.633
X-56.97 Y25.2
X-57.017 Y24.752
X-57.007 Y24.302
X-56.964 Y23.853
X-56.909 Y23.406
X-56.858 Y22.959
X-56.826 Y22.51
X-56.822 Y22.059
X-56.849 Y21.61
X-56.908 Y21.189
X-56.988 Y20.836
X-57.072 Y20.564
X-57.14 Y20.394
X-57.206 Y20.26
X-57.21 Y20.254
X-57.293 Y20.159
X-57.402 Y20.097
X-57.527 Y20.076
X-58.168
G0 Z3
X-50.057 Y20.378
Z-2.682
G1 Z-2.841 F100
X-50.064 Y20.374 Z-2.89
X-50.083 Y20.363 Z-2.935
X-50.114 Y20.345 Z-2.97
X-50.152 Y20.322 Z-2.992
X-50.194 Y20.297 Z-3
G2 X-50.947 Y20.076 I-0.809 J1.36
G1 X-51.505 F800
X-51.655 Y20.083
X-51.801 Y20.119
X-51.937 Y20.182
X-52.062 Y20.264
X-52.177 Y20.361
X-52.281 Y20.469
X-52.374 Y20.587
X-52.458 Y20.711
X-52.533 Y20.841
X-52.6 Y20.975
X-52.659 Y21.113
X-52.71 Y21.254
X-52.756 Y21.397
X-52.794 Y21.542
X-52.827 Y21.688
X-52.855 Y21.835
X-52.876 Y21.984
X-52.894 Y22.133
X-52.907 Y22.282
X-52.915 Y22.432
X-52.92 Y22.582
X-52.921 Y22.732
X-52.919 Y22.882
X-52.915 Y23.032
X-52.905 Y23.269
X-52.884 Y23.719
X-52.871 Y24.17
X-52.892 Y24.62
X-52.981 Y25.061
X-53.152 Y25.478
X-53.416 Y25.843
X-53.764 Y26.13
X-53.97 Y26.22
X-54.4 Y26.354
X-54.625
X-55.072 Y26.299
X-55.278 Y26.208
X-55.662 Y25.973
X-55.962 Y25.637
X-56.154 Y25.229
X-56.246 Y24.789
X-56.267 Y24.339
X-56.245 Y23.889
X-56.197 Y23.328
X-56.185 Y23.178
X-56.175 Y23.028
X-56.167 Y22.879
X-56.16 Y22.729
X-56.155 Y22.579
X-56.153 Y22.429
Y22.279
X-56.156 Y22.129
X-56.162 Y21.979
X-56.171 Y21.829
X-56.182 Y21.68
X-56.198 Y21.531
X-56.217 Y21.382
X-56.239 Y21.233
X-56.266 Y21.086
X-56.296 Y20.939
X-56.331 Y20.793
X-56.372 Y20.649
X-56.418 Y20.506
X-56.472 Y20.366
X-56.509 Y20.287
X-56.591 Y20.176
X-56.708 Y20.102
X-56.844 Y20.076
X-57.527
G0 Z3
X-50.615 Y20.378
Z-2.682
G1 Z-2.841 F100
X-50.622 Y20.374 Z-2.89
X-50.641 Y20.363 Z-2.935
X-50.671 Y20.345 Z-2.97
X-50.709 Y20.322 Z-2.992
X-50.751 Y20.297 Z-3
G2 X-51.505 Y20.076 I-0.809 J1.36
G1 X-52.119 F800
X-52.269 Y20.083
X-52.411 Y20.131
X-52.543 Y20.202
X-52.665 Y20.29
X-52.775 Y20.391
X-52.875 Y20.503
X-52.974 Y20.633
X-53.071 Y20.786
X-53.169 Y20.97
X-53.263 Y21.188
X-53.349 Y21.444
X-53.426 Y21.75
X-53.489 Y22.123
X-53.527 Y22.572
X-53.529 Y22.685
Y22.797
X-53.563 Y22.905
X-53.628 Y22.997
X-53.808 Y23.133
X-54.234 Y23.277
X-54.443 Y23.314
X-54.552 Y23.342
X-54.661 Y23.374
X-54.773 Y23.371
X-54.88 Y23.335
X-54.971 Y23.269
X-55.118 Y23.099
X-55.338 Y22.706
X-55.446 Y22.268
X-55.514 Y21.823
X-55.579 Y21.377
X-55.662 Y20.934
X-55.743 Y20.629
X-55.808 Y20.444
X-55.869 Y20.307
X-55.89 Y20.268
X-55.973 Y20.166
X-56.086 Y20.099
X-56.215 Y20.076
X-56.844
G0 Z3
X-51.229 Y20.378
Z-2.682
G1 Z-2.841 F100
X-51.236 Y20.374 Z-2.89
X-51.255 Y20.363 Z-2.935
X-51.285 Y20.345 Z-2.97
X-51.323 Y20.322 Z-2.992
X-51.365 Y20.297 Z-3
G2 X-52.119 Y20.076 I-0.809 J1.36
G1 X-52.661 F800
X-52.811 Y20.083
X-52.955 Y20.125
X-53.09 Y20.192
X-53.213 Y20.278
X-53.326 Y20.376
X-53.429 Y20.485
X-53.532 Y20.616
X-53.63 Y20.763
X-53.737 Y20.955
X-53.831 Y21.16
X-53.927 Y21.425
X-53.957 Y21.534
X-54.011 Y21.753
X-54.036 Y21.862
X-54.08 Y21.966
G2 X-53.802 Y22.115 I0.148 J0.057 F100
G1 X-53.614 Y21.848
X-52.794 Y20.689 F800
X-52.537 Y20.326 F100
G2 X-52.661 Y20.076 I-0.13 J-0.092
G1 X-53.244 F800
X-53.394 Y20.083
X-53.54 Y20.117
X-53.678 Y20.178
X-53.805 Y20.257
X-53.921 Y20.352
X-54.028 Y20.457
X-54.125 Y20.571
X-54.214 Y20.693
X-54.293 Y20.82
X-54.347 Y20.919
G2 X-54.106 Y21.114 I0.142 J0.071 F100
G1 X-53.826 Y20.893
X-53.464 Y20.606 F800
X-53.151 Y20.359 F100
G2 X-53.244 Y20.076 I-0.098 J-0.125
G1 X-53.858 F800
X-54.008 Y20.083
X-54.152 Y20.125
X-54.253 Y20.175
X-54.362 Y20.204
X-54.587 Y20.194
X-54.852 Y20.098
X-54.893 Y20.086
X-54.935 Y20.078
X-54.978 Y20.076
G2 X-54.972 Y20.393 I0.006 J0.159 F100
G1 X-54.68
X-54.156 F800
X-53.864 F100
G2 X-53.858 Y20.076 J-0.159
G1 X-56.215 F800
G2 X-56.21 Y20.393 I0.006 J0.159 F100
G1 X-56.166 Y20.387
X-56.125 Y20.369
X-56.091 Y20.34
X-56.077 Y20.304 Z-2.994
X-56.063 Y20.269 Z-2.979
X-56.051 Y20.24 Z-2.955
Y20.235 Z-2.95
X-56.054 Y20.212 Z-2.918
X-56.056 Y20.197 Z-2.881
X-56.057 Y20.192 Z-2.841
G0 Z3
X-46.004 Y20.6
Z-3.515
G1 Z-3.674 F100
X-46.011 Y20.596 Z-3.723
X-46.03 Y20.584 Z-3.768
X-46.061 Y20.566 Z-3.803
X-46.099 Y20.544 Z-3.825
X-46.141 Y20.519 Z-3.833
G2 X-47.648 Y20.076 I-1.618 J2.721
G1 X-48.64 F800
X-48.79 Y20.083
X-48.936 Y20.117
X-49.072 Y20.18
X-49.199 Y20.26
X-49.334 Y20.364
X-49.446 Y20.464
X-49.547 Y20.575
X-49.633 Y20.698
X-49.717 Y20.847
X-49.816 Y21.059
X-49.869 Y21.201
X-49.909 Y21.346
X-49.934 Y21.494
X-49.95 Y21.688
X-49.951 Y21.964
X-49.928 Y22.27
X-49.857 Y22.715
X-49.755 Y23.153
X-49.639 Y23.589
X-49.569 Y24.034
X-49.535 Y24.483
X-49.516 Y24.933
X-49.556 Y25.382
X-49.637 Y25.825
X-49.735 Y26.265
X-49.89 Y26.687
X-50.084 Y27.094
X-50.293 Y27.493
X-50.554 Y27.86
X-50.847 Y28.202
X-51.153 Y28.532
X-51.501 Y28.818
X-51.874 Y29.072
X-52.256 Y29.31
X-52.667 Y29.495
X-53.092 Y29.643
X-53.523 Y29.773
X-53.968 Y29.844
X-54.418 Y29.875
X-54.868 Y29.888
X-55.316 Y29.84
X-55.758 Y29.752
X-56.196 Y29.647
X-56.615 Y29.483
X-57.019 Y29.282
X-57.414 Y29.066
X-57.776 Y28.798
X-58.113 Y28.499
X-58.438 Y28.188
X-58.717 Y27.834
X-58.964 Y27.457
X-59.196 Y27.071
X-59.373 Y26.657
X-59.513 Y26.229
X-59.636 Y25.796
X-59.698 Y25.35
X-59.721 Y24.9
X-59.727 Y24.449
X-59.67 Y24.002
X-59.574 Y23.562
X-59.462 Y23.126
X-59.357 Y22.688
X-59.308 Y22.468
X-59.28 Y22.312
X-59.261 Y22.103
X-59.256 Y21.798
X-59.272 Y21.569
X-59.294 Y21.421
X-59.334 Y21.257
X-59.407 Y21.039
X-59.519 Y20.776
X-59.589 Y20.643
X-59.673 Y20.519
X-59.794 Y20.368
X-59.96 Y20.192
X-60.038 Y20.129
X-60.13 Y20.089
X-60.229 Y20.076
X-61.486
G0 Z3
X-47.75 Y20.378
Z-3.515
G1 Z-3.674 F100
X-47.757 Y20.374 Z-3.723
X-47.776 Y20.363 Z-3.768
X-47.806 Y20.345 Z-3.803
X-47.844 Y20.322 Z-3.825
X-47.887 Y20.297 Z-3.833
G2 X-48.64 Y20.076 I-0.809 J1.36
G1 X-49.254 F800
X-49.404 Y20.083
X-49.549 Y20.12
X-49.685 Y20.183
X-49.81 Y20.266
X-49.924 Y20.364
X-50.027 Y20.473
X-50.12 Y20.591
X-50.202 Y20.716
X-50.273 Y20.848
X-50.34 Y21.001
X-50.397 Y21.165
X-50.447 Y21.361
X-50.488 Y21.594
X-50.51 Y21.834
X-50.514 Y22.159
X-50.487 Y22.537
X-50.42 Y22.982
X-50.326 Y23.423
X-50.25 Y23.867
X-50.2 Y24.315
X-50.182 Y24.765
X-50.211 Y25.214
X-50.276 Y25.66
X-50.387 Y26.097
X-50.545 Y26.518
X-50.74 Y26.925
X-50.98 Y27.306
X-51.255 Y27.663
X-51.563 Y27.991
X-51.906 Y28.283
X-52.272 Y28.546
X-52.666 Y28.763
X-53.081 Y28.938
X-53.51 Y29.076
X-53.952 Y29.163
X-54.4 Y29.212
X-54.85 Y29.214
X-55.298 Y29.165
X-55.74 Y29.078
X-56.169 Y28.939
X-56.582 Y28.761
X-56.977 Y28.544
X-57.344 Y28.283
X-57.69 Y27.994
X-57.998 Y27.666
X-58.271 Y27.307
X-58.51 Y26.926
X-58.704 Y26.519
X-58.862 Y26.097
X-58.975 Y25.661
X-59.039 Y25.215
X-59.064 Y24.766
X-59.036 Y24.316
X-58.966 Y23.871
X-58.873 Y23.43
X-58.774 Y22.991
X-58.7 Y22.584
X-58.663 Y22.22
X-58.656 Y21.931
X-58.672 Y21.673
X-58.708 Y21.412
X-58.77 Y21.134
X-58.843 Y20.9
X-58.925 Y20.696
X-59.025 Y20.494
X-59.147 Y20.292
X-59.19 Y20.231
X-59.272 Y20.148
X-59.376 Y20.094
X-59.491 Y20.076
X-60.229
G0 Z3
X-48.364 Y20.378
Z-3.515
G1 Z-3.674 F100
X-48.371 Y20.374 Z-3.723
X-48.39 Y20.363 Z-3.768
X-48.42 Y20.345 Z-3.803
X-48.458 Y20.322 Z-3.825
X-48.501 Y20.297 Z-3.833
G2 X-49.254 Y20.076 I-0.809 J1.36
G1 X-49.822 F800
X-49.972 Y20.083
X-50.117 Y20.122
X-50.252 Y20.186
X-50.376 Y20.271
X-50.488 Y20.371
X-50.588 Y20.483
X-50.677 Y20.603
X-50.756 Y20.731
X-50.837 Y20.889
X-50.91 Y21.067
X-50.972 Y21.26
X-51.029 Y21.501
X-51.07 Y21.768
X-51.091 Y22.072
X-51.088 Y22.455
X-51.047 Y22.904
X-50.978 Y23.349
X-50.91 Y23.794
X-50.862 Y24.242
X-50.846 Y24.692
X-50.872 Y25.142
X-50.945 Y25.587
X-51.071 Y26.019
X-51.246 Y26.434
X-51.47 Y26.825
X-51.736 Y27.188
X-52.044 Y27.517
X-52.388 Y27.808
X-52.767 Y28.052
X-53.172 Y28.25
X-53.597 Y28.398
X-54.037 Y28.496
X-54.485 Y28.542
X-54.935 Y28.531
X-55.381 Y28.466
X-55.815 Y28.348
X-56.234 Y28.181
X-56.629 Y27.965
X-56.996 Y27.705
X-57.328 Y27.399
X-57.62 Y27.057
X-57.87 Y26.682
X-58.075 Y26.281
X-58.231 Y25.858
X-58.333 Y25.419
X-58.382 Y24.972
X-58.376 Y24.521
X-58.326 Y24.074
X-58.25 Y23.63
X-58.166 Y23.187
X-58.096 Y22.742
X-58.057 Y22.334
X-58.051 Y21.981
X-58.074 Y21.635
X-58.122 Y21.311
X-58.19 Y21.012
X-58.279 Y20.73
X-58.383 Y20.475
X-58.467 Y20.309
X-58.501 Y20.254
X-58.584 Y20.159
X-58.693 Y20.097
X-58.817 Y20.076
X-59.491
G0 Z3
X-48.932 Y20.378
Z-3.515
G1 Z-3.674 F100
X-48.939 Y20.374 Z-3.723
X-48.958 Y20.363 Z-3.768
X-48.988 Y20.345 Z-3.803
X-49.026 Y20.322 Z-3.825
X-49.068 Y20.297 Z-3.833
G2 X-49.822 Y20.076 I-0.809 J1.36
G1 X-50.38 F800
X-50.529 Y20.083
X-50.674 Y20.124
X-50.808 Y20.191
X-50.931 Y20.277
X-51.041 Y20.379
X-51.141 Y20.491
X-51.23 Y20.612
X-51.32 Y20.759
X-51.402 Y20.919
X-51.48 Y21.11
X-51.554 Y21.341
X-51.611 Y21.584
X-51.656 Y21.885
X-51.681 Y22.255
X-51.676 Y22.683
X-51.634 Y23.132
X-51.578 Y23.579
X-51.529 Y24.027
X-51.506 Y24.477
X-51.523 Y24.927
X-51.591 Y25.372
X-51.714 Y25.805
X-51.899 Y26.216
X-52.14 Y26.597
X-52.432 Y26.94
X-52.769 Y27.238
X-53.148 Y27.482
X-53.558 Y27.667
X-53.991 Y27.792
X-54.437 Y27.853
X-54.888 Y27.85
X-55.332 Y27.777
X-55.762 Y27.641
X-56.167 Y27.445
X-56.54 Y27.192
X-56.872 Y26.887
X-57.153 Y26.536
X-57.382 Y26.148
X-57.553 Y25.731
X-57.662 Y25.294
X-57.704 Y24.845
X-57.69 Y24.395
X-57.639 Y23.947
X-57.571 Y23.502
X-57.505 Y23.057
X-57.456 Y22.609
X-57.437 Y22.162
X-57.454 Y21.746
X-57.5 Y21.359
X-57.574 Y20.996
X-57.666 Y20.675
X-57.744 Y20.469
X-57.82 Y20.307
X-57.846 Y20.262
X-57.929 Y20.163
X-58.041 Y20.098
X-58.168 Y20.076
X-58.817
G0 Z3
X-49.49 Y20.378
Z-3.515
G1 Z-3.674 F100
X-49.496 Y20.374 Z-3.723
X-49.516 Y20.363 Z-3.768
X-49.546 Y20.345 Z-3.803
X-49.584 Y20.322 Z-3.825
X-49.626 Y20.297 Z-3.833
G2 X-50.38 Y20.076 I-0.809 J1.36
G1 X-50.947 F800
X-51.097 Y20.083
X-51.24 Y20.129
X-51.373 Y20.199
X-51.494 Y20.287
X-51.603 Y20.39
X-51.703 Y20.502
X-51.796 Y20.63
X-51.889 Y20.782
X-51.974 Y20.948
X-52.06 Y21.159
X-52.135 Y21.392
X-52.2 Y21.67
X-52.252 Y22.015
X-52.278 Y22.39
X-52.273 Y22.841
X-52.239 Y23.29
X-52.195 Y23.738
X-52.166 Y24.187
X-52.17 Y24.638
X-52.224 Y25.085
X-52.342 Y25.52
X-52.53 Y25.929
X-52.788 Y26.298
X-53.108 Y26.616
X-53.48 Y26.869
X-53.894 Y27.046
X-54.334 Y27.142
X-54.784 Y27.157
X-55.229 Y27.083
X-55.651 Y26.927
X-56.038 Y26.696
X-56.374 Y26.396
X-56.646 Y26.037
X-56.846 Y25.633
X-56.97 Y25.2
X-57.017 Y24.752
X-57.007 Y24.302
X-56.964 Y23.853
X-56.909 Y23.406
X-56.858 Y22.959
X-56.826 Y22.51
X-56.822 Y22.059
X-56.849 Y21.61
X-56.908 Y21.189
X-56.988 Y20.836
X-57.072 Y20.564
X-57.14 Y20.394
X-57.206 Y20.26
X-57.21 Y20.254
X-57.293 Y20.159
X-57.402 Y20.097
X-57.527 Y20.076
X-58.168
G0 Z3
X-50.057 Y20.378
Z-3.515
G1 Z-3.674 F100
X-50.064 Y20.374 Z-3.723
X-50.083 Y20.363 Z-3.768
X-50.114 Y20.345 Z-3.803
X-50.152 Y20.322 Z-3.825
X-50.194 Y20.297 Z-3.833
G2 X-50.947 Y20.076 I-0.809 J1.36
G1 X-51.505 F800
X-51.655 Y20.083
X-51.801 Y20.119
X-51.937 Y20.182
X-52.062 Y20.264
X-52.177 Y20.361
X-52.281 Y20.469
X-52.374 Y20.587
X-52.458 Y20.711
X-52.533 Y20.841
X-52.6 Y20.975
X-52.659 Y21.113
X-52.71 Y21.254
X-52.756 Y21.397
X-52.794 Y21.542
X-52.827 Y21.688
X-52.855 Y21.835
X-52.876 Y21.984
X-52.894 Y22.133
X-52.907 Y22.282
X-52.915 Y22.432
X-52.92 Y22.582
X-52.921 Y22.732
X-52.919 Y22.882
X-52.915 Y23.032
X-52.905 Y23.269
X-52.884 Y23.719
X-52.871 Y24.17
X-52.892 Y24.62
X-52.981 Y25.061
X-53.152 Y25.478
X-53.416 Y25.843
X-53.764 Y26.13
X-53.97 Y26.22
X-54.4 Y26.354
X-54.625
X-55.072 Y26.299
X-55.278 Y26.208
X-55.662 Y25.973
X-55.962 Y25.637
X-56.154 Y25.229
X-56.246 Y24.789
X-56.267 Y24.339
X-56.245 Y23.889
X-56.197 Y23.328
X-56.185 Y23.178
X-56.175 Y23.028
X-56.167 Y22.879
X-56.16 Y22.729
X-56.155 Y22.579
X-56.153 Y22.429
Y22.279
X-56.156 Y22.129
X-56.162 Y21.979
X-56.171 Y21.829
X-56.182 Y21.68
X-56.198 Y21.531
X-56.217 Y21.382
X-56.239 Y21.233
X-56.266 Y21.086
X-56.296 Y20.939
X-56.331 Y20.793
X-56.372 Y20.649
X-56.418 Y20.506
X-56.472 Y20.366
X-56.509 Y20.287
X-56.591 Y20.176
X-56.708 Y20.102
X-56.844 Y20.076
X-57.527
G0 Z3
X-50.615 Y20.378
Z-3.515
G1 Z-3.674 F100
X-50.622 Y20.374 Z-3.723
X-50.641 Y20.363 Z-3.768
X-50.671 Y20.345 Z-3.803
X-50.709 Y20.322 Z-3.825
X-50.751 Y20.297 Z-3.833
G2 X-51.505 Y20.076 I-0.809 J1.36
G1 X-52.119 F800
X-52.269 Y20.083
X-52.411 Y20.131
X-52.543 Y20.202
X-52.665 Y20.29
X-52.775 Y20.391
X-52.875 Y20.503
X-52.974 Y20.633
X-53.071 Y20.786
X-53.169 Y20.97
X-53.263 Y21.188
X-53.349 Y21.444
X-53.426 Y21.75
X-53.489 Y22.123
X-53.527 Y22.572
X-53.529 Y22.685
Y22.797
X-53.563 Y22.905
X-53.628 Y22.997
X-53.808 Y23.133
X-54.234 Y23.277
X-54.443 Y23.314
X-54.552 Y23.342
X-54.661 Y23.374
X-54.773 Y23.371
X-54.88 Y23.335
X-54.971 Y23.269
X-55.118 Y23.099
X-55.338 Y22.706
X-55.446 Y22.268
X-55.514 Y21.823
X-55.579 Y21.377
X-55.662 Y20.934
X-55.743 Y20.629
X-55.808 Y20.444
X-55.869 Y20.307
X-55.89 Y20.268
X-55.973 Y20.166
X-56.086 Y20.099
X-56.215 Y20.076
X-56.844
G0 Z3
X-51.229 Y20.378
Z-3.515
G1 Z-3.674 F100
X-51.236 Y20.374 Z-3.723
X-51.255 Y20.363 Z-3.768
X-51.285 Y20.345 Z-3.803
X-51.323 Y20.322 Z-3.825
X-51.365 Y20.297 Z-3.833
G2 X-52.119 Y20.076 I-0.809 J1.36
G1 X-52.661 F800
X-52.811 Y20.083
X-52.955 Y20.125
X-53.09 Y20.192
X-53.213 Y20.278
X-53.326 Y20.376
X-53.429 Y20.485
X-53.532 Y20.616
X-53.63 Y20.763
X-53.737 Y20.955
X-53.831 Y21.16
X-53.927 Y21.425
X-53.957 Y21.534
X-54.011 Y21.753
X-54.036 Y21.862
X-54.08 Y21.966
G2 X-53.802 Y22.115 I0.148 J0.057 F100
G1 X-53.614 Y21.848
X-52.794 Y20.689 F800
X-52.537 Y20.326 F100
G2 X-52.661 Y20.076 I-0.13 J-0.092
G1 X-53.244 F800
X-53.394 Y20.083
X-53.54 Y20.117
X-53.678 Y20.178
X-53.805 Y20.257
X-53.921 Y20.352
X-54.028 Y20.457
X-54.125 Y20.571
X-54.214 Y20.693
X-54.293 Y20.82
X-54.347 Y20.919
G2 X-54.106 Y21.114 I0.142 J0.071 F100
G1 X-53.826 Y20.893
X-53.464 Y20.606 F800
X-53.151 Y20.359 F100
G2 X-53.244 Y20.076 I-0.098 J-0.125
G1 X-53.858 F800
X-54.008 Y20.083
X-54.152 Y20.125
X-54.253 Y20.175
X-54.362 Y20.204
X-54.587 Y20.194
X-54.852 Y20.098
X-54.893 Y20.086
X-54.935 Y20.078
X-54.978 Y20.076
G2 X-54.972 Y20.393 I0.006 J0.159 F100
G1 X-54.68
X-54.156 F800
X-53.864 F100
G2 X-53.858 Y20.076 J-0.159
G1 X-56.215 F800
G2 X-56.21 Y20.393 I0.006 J0.159 F100
X-56.057 Y20.192 J-0.159
G0 Z6
X-63.247 Y7.965
Z3
Z-0.683
G1 Z-0.841 F100
X-63.24 Y7.969 Z-0.89
X-63.221 Y7.98 Z-0.935
X-63.191 Y7.998 Z-0.97
X-63.153 Y8.021 Z-0.992
X-63.11 Y8.046 Z-1
G2 X-61.603 Y8.488 I1.618 J-2.721
G1 X-60.611 F800
X-60.461 Y8.481
X-60.315 Y8.447
X-60.179 Y8.384
X-60.052 Y8.305
X-59.917 Y8.201
X-59.806 Y8.1
X-59.705 Y7.989
X-59.619 Y7.866
X-59.534 Y7.717
X-59.435 Y7.505
X-59.383 Y7.363
X-59.342 Y7.219
X-59.317 Y7.071
X-59.301 Y6.876
X-59.3 Y6.6
X-59.324 Y6.294
X-59.394 Y5.85
X-59.497 Y5.411
X-59.612 Y4.975
X-59.682 Y4.531
X-59.717 Y4.081
X-59.735 Y3.631
X-59.695 Y3.183
X-59.615 Y2.739
X-59.516 Y2.3
X-59.361 Y1.877
X-59.168 Y1.47
X-58.958 Y1.071
X-58.697 Y0.704
X-58.404 Y0.362
X-58.098 Y0.032
X-57.75 Y-0.254
X-57.378 Y-0.508
X-56.995 Y-0.746
X-56.585 Y-0.931
X-56.159 Y-1.078
X-55.728 Y-1.209
X-55.283 Y-1.28
X-54.834 Y-1.31
X-54.383 Y-1.323
X-53.936 Y-1.275
X-53.494 Y-1.187
X-53.056 Y-1.082
X-52.636 Y-0.918
X-52.233 Y-0.718
X-51.837 Y-0.502
X-51.475 Y-0.234
X-51.138 Y0.065
X-50.813 Y0.377
X-50.534 Y0.73
X-50.287 Y1.107
X-50.055 Y1.493
X-49.878 Y1.907
X-49.738 Y2.335
X-49.615 Y2.769
X-49.553 Y3.215
X-49.53 Y3.665
X-49.524 Y4.115
X-49.581 Y4.562
X-49.677 Y5.002
X-49.789 Y5.438
X-49.894 Y5.876
X-49.944 Y6.096
X-49.971 Y6.252
X-49.991 Y6.462
X-49.995 Y6.767
X-49.98 Y6.995
X-49.958 Y7.144
X-49.917 Y7.308
X-49.845 Y7.525
X-49.732 Y7.788
X-49.663 Y7.921
X-49.579 Y8.045
X-49.458 Y8.196
X-49.291 Y8.372
X-49.213 Y8.435
X-49.121 Y8.475
X-49.022 Y8.488
X-47.765
G0 Z3
X-61.501 Y8.186
Z-0.683
G1 Z-0.841 F100
X-61.494 Y8.19 Z-0.89
X-61.475 Y8.201 Z-0.935
X-61.445 Y8.219 Z-0.97
X-61.407 Y8.242 Z-0.992
X-61.365 Y8.267 Z-1
G2 X-60.611 Y8.488 I0.809 J-1.36
G1 X-59.997 F800
X-59.847 Y8.481
X-59.702 Y8.444
X-59.566 Y8.381
X-59.441 Y8.298
X-59.327 Y8.2
X-59.224 Y8.091
X-59.131 Y7.973
X-59.049 Y7.848
X-58.978 Y7.716
X-58.911 Y7.564
X-58.854 Y7.399
X-58.804 Y7.203
X-58.764 Y6.971
X-58.741 Y6.73
X-58.738 Y6.405
X-58.764 Y6.027
X-58.831 Y5.582
X-58.925 Y5.141
X-59.001 Y4.697
X-59.051 Y4.25
X-59.069 Y3.8
X-59.04 Y3.35
X-58.975 Y2.904
X-58.865 Y2.468
X-58.706 Y2.046
X-58.512 Y1.64
X-58.271 Y1.259
X-57.997 Y0.902
X-57.688 Y0.573
X-57.345 Y0.282
X-56.98 Y0.018
X-56.585 Y-0.198
X-56.17 Y-0.374
X-55.741 Y-0.511
X-55.299 Y-0.599
X-54.851 Y-0.648
X-54.401 Y-0.649
X-53.953 Y-0.601
X-53.511 Y-0.514
X-53.083 Y-0.375
X-52.669 Y-0.197
X-52.274 Y0.021
X-51.907 Y0.281
X-51.562 Y0.57
X-51.253 Y0.899
X-50.981 Y1.257
X-50.741 Y1.639
X-50.547 Y2.045
X-50.389 Y2.467
X-50.276 Y2.903
X-50.213 Y3.349
X-50.187 Y3.799
X-50.215 Y4.248
X-50.286 Y4.693
X-50.378 Y5.134
X-50.477 Y5.574
X-50.552 Y5.98
X-50.589 Y6.344
X-50.595 Y6.634
X-50.58 Y6.891
X-50.543 Y7.152
X-50.481 Y7.43
X-50.408 Y7.664
X-50.326 Y7.869
X-50.226 Y8.07
X-50.105 Y8.273
X-50.061 Y8.334
X-49.979 Y8.417
X-49.875 Y8.47
X-49.76 Y8.488
X-49.022
G0 Z3
X-60.887 Y8.186
Z-0.683
G1 Z-0.841 F100
X-60.881 Y8.19 Z-0.89
X-60.861 Y8.201 Z-0.935
X-60.831 Y8.219 Z-0.97
X-60.793 Y8.242 Z-0.992
X-60.751 Y8.267 Z-1
G2 X-59.997 Y8.488 I0.809 J-1.36
G1 X-59.429 F800
X-59.28 Y8.481
X-59.134 Y8.443
X-58.999 Y8.378
X-58.875 Y8.293
X-58.763 Y8.193
X-58.663 Y8.082
X-58.574 Y7.961
X-58.495 Y7.833
X-58.415 Y7.676
X-58.341 Y7.497
X-58.279 Y7.305
X-58.222 Y7.064
X-58.181 Y6.796
X-58.16 Y6.492
X-58.163 Y6.109
X-58.204 Y5.66
X-58.273 Y5.215
X-58.341 Y4.77
X-58.39 Y4.322
X-58.405 Y3.872
X-58.379 Y3.422
X-58.306 Y2.978
X-58.18 Y2.545
X-58.005 Y2.13
X-57.782 Y1.739
X-57.515 Y1.376
X-57.207 Y1.047
X-56.863 Y0.757
X-56.485 Y0.512
X-56.08 Y0.315
X-55.654 Y0.167
X-55.215 Y0.068
X-54.767 Y0.022
X-54.316 Y0.034
X-53.871 Y0.098
X-53.436 Y0.216
X-53.018 Y0.383
X-52.623 Y0.6
X-52.255 Y0.86
X-51.924 Y1.165
X-51.631 Y1.508
X-51.381 Y1.883
X-51.177 Y2.284
X-51.02 Y2.706
X-50.918 Y3.145
X-50.869 Y3.593
X-50.875 Y4.043
X-50.925 Y4.491
X-51.001 Y4.935
X-51.085 Y5.377
X-51.156 Y5.822
X-51.195 Y6.23
X-51.2 Y6.584
X-51.177 Y6.929
X-51.13 Y7.253
X-51.061 Y7.552
X-50.972 Y7.834
X-50.868 Y8.089
X-50.784 Y8.256
X-50.75 Y8.311
X-50.668 Y8.406
X-50.558 Y8.467
X-50.434 Y8.488
X-49.76
G0 Z3
X-60.319 Y8.186
Z-0.683
G1 Z-0.841 F100
X-60.313 Y8.19 Z-0.89
X-60.293 Y8.201 Z-0.935
X-60.263 Y8.219 Z-0.97
X-60.225 Y8.242 Z-0.992
X-60.183 Y8.267 Z-1
G2 X-59.429 Y8.488 I0.809 J-1.36
G1 X-58.872 F800
X-58.722 Y8.481
X-58.577 Y8.441
X-58.443 Y8.374
X-58.321 Y8.287
X-58.21 Y8.186
X-58.111 Y8.074
X-58.022 Y7.953
X-57.931 Y7.806
X-57.85 Y7.645
X-57.771 Y7.454
X-57.697 Y7.223
X-57.641 Y6.98
X-57.596 Y6.679
X-57.57 Y6.31
X-57.575 Y5.881
X-57.617 Y5.432
X-57.673 Y4.986
X-57.722 Y4.538
X-57.745 Y4.088
X-57.728 Y3.638
X-57.661 Y3.192
X-57.537 Y2.759
X-57.352 Y2.349
X-57.111 Y1.968
X-56.82 Y1.625
X-56.482 Y1.327
X-56.104 Y1.082
X-55.693 Y0.897
X-55.26 Y0.772
X-54.814 Y0.711
X-54.363 Y0.714
X-53.919 Y0.787
X-53.49 Y0.924
X-53.084 Y1.12
X-52.711 Y1.372
X-52.38 Y1.677
X-52.098 Y2.029
X-51.869 Y2.417
X-51.698 Y2.834
X-51.589 Y3.271
X-51.547 Y3.719
X-51.562 Y4.169
X-51.612 Y4.617
X-51.68 Y5.062
X-51.746 Y5.508
X-51.796 Y5.955
X-51.814 Y6.402
X-51.798 Y6.818
X-51.751 Y7.206
X-51.677 Y7.568
X-51.585 Y7.889
X-51.507 Y8.095
X-51.431 Y8.257
X-51.405 Y8.303
X-51.322 Y8.401
X-51.211 Y8.466
X-51.084 Y8.488
X-50.434
G0 Z3
X-59.762 Y8.186
Z-0.683
G1 Z-0.841 F100
X-59.755 Y8.19 Z-0.89
X-59.736 Y8.201 Z-0.935
X-59.705 Y8.219 Z-0.97
X-59.667 Y8.242 Z-0.992
X-59.625 Y8.267 Z-1
G2 X-58.872 Y8.488 I0.809 J-1.36
G1 X-58.304 F800
X-58.154 Y8.481
X-58.011 Y8.436
X-57.878 Y8.366
X-57.757 Y8.277
X-57.648 Y8.175
X-57.549 Y8.062
X-57.456 Y7.935
X-57.362 Y7.783
X-57.278 Y7.616
X-57.191 Y7.406
X-57.116 Y7.172
X-57.051 Y6.895
X-56.999 Y6.55
X-56.973 Y6.174
X-56.978 Y5.724
X-57.013 Y5.275
X-57.056 Y4.826
X-57.086 Y4.377
X-57.082 Y3.926
X-57.027 Y3.479
X-56.91 Y3.044
X-56.722 Y2.635
X-56.463 Y2.266
X-56.144 Y1.949
X-55.772 Y1.695
X-55.357 Y1.519
X-54.917 Y1.422
X-54.467 Y1.408
X-54.022 Y1.481
X-53.6 Y1.637
X-53.213 Y1.868
X-52.877 Y2.168
X-52.606 Y2.528
X-52.405 Y2.931
X-52.281 Y3.364
X-52.235 Y3.812
X-52.245 Y4.262
X-52.287 Y4.711
X-52.343 Y5.158
X-52.393 Y5.606
X-52.425 Y6.055
X-52.43 Y6.505
X-52.402 Y6.955
X-52.343 Y7.375
X-52.264 Y7.729
X-52.18 Y8
X-52.112 Y8.17
X-52.045 Y8.304
X-52.041 Y8.31
X-51.959 Y8.405
X-51.849 Y8.467
X-51.725 Y8.488
X-51.084
G0 Z3
X-59.194 Y8.186
Z-0.683
G1 Z-0.841 F100
X-59.187 Y8.19 Z-0.89
X-59.168 Y8.201 Z-0.935
X-59.138 Y8.219 Z-0.97
X-59.1 Y8.242 Z-0.992
X-59.057 Y8.267 Z-1
G2 X-58.304 Y8.488 I0.809 J-1.36
G1 X-57.746 F800
X-57.596 Y8.481
X-57.451 Y8.445
X-57.314 Y8.383
X-57.189 Y8.301
X-57.075 Y8.203
X-56.971 Y8.095
X-56.877 Y7.978
X-56.793 Y7.854
X-56.718 Y7.724
X-56.651 Y7.59
X-56.593 Y7.451
X-56.541 Y7.311
X-56.496 Y7.168
X-56.457 Y7.023
X-56.424 Y6.876
X-56.397 Y6.729
X-56.375 Y6.58
X-56.358 Y6.431
X-56.345 Y6.282
X-56.336 Y6.132
X-56.332 Y5.982
X-56.33 Y5.832
X-56.332 Y5.682
X-56.336 Y5.532
X-56.346 Y5.295
X-56.367 Y4.845
X-56.381 Y4.395
X-56.359 Y3.945
X-56.27 Y3.503
X-56.099 Y3.086
X-55.835 Y2.721
X-55.488 Y2.435
X-55.282 Y2.344
X-54.852 Y2.21
X-54.626
X-54.179 Y2.266
X-53.973 Y2.356
X-53.589 Y2.591
X-53.289 Y2.927
X-53.097 Y3.335
X-53.005 Y3.776
X-52.985 Y4.226
X-53.006 Y4.676
X-53.054 Y5.237
X-53.066 Y5.386
X-53.076 Y5.536
X-53.084 Y5.686
X-53.091 Y5.836
X-53.096 Y5.986
X-53.098 Y6.136
Y6.286
X-53.096 Y6.436
X-53.09 Y6.585
X-53.081 Y6.735
X-53.069 Y6.885
X-53.054 Y7.034
X-53.035 Y7.183
X-53.012 Y7.331
X-52.986 Y7.479
X-52.955 Y7.626
X-52.92 Y7.771
X-52.88 Y7.916
X-52.834 Y8.059
X-52.779 Y8.198
X-52.742 Y8.277
X-52.66 Y8.389
X-52.543 Y8.463
X-52.407 Y8.488
X-51.725
G0 Z3
X-58.636 Y8.186
Z-0.683
G1 Z-0.841 F100
X-58.63 Y8.19 Z-0.89
X-58.61 Y8.201 Z-0.935
X-58.58 Y8.219 Z-0.97
X-58.542 Y8.242 Z-0.992
X-58.5 Y8.267 Z-1
G2 X-57.746 Y8.488 I0.809 J-1.36
G1 X-57.132 F800
X-56.983 Y8.481
X-56.84 Y8.433
X-56.708 Y8.363
X-56.587 Y8.274
X-56.476 Y8.173
X-56.376 Y8.061
X-56.278 Y7.931
X-56.18 Y7.778
X-56.083 Y7.595
X-55.989 Y7.376
X-55.902 Y7.12
X-55.825 Y6.815
X-55.763 Y6.441
X-55.724 Y5.992
X-55.723 Y5.88
X-55.722 Y5.767
X-55.688 Y5.66
X-55.623 Y5.568
X-55.444 Y5.431
X-55.017 Y5.287
X-54.808 Y5.25
X-54.699 Y5.222
X-54.591 Y5.191
X-54.478 Y5.193
X-54.372 Y5.229
X-54.281 Y5.296
X-54.133 Y5.466
X-53.913 Y5.859
X-53.805 Y6.296
X-53.738 Y6.742
X-53.673 Y7.187
X-53.59 Y7.63
X-53.509 Y7.936
X-53.443 Y8.12
X-53.382 Y8.257
X-53.361 Y8.296
X-53.278 Y8.398
X-53.165 Y8.465
X-53.036 Y8.488
X-52.407
G0 Z3
X-58.022 Y8.186
Z-0.683
G1 Z-0.841 F100
X-58.016 Y8.19 Z-0.89
X-57.996 Y8.201 Z-0.935
X-57.966 Y8.219 Z-0.97
X-57.928 Y8.242 Z-0.992
X-57.886 Y8.267 Z-1
G2 X-57.132 Y8.488 I0.809 J-1.36
G1 X-56.59 F800
X-56.44 Y8.481
X-56.296 Y8.439
X-56.162 Y8.372
X-56.038 Y8.287
X-55.925 Y8.188
X-55.823 Y8.079
X-55.72 Y7.949
X-55.621 Y7.801
X-55.514 Y7.609
X-55.42 Y7.405
X-55.324 Y7.139
X-55.294 Y7.031
X-55.241 Y6.812
X-55.216 Y6.702
X-55.171 Y6.598
G2 X-55.449 Y6.45 I-0.148 J-0.057 F100
G1 X-55.637 Y6.716
X-56.458 Y7.876 F800
X-56.714 Y8.238 F100
G2 X-56.59 Y8.488 I0.13 J0.092
G1 X-56.007 F800
X-55.857 Y8.481
X-55.711 Y8.447
X-55.574 Y8.387
X-55.447 Y8.307
X-55.33 Y8.213
X-55.223 Y8.107
X-55.126 Y7.993
X-55.038 Y7.872
X-54.958 Y7.745
X-54.905 Y7.646
G2 X-55.145 Y7.45 I-0.142 J-0.071 F100
G1 X-55.425 Y7.672
X-55.787 Y7.958 F800
X-56.1 Y8.205 F100
G2 X-56.007 Y8.488 I0.098 J0.125
G1 X-55.393 F800
X-55.243 Y8.481
X-55.099 Y8.439
X-54.998 Y8.389
X-54.889 Y8.361
X-54.664 Y8.371
X-54.4 Y8.466
X-54.359 Y8.479
X-54.316 Y8.486
X-54.274 Y8.488
G2 X-54.279 Y8.171 I-0.006 J-0.159 F100
G1 X-54.571
X-55.095 F800
X-55.387 F100
G2 X-55.393 Y8.488 J0.159
G1 X-53.036 F800
G2 X-53.041 Y8.171 I-0.006 J-0.159 F100
G1 X-53.042
X-53.086 Y8.177
X-53.126 Y8.195
X-53.16 Y8.224
X-53.175 Y8.261 Z-0.994
X-53.188 Y8.295 Z-0.979
X-53.2 Y8.325 Z-0.955
Y8.33 Z-0.95
X-53.197 Y8.353 Z-0.918
X-53.195 Y8.367 Z-0.881
Y8.372 Z-0.841
G0 Z3
X-63.247 Y7.965
Z-1.683
G1 Z-1.841 F100
X-63.24 Y7.969 Z-1.89
X-63.221 Y7.98 Z-1.935
X-63.191 Y7.998 Z-1.97
X-63.153 Y8.021 Z-1.992
X-63.11 Y8.046 Z-2
G2 X-61.603 Y8.488 I1.618 J-2.721
G1 X-60.611 F800
X-60.461 Y8.481
X-60.315 Y8.447
X-60.179 Y8.384
X-60.052 Y8.305
X-59.917 Y8.201
X-59.806 Y8.1
X-59.705 Y7.989
X-59.619 Y7.866
X-59.534 Y7.717
X-59.435 Y7.505
X-59.383 Y7.363
X-59.342 Y7.219
X-59.317 Y7.071
X-59.301 Y6.876
X-59.3 Y6.6
X-59.324 Y6.294
X-59.394 Y5.85
X-59.497 Y5.411
X-59.612 Y4.975
X-59.682 Y4.531
X-59.717 Y4.081
X-59.735 Y3.631
X-59.695 Y3.183
X-59.615 Y2.739
X-59.516 Y2.3
X-59.361 Y1.877
X-59.168 Y1.47
X-58.958 Y1.071
X-58.697 Y0.704
X-58.404 Y0.362
X-58.098 Y0.032
X-57.75 Y-0.254
X-57.378 Y-0.508
X-56.995 Y-0.746
X-56.585 Y-0.931
X-56.159 Y-1.078
X-55.728 Y-1.209
X-55.283 Y-1.28
X-54.834 Y-1.31
X-54.383 Y-1.323
X-53.936 Y-1.275
X-53.494 Y-1.187
X-53.056 Y-1.082
X-52.636 Y-0.918
X-52.233 Y-0.718
X-51.837 Y-0.502
X-51.475 Y-0.234
X-51.138 Y0.065
X-50.813 Y0.377
X-50.534 Y0.73
X-50.287 Y1.107
X-50.055 Y1.493
X-49.878 Y1.907
X-49.738 Y2.335
X-49.615 Y2.769
X-49.553 Y3.215
X-49.53 Y3.665
X-49.524 Y4.115
X-49.581 Y4.562
X-49.677 Y5.002
X-49.789 Y5.438
X-49.894 Y5.876
X-49.944 Y6.096
X-49.971 Y6.252
X-49.991 Y6.462
X-49.995 Y6.767
X-49.98 Y6.995
X-49.958 Y7.144
X-49.917 Y7.308
X-49.845 Y7.525
X-49.732 Y7.788
X-49.663 Y7.921
X-49.579 Y8.045
X-49.458 Y8.196
X-49.291 Y8.372
X-49.213 Y8.435
X-49.121 Y8.475
X-49.022 Y8.488
X-47.765
G0 Z3
X-61.501 Y8.186
Z-1.683
G1 Z-1.841 F100
X-61.494 Y8.19 Z-1.89
X-61.475 Y8.201 Z-1.935
X-61.445 Y8.219 Z-1.97
X-61.407 Y8.242 Z-1.992
X-61.365 Y8.267 Z-2
G2 X-60.611 Y8.488 I0.809 J-1.36
G1 X-59.997 F800
X-59.847 Y8.481
X-59.702 Y8.444
X-59.566 Y8.381
X-59.441 Y8.298
X-59.327 Y8.2
X-59.224 Y8.091
X-59.131 Y7.973
X-59.049 Y7.848
X-58.978 Y7.716
X-58.911 Y7.564
X-58.854 Y7.399
X-58.804 Y7.203
X-58.764 Y6.971
X-58.741 Y6.73
X-58.738 Y6.405
X-58.764 Y6.027
X-58.831 Y5.582
X-58.925 Y5.141
X-59.001 Y4.697
X-59.051 Y4.25
X-59.069 Y3.8
X-59.04 Y3.35
X-58.975 Y2.904
X-58.865 Y2.468
X-58.706 Y2.046
X-58.512 Y1.64
X-58.271 Y1.259
X-57.997 Y0.902
X-57.688 Y0.573
X-57.345 Y0.282
X-56.98 Y0.018
X-56.585 Y-0.198
X-56.17 Y-0.374
X-55.741 Y-0.511
X-55.299 Y-0.599
X-54.851 Y-0.648
X-54.401 Y-0.649
X-53.953 Y-0.601
X-53.511 Y-0.514
X-53.083 Y-0.375
X-52.669 Y-0.197
X-52.274 Y0.021
X-51.907 Y0.281
X-51.562 Y0.57
X-51.253 Y0.899
X-50.981 Y1.257
X-50.741 Y1.639
X-50.547 Y2.045
X-50.389 Y2.467
X-50.276 Y2.903
X-50.213 Y3.349
X-50.187 Y3.799
X-50.215 Y4.248
X-50.286 Y4.693
X-50.378 Y5.134
X-50.477 Y5.574
X-50.552 Y5.98
X-50.589 Y6.344
X-50.595 Y6.634
X-50.58 Y6.891
X-50.543 Y7.152
X-50.481 Y7.43
X-50.408 Y7.664
X-50.326 Y7.869
X-50.226 Y8.07
X-50.105 Y8.273
X-50.061 Y8.334
X-49.979 Y8.417
X-49.875 Y8.47
X-49.76 Y8.488
X-49.022
G0 Z3
X-60.887 Y8.186
Z-1.683
G1 Z-1.841 F100
X-60.881 Y8.19 Z-1.89
X-60.861 Y8.201 Z-1.935
X-60.831 Y8.219 Z-1.97
X-60.793 Y8.242 Z-1.992
X-60.751 Y8.267 Z-2
G2 X-59.997 Y8.488 I0.809 J-1.36
G1 X-59.429 F800
X-59.28 Y8.481
X-59.134 Y8.443
X-58.999 Y8.378
X-58.875 Y8.293
X-58.763 Y8.193
X-58.663 Y8.082
X-58.574 Y7.961
X-58.495 Y7.833
X-58.415 Y7.676
X-58.341 Y7.497
X-58.279 Y7.305
X-58.222 Y7.064
X-58.181 Y6.796
X-58.16 Y6.492
X-58.163 Y6.109
X-58.204 Y5.66
X-58.273 Y5.215
X-58.341 Y4.77
X-58.39 Y4.322
X-58.405 Y3.872
X-58.379 Y3.422
X-58.306 Y2.978
X-58.18 Y2.545
X-58.005 Y2.13
X-57.782 Y1.739
X-57.515 Y1.376
X-57.207 Y1.047
X-56.863 Y0.757
X-56.485 Y0.512
X-56.08 Y0.315
X-55.654 Y0.167
X-55.215 Y0.068
X-54.767 Y0.022
X-54.316 Y0.034
X-53.871 Y0.098
X-53.436 Y0.216
X-53.018 Y0.383
X-52.623 Y0.6
X-52.255 Y0.86
X-51.924 Y1.165
X-51.631 Y1.508
X-51.381 Y1.883
X-51.177 Y2.284
X-51.02 Y2.706
X-50.918 Y3.145
X-50.869 Y3.593
X-50.875 Y4.043
X-50.925 Y4.491
X-51.001 Y4.935
X-51.085 Y5.377
X-51.156 Y5.822
X-51.195 Y6.23
X-51.2 Y6.584
X-51.177 Y6.929
X-51.13 Y7.253
X-51.061 Y7.552
X-50.972 Y7.834
X-50.868 Y8.089
X-50.784 Y8.256
X-50.75 Y8.311
X-50.668 Y8.406
X-50.558 Y8.467
X-50.434 Y8.488
X-49.76
G0 Z3
X-60.319 Y8.186
Z-1.683
G1 Z-1.841 F100
X-60.313 Y8.19 Z-1.89
X-60.293 Y8.201 Z-1.935
X-60.263 Y8.219 Z-1.97
X-60.225 Y8.242 Z-1.992
X-60.183 Y8.267 Z-2
G2 X-59.429 Y8.488 I0.809 J-1.36
G1 X-58.872 F800
X-58.722 Y8.481
X-58.577 Y8.441
X-58.443 Y8.374
X-58.321 Y8.287
X-58.21 Y8.186
X-58.111 Y8.074
X-58.022 Y7.953
X-57.931 Y7.806
X-57.85 Y7.645
X-57.771 Y7.454
X-57.697 Y7.223
X-57.641 Y6.98
X-57.596 Y6.679
X-57.57 Y6.31
X-57.575 Y5.881
X-57.617 Y5.432
X-57.673 Y4.986
X-57.722 Y4.538
X-57.745 Y4.088
X-57.728 Y3.638
X-57.661 Y3.192
X-57.537 Y2.759
X-57.352 Y2.349
X-57.111 Y1.968
X-56.82 Y1.625
X-56.482 Y1.327
X-56.104 Y1.082
X-55.693 Y0.897
X-55.26 Y0.772
X-54.814 Y0.711
X-54.363 Y0.714
X-53.919 Y0.787
X-53.49 Y0.924
X-53.084 Y1.12
X-52.711 Y1.372
X-52.38 Y1.677
X-52.098 Y2.029
X-51.869 Y2.417
X-51.698 Y2.834
X-51.589 Y3.271
X-51.547 Y3.719
X-51.562 Y4.169
X-51.612 Y4.617
X-51.68 Y5.062
X-51.746 Y5.508
X-51.796 Y5.955
X-51.814 Y6.402
X-51.798 Y6.818
X-51.751 Y7.206
X-51.677 Y7.568
X-51.585 Y7.889
X-51.507 Y8.095
X-51.431 Y8.257
X-51.405 Y8.303
X-51.322 Y8.401
X-51.211 Y8.466
X-51.084 Y8.488
X-50.434
G0 Z3
X-59.762 Y8.186
Z-1.683
G1 Z-1.841 F100
X-59.755 Y8.19 Z-1.89
X-59.736 Y8.201 Z-1.935
X-59.705 Y8.219 Z-1.97
X-59.667 Y8.242 Z-1.992
X-59.625 Y8.267 Z-2
G2 X-58.872 Y8.488 I0.809 J-1.36
G1 X-58.304 F800
X-58.154 Y8.481
X-58.011 Y8.436
X-57.878 Y8.366
X-57.757 Y8.277
X-57.648 Y8.175
X-57.549 Y8.062
X-57.456 Y7.935
X-57.362 Y7.783
X-57.278 Y7.616
X-57.191 Y7.406
X-57.116 Y7.172
X-57.051 Y6.895
X-56.999 Y6.55
X-56.973 Y6.174
X-56.978 Y5.724
X-57.013 Y5.275
X-57.056 Y4.826
X-57.086 Y4.377
X-57.082 Y3.926
X-57.027 Y3.479
X-56.91 Y3.044
X-56.722 Y2.635
X-56.463 Y2.266
X-56.144 Y1.949
X-55.772 Y1.695
X-55.357 Y1.519
X-54.917 Y1.422
X-54.467 Y1.408
X-54.022 Y1.481
X-53.6 Y1.637
X-53.213 Y1.868
X-52.877 Y2.168
X-52.606 Y2.528
X-52.405 Y2.931
X-52.281 Y3.364
X-52.235 Y3.812
X-52.245 Y4.262
X-52.287 Y4.711
X-52.343 Y5.158
X-52.393 Y5.606
X-52.425 Y6.055
X-52.43 Y6.505
X-52.402 Y6.955
X-52.343 Y7.375
X-52.264 Y7.729
X-52.18 Y8
X-52.112 Y8.17
X-52.045 Y8.304
X-52.041 Y8.31
X-51.959 Y8.405
X-51.849 Y8.467
X-51.725 Y8.488
X-51.084
G0 Z3
X-59.194 Y8.186
Z-1.683
G1 Z-1.841 F100
X-59.187 Y8.19 Z-1.89
X-59.168 Y8.201 Z-1.935
X-59.138 Y8.219 Z-1.97
X-59.1 Y8.242 Z-1.992
X-59.057 Y8.267 Z-2
G2 X-58.304 Y8.488 I0.809 J-1.36
G1 X-57.746 F800
X-57.596 Y8.481
X-57.451 Y8.445
X-57.314 Y8.383
X-57.189 Y8.301
X-57.075 Y8.203
X-56.971 Y8.095
X-56.877 Y7.978
X-56.793 Y7.854
X-56.718 Y7.724
X-56.651 Y7.59
X-56.593 Y7.451
X-56.541 Y7.311
X-56.496 Y7.168
X-56.457 Y7.023
X-56.424 Y6.876
X-56.397 Y6.729
X-56.375 Y6.58
X-56.358 Y6.431
X-56.345 Y6.282
X-56.336 Y6.132
X-56.332 Y5.982
X-56.33 Y5.832
X-56.332 Y5.682
X-56.336 Y5.532
X-56.346 Y5.295
X-56.367 Y4.845
X-56.381 Y4.395
X-56.359 Y3.945
X-56.27 Y3.503
X-56.099 Y3.086
X-55.835 Y2.721
X-55.488 Y2.435
X-55.282 Y2.344
X-54.852 Y2.21
X-54.626
X-54.179 Y2.266
X-53.973 Y2.356
X-53.589 Y2.591
X-53.289 Y2.927
X-53.097 Y3.335
X-53.005 Y3.776
X-52.985 Y4.226
X-53.006 Y4.676
X-53.054 Y5.237
X-53.066 Y5.386
X-53.076 Y5.536
X-53.084 Y5.686
X-53.091 Y5.836
X-53.096 Y5.986
X-53.098 Y6.136
Y6.286
X-53.096 Y6.436
X-53.09 Y6.585
X-53.081 Y6.735
X-53.069 Y6.885
X-53.054 Y7.034
X-53.035 Y7.183
X-53.012 Y7.331
X-52.986 Y7.479
X-52.955 Y7.626
X-52.92 Y7.771
X-52.88 Y7.916
X-52.834 Y8.059
X-52.779 Y8.198
X-52.742 Y8.277
X-52.66 Y8.389
X-52.543 Y8.463
X-52.407 Y8.488
X-51.725
G0 Z3
X-58.636 Y8.186
Z-1.683
G1 Z-1.841 F100
X-58.63 Y8.19 Z-1.89
X-58.61 Y8.201 Z-1.935
X-58.58 Y8.219 Z-1.97
X-58.542 Y8.242 Z-1.992
X-58.5 Y8.267 Z-2
G2 X-57.746 Y8.488 I0.809 J-1.36
G1 X-57.132 F800
X-56.983 Y8.481
X-56.84 Y8.433
X-56.708 Y8.363
X-56.587 Y8.274
X-56.476 Y8.173
X-56.376 Y8.061
X-56.278 Y7.931
X-56.18 Y7.778
X-56.083 Y7.595
X-55.989 Y7.376
X-55.902 Y7.12
X-55.825 Y6.815
X-55.763 Y6.441
X-55.724 Y5.992
X-55.723 Y5.88
X-55.722 Y5.767
X-55.688 Y5.66
X-55.623 Y5.568
X-55.444 Y5.431
X-55.017 Y5.287
X-54.808 Y5.25
X-54.699 Y5.222
X-54.591 Y5.191
X-54.478 Y5.193
X-54.372 Y5.229
X-54.281 Y5.296
X-54.133 Y5.466
X-53.913 Y5.859
X-53.805 Y6.296
X-53.738 Y6.742
X-53.673 Y7.187
X-53.59 Y7.63
X-53.509 Y7.936
X-53.443 Y8.12
X-53.382 Y8.257
X-53.361 Y8.296
X-53.278 Y8.398
X-53.165 Y8.465
X-53.036 Y8.488
X-52.407
G0 Z3
X-58.022 Y8.186
Z-1.683
G1 Z-1.841 F100
X-58.016 Y8.19 Z-1.89
X-57.996 Y8.201 Z-1.935
X-57.966 Y8.219 Z-1.97
X-57.928 Y8.242 Z-1.992
X-57.886 Y8.267 Z-2
G2 X-57.132 Y8.488 I0.809 J-1.36
G1 X-56.59 F800
X-56.44 Y8.481
X-56.296 Y8.439
X-56.162 Y8.372
X-56.038 Y8.287
X-55.925 Y8.188
X-55.823 Y8.079
X-55.72 Y7.949
X-55.621 Y7.801
X-55.514 Y7.609
X-55.42 Y7.405
X-55.324 Y7.139
X-55.294 Y7.031
X-55.241 Y6.812
X-55.216 Y6.702
X-55.171 Y6.598
G2 X-55.449 Y6.45 I-0.148 J-0.057 F100
G1 X-55.637 Y6.716
X-56.458 Y7.876 F800
X-56.714 Y8.238 F100
G2 X-56.59 Y8.488 I0.13 J0.092
G1 X-56.007 F800
X-55.857 Y8.481
X-55.711 Y8.447
X-55.574 Y8.387
X-55.447 Y8.307
X-55.33 Y8.213
X-55.223 Y8.107
X-55.126 Y7.993
X-55.038 Y7.872
X-54.958 Y7.745
X-54.905 Y7.646
G2 X-55.145 Y7.45 I-0.142 J-0.071 F100
G1 X-55.425 Y7.672
X-55.787 Y7.958 F800
X-56.1 Y8.205 F100
G2 X-56.007 Y8.488 I0.098 J0.125
G1 X-55.393 F800
X-55.243 Y8.481
X-55.099 Y8.439
X-54.998 Y8.389
X-54.889 Y8.361
X-54.664 Y8.371
X-54.4 Y8.466
X-54.359 Y8.479
X-54.316 Y8.486
X-54.274 Y8.488
G2 X-54.279 Y8.171 I-0.006 J-0.159 F100
G1 X-54.571
X-55.095 F800
X-55.387 F100
G2 X-55.393 Y8.488 J0.159
G1 X-53.036 F800
G2 X-53.041 Y8.171 I-0.006 J-0.159 F100
G1 X-53.042
X-53.086 Y8.177
X-53.126 Y8.195
X-53.16 Y8.224
X-53.175 Y8.261 Z-1.994
X-53.188 Y8.295 Z-1.979
X-53.2 Y8.325 Z-1.955
Y8.33 Z-1.95
X-53.197 Y8.353 Z-1.918
X-53.195 Y8.367 Z-1.881
Y8.372 Z-1.841
G0 Z3
X-63.247 Y7.965
Z-2.682
G1 Z-2.841 F100
X-63.24 Y7.969 Z-2.89
X-63.221 Y7.98 Z-2.935
X-63.191 Y7.998 Z-2.97
X-63.153 Y8.021 Z-2.992
X-63.11 Y8.046 Z-3
G2 X-61.603 Y8.488 I1.618 J-2.721
G1 X-60.611 F800
X-60.461 Y8.481
X-60.315 Y8.447
X-60.179 Y8.384
X-60.052 Y8.305
X-59.917 Y8.201
X-59.806 Y8.1
X-59.705 Y7.989
X-59.619 Y7.866
X-59.534 Y7.717
X-59.435 Y7.505
X-59.383 Y7.363
X-59.342 Y7.219
X-59.317 Y7.071
X-59.301 Y6.876
X-59.3 Y6.6
X-59.324 Y6.294
X-59.394 Y5.85
X-59.497 Y5.411
X-59.612 Y4.975
X-59.682 Y4.531
X-59.717 Y4.081
X-59.735 Y3.631
X-59.695 Y3.183
X-59.615 Y2.739
X-59.516 Y2.3
X-59.361 Y1.877
X-59.168 Y1.47
X-58.958 Y1.071
X-58.697 Y0.704
X-58.404 Y0.362
X-58.098 Y0.032
X-57.75 Y-0.254
X-57.378 Y-0.508
X-56.995 Y-0.746
X-56.585 Y-0.931
X-56.159 Y-1.078
X-55.728 Y-1.209
X-55.283 Y-1.28
X-54.834 Y-1.31
X-54.383 Y-1.323
X-53.936 Y-1.275
X-53.494 Y-1.187
X-53.056 Y-1.082
X-52.636 Y-0.918
X-52.233 Y-0.718
X-51.837 Y-0.502
X-51.475 Y-0.234
X-51.138 Y0.065
X-50.813 Y0.377
X-50.534 Y0.73
X-50.287 Y1.107
X-50.055 Y1.493
X-49.878 Y1.907
X-49.738 Y2.335
X-49.615 Y2.769
X-49.553 Y3.215
X-49.53 Y3.665
X-49.524 Y4.115
X-49.581 Y4.562
X-49.677 Y5.002
X-49.789 Y5.438
X-49.894 Y5.876
X-49.944 Y6.096
X-49.971 Y6.252
X-49.991 Y6.462
X-49.995 Y6.767
X-49.98 Y6.995
X-49.958 Y7.144
X-49.917 Y7.308
X-49.845 Y7.525
X-49.732 Y7.788
X-49.663 Y7.921
X-49.579 Y8.045
X-49.458 Y8.196
X-49.291 Y8.372
X-49.213 Y8.435
X-49.121 Y8.475
X-49.022 Y8.488
X-47.765
G0 Z3
X-61.501 Y8.186
Z-2.682
G1 Z-2.841 F100
X-61.494 Y8.19 Z-2.89
X-61.475 Y8.201 Z-2.935
X-61.445 Y8.219 Z-2.97
X-61.407 Y8.242 Z-2.992
X-61.365 Y8.267 Z-3
G2 X-60.611 Y8.488 I0.809 J-1.36
G1 X-59.997 F800
X-59.847 Y8.481
X-59.702 Y8.444
X-59.566 Y8.381
X-59.441 Y8.298
X-59.327 Y8.2
X-59.224 Y8.091
X-59.131 Y7.973
X-59.049 Y7.848
X-58.978 Y7.716
X-58.911 Y7.564
X-58.854 Y7.399
X-58.804 Y7.203
X-58.764 Y6.971
X-58.741 Y6.73
X-58.738 Y6.405
X-58.764 Y6.027
X-58.831 Y5.582
X-58.925 Y5.141
X-59.001 Y4.697
X-59.051 Y4.25
X-59.069 Y3.8
X-59.04 Y3.35
X-58.975 Y2.904
X-58.865 Y2.468
X-58.706 Y2.046
X-58.512 Y1.64
X-58.271 Y1.259
X-57.997 Y0.902
X-57.688 Y0.573
X-57.345 Y0.282
X-56.98 Y0.018
X-56.585 Y-0.198
X-56.17 Y-0.374
X-55.741 Y-0.511
X-55.299 Y-0.599
X-54.851 Y-0.648
X-54.401 Y-0.649
X-53.953 Y-0.601
X-53.511 Y-0.514
X-53.083 Y-0.375
X-52.669 Y-0.197
X-52.274 Y0.021
X-51.907 Y0.281
X-51.562 Y0.57
X-51.253 Y0.899
X-50.981 Y1.257
X-50.741 Y1.639
X-50.547 Y2.045
X-50.389 Y2.467
X-50.276 Y2.903
X-50.213 Y3.349
X-50.187 Y3.799
X-50.215 Y4.248
X-50.286 Y4.693
X-50.378 Y5.134
X-50.477 Y5.574
X-50.552 Y5.98
X-50.589 Y6.344
X-50.595 Y6.634
X-50.58 Y6.891
X-50.543 Y7.152
X-50.481 Y7.43
X-50.408 Y7.664
X-50.326 Y7.869
X-50.226 Y8.07
X-50.105 Y8.273
X-50.061 Y8.334
X-49.979 Y8.417
X-49.875 Y8.47
X-49.76 Y8.488
X-49.022
G0 Z3
X-60.887 Y8.186
Z-2.682
G1 Z-2.841 F100
X-60.881 Y8.19 Z-2.89
X-60.861 Y8.201 Z-2.935
X-60.831 Y8.219 Z-2.97
X-60.793 Y8.242 Z-2.992
X-60.751 Y8.267 Z-3
G2 X-59.997 Y8.488 I0.809 J-1.36
G1 X-59.429 F800
X-59.28 Y8.481
X-59.134 Y8.443
X-58.999 Y8.378
X-58.875 Y8.293
X-58.763 Y8.193
X-58.663 Y8.082
X-58.574 Y7.961
X-58.495 Y7.833
X-58.415 Y7.676
X-58.341 Y7.497
X-58.279 Y7.305
X-58.222 Y7.064
X-58.181 Y6.796
X-58.16 Y6.492
X-58.163 Y6.109
X-58.204 Y5.66
X-58.273 Y5.215
X-58.341 Y4.77
X-58.39 Y4.322
X-58.405 Y3.872
X-58.379 Y3.422
X-58.306 Y2.978
X-58.18 Y2.545
X-58.005 Y2.13
X-57.782 Y1.739
X-57.515 Y1.376
X-57.207 Y1.047
X-56.863 Y0.757
X-56.485 Y0.512
X-56.08 Y0.315
X-55.654 Y0.167
X-55.215 Y0.068
X-54.767 Y0.022
X-54.316 Y0.034
X-53.871 Y0.098
X-53.436 Y0.216
X-53.018 Y0.383
X-52.623 Y0.6
X-52.255 Y0.86
X-51.924 Y1.165
X-51.631 Y1.508
X-51.381 Y1.883
X-51.177 Y2.284
X-51.02 Y2.706
X-50.918 Y3.145
X-50.869 Y3.593
X-50.875 Y4.043
X-50.925 Y4.491
X-51.001 Y4.935
X-51.085 Y5.377
X-51.156 Y5.822
X-51.195 Y6.23
X-51.2 Y6.584
X-51.177 Y6.929
X-51.13 Y7.253
X-51.061 Y7.552
X-50.972 Y7.834
X-50.868 Y8.089
X-50.784 Y8.256
X-50.75 Y8.311
X-50.668 Y8.406
X-50.558 Y8.467
X-50.434 Y8.488
X-49.76
G0 Z3
X-60.319 Y8.186
Z-2.682
G1 Z-2.841 F100
X-60.313 Y8.19 Z-2.89
X-60.293 Y8.201 Z-2.935
X-60.263 Y8.219 Z-2.97
X-60.225 Y8.242 Z-2.992
X-60.183 Y8.267 Z-3
G2 X-59.429 Y8.488 I0.809 J-1.36
G1 X-58.872 F800
X-58.722 Y8.481
X-58.577 Y8.441
X-58.443 Y8.374
X-58.321 Y8.287
X-58.21 Y8.186
X-58.111 Y8.074
X-58.022 Y7.953
X-57.931 Y7.806
X-57.85 Y7.645
X-57.771 Y7.454
X-57.697 Y7.223
X-57.641 Y6.98
X-57.596 Y6.679
X-57.57 Y6.31
X-57.575 Y5.881
X-57.617 Y5.432
X-57.673 Y4.986
X-57.722 Y4.538
X-57.745 Y4.088
X-57.728 Y3.638
X-57.661 Y3.192
X-57.537 Y2.759
X-57.352 Y2.349
X-57.111 Y1.968
X-56.82 Y1.625
X-56.482 Y1.327
X-56.104 Y1.082
X-55.693 Y0.897
X-55.26 Y0.772
X-54.814 Y0.711
X-54.363 Y0.714
X-53.919 Y0.787
X-53.49 Y0.924
X-53.084 Y1.12
X-52.711 Y1.372
X-52.38 Y1.677
X-52.098 Y2.029
X-51.869 Y2.417
X-51.698 Y2.834
X-51.589 Y3.271
X-51.547 Y3.719
X-51.562 Y4.169
X-51.612 Y4.617
X-51.68 Y5.062
X-51.746 Y5.508
X-51.796 Y5.955
X-51.814 Y6.402
X-51.798 Y6.818
X-51.751 Y7.206
X-51.677 Y7.568
X-51.585 Y7.889
X-51.507 Y8.095
X-51.431 Y8.257
X-51.405 Y8.303
X-51.322 Y8.401
X-51.211 Y8.466
X-51.084 Y8.488
X-50.434
G0 Z3
X-59.762 Y8.186
Z-2.682
G1 Z-2.841 F100
X-59.755 Y8.19 Z-2.89
X-59.736 Y8.201 Z-2.935
X-59.705 Y8.219 Z-2.97
X-59.667 Y8.242 Z-2.992
X-59.625 Y8.267 Z-3
G2 X-58.872 Y8.488 I0.809 J-1.36
G1 X-58.304 F800
X-58.154 Y8.481
X-58.011 Y8.436
X-57.878 Y8.366
X-57.757 Y8.277
X-57.648 Y8.175
X-57.549 Y8.062
X-57.456 Y7.935
X-57.362 Y7.783
X-57.278 Y7.616
X-57.191 Y7.406
X-57.116 Y7.172
X-57.051 Y6.895
X-56.999 Y6.55
X-56.973 Y6.174
X-56.978 Y5.724
X-57.013 Y5.275
X-57.056 Y4.826
X-57.086 Y4.377
X-57.082 Y3.926
X-57.027 Y3.479
X-56.91 Y3.044
X-56.722 Y2.635
X-56.463 Y2.266
X-56.144 Y1.949
X-55.772 Y1.695
X-55.357 Y1.519
X-54.917 Y1.422
X-54.467 Y1.408
X-54.022 Y1.481
X-53.6 Y1.637
X-53.213 Y1.868
X-52.877 Y2.168
X-52.606 Y2.528
X-52.405 Y2.931
X-52.281 Y3.364
X-52.235 Y3.812
X-52.245 Y4.262
X-52.287 Y4.711
X-52.343 Y5.158
X-52.393 Y5.606
X-52.425 Y6.055
X-52.43 Y6.505
X-52.402 Y6.955
X-52.343 Y7.375
X-52.264 Y7.729
X-52.18 Y8
X-52.112 Y8.17
X-52.045 Y8.304
X-52.041 Y8.31
X-51.959 Y8.405
X-51.849 Y8.467
X-51.725 Y8.488
X-51.084
G0 Z3
X-59.194 Y8.186
Z-2.682
G1 Z-2.841 F100
X-59.187 Y8.19 Z-2.89
X-59.168 Y8.201 Z-2.935
X-59.138 Y8.219 Z-2.97
X-59.1 Y8.242 Z-2.992
X-59.057 Y8.267 Z-3
G2 X-58.304 Y8.488 I0.809 J-1.36
G1 X-57.746 F800
X-57.596 Y8.481
X-57.451 Y8.445
X-57.314 Y8.383
X-57.189 Y8.301
X-57.075 Y8.203
X-56.971 Y8.095
X-56.877 Y7.978
X-56.793 Y7.854
X-56.718 Y7.724
X-56.651 Y7.59
X-56.593 Y7.451
X-56.541 Y7.311
X-56.496 Y7.168
X-56.457 Y7.023
X-56.424 Y6.876
X-56.397 Y6.729
X-56.375 Y6.58
X-56.358 Y6.431
X-56.345 Y6.282
X-56.336 Y6.132
X-56.332 Y5.982
X-56.33 Y5.832
X-56.332 Y5.682
X-56.336 Y5.532
X-56.346 Y5.295
X-56.367 Y4.845
X-56.381 Y4.395
X-56.359 Y3.945
X-56.27 Y3.503
X-56.099 Y3.086
X-55.835 Y2.721
X-55.488 Y2.435
X-55.282 Y2.344
X-54.852 Y2.21
X-54.626
X-54.179 Y2.266
X-53.973 Y2.356
X-53.589 Y2.591
X-53.289 Y2.927
X-53.097 Y3.335
X-53.005 Y3.776
X-52.985 Y4.226
X-53.006 Y4.676
X-53.054 Y5.237
X-53.066 Y5.386
X-53.076 Y5.536
X-53.084 Y5.686
X-53.091 Y5.836
X-53.096 Y5.986
X-53.098 Y6.136
Y6.286
X-53.096 Y6.436
X-53.09 Y6.585
X-53.081 Y6.735
X-53.069 Y6.885
X-53.054 Y7.034
X-53.035 Y7.183
X-53.012 Y7.331
X-52.986 Y7.479
X-52.955 Y7.626
X-52.92 Y7.771
X-52.88 Y7.916
X-52.834 Y8.059
X-52.779 Y8.198
X-52.742 Y8.277
X-52.66 Y8.389
X-52.543 Y8.463
X-52.407 Y8.488
X-51.725
G0 Z3
X-58.636 Y8.186
Z-2.682
G1 Z-2.841 F100
X-58.63 Y8.19 Z-2.89
X-58.61 Y8.201 Z-2.935
X-58.58 Y8.219 Z-2.97
X-58.542 Y8.242 Z-2.992
X-58.5 Y8.267 Z-3
G2 X-57.746 Y8.488 I0.809 J-1.36
G1 X-57.132 F800
X-56.983 Y8.481
X-56.84 Y8.433
X-56.708 Y8.363
X-56.587 Y8.274
X-56.476 Y8.173
X-56.376 Y8.061
X-56.278 Y7.931
X-56.18 Y7.778
X-56.083 Y7.595
X-55.989 Y7.376
X-55.902 Y7.12
X-55.825 Y6.815
X-55.763 Y6.441
X-55.724 Y5.992
X-55.723 Y5.88
X-55.722 Y5.767
X-55.688 Y5.66
X-55.623 Y5.568
X-55.444 Y5.431
X-55.017 Y5.287
X-54.808 Y5.25
X-54.699 Y5.222
X-54.591 Y5.191
X-54.478 Y5.193
X-54.372 Y5.229
X-54.281 Y5.296
X-54.133 Y5.466
X-53.913 Y5.859
X-53.805 Y6.296
X-53.738 Y6.742
X-53.673 Y7.187
X-53.59 Y7.63
X-53.509 Y7.936
X-53.443 Y8.12
X-53.382 Y8.257
X-53.361 Y8.296
X-53.278 Y8.398
X-53.165 Y8.465
X-53.036 Y8.488
X-52.407
G0 Z3
X-58.022 Y8.186
Z-2.682
G1 Z-2.841 F100
X-58.016 Y8.19 Z-2.89
X-57.996 Y8.201 Z-2.935
X-57.966 Y8.219 Z-2.97
X-57.928 Y8.242 Z-2.992
X-57.886 Y8.267 Z-3
G2 X-57.132 Y8.488 I0.809 J-1.36
G1 X-56.59 F800
X-56.44 Y8.481
X-56.296 Y8.439
X-56.162 Y8.372
X-56.038 Y8.287
X-55.925 Y8.188
X-55.823 Y8.079
X-55.72 Y7.949
X-55.621 Y7.801
X-55.514 Y7.609
X-55.42 Y7.405
X-55.324 Y7.139
X-55.294 Y7.031
X-55.241 Y6.812
X-55.216 Y6.702
X-55.171 Y6.598
G2 X-55.449 Y6.45 I-0.148 J-0.057 F100
G1 X-55.637 Y6.716
X-56.458 Y7.876 F800
X-56.714 Y8.238 F100
G2 X-56.59 Y8.488 I0.13 J0.092
G1 X-56.007 F800
X-55.857 Y8.481
X-55.711 Y8.447
X-55.574 Y8.387
X-55.447 Y8.307
X-55.33 Y8.213
X-55.223 Y8.107
X-55.126 Y7.993
X-55.038 Y7.872
X-54.958 Y7.745
X-54.905 Y7.646
G2 X-55.145 Y7.45 I-0.142 J-0.071 F100
G1 X-55.425 Y7.672
X-55.787 Y7.958 F800
X-56.1 Y8.205 F100
G2 X-56.007 Y8.488 I0.098 J0.125
G1 X-55.393 F800
X-55.243 Y8.481
X-55.099 Y8.439
X-54.998 Y8.389
X-54.889 Y8.361
X-54.664 Y8.371
X-54.4 Y8.466
X-54.359 Y8.479
X-54.316 Y8.486
X-54.274 Y8.488
G2 X-54.279 Y8.171 I-0.006 J-0.159 F100
G1 X-54.571
X-55.095 F800
X-55.387 F100
G2 X-55.393 Y8.488 J0.159
G1 X-53.036 F800
G2 X-53.041 Y8.171 I-0.006 J-0.159 F100
G1 X-53.042
X-53.086 Y8.177
X-53.126 Y8.195
X-53.16 Y8.224
X-53.175 Y8.261 Z-2.994
X-53.188 Y8.295 Z-2.979
X-53.2 Y8.325 Z-2.955
Y8.33 Z-2.95
X-53.197 Y8.353 Z-2.918
X-53.195 Y8.367 Z-2.881
Y8.372 Z-2.841
G0 Z3
X-63.247 Y7.965
Z-3.515
G1 Z-3.674 F100
X-63.24 Y7.969 Z-3.723
X-63.221 Y7.98 Z-3.768
X-63.191 Y7.998 Z-3.803
X-63.153 Y8.021 Z-3.825
X-63.11 Y8.046 Z-3.833
G2 X-61.603 Y8.488 I1.618 J-2.721
G1 X-60.611 F800
X-60.461 Y8.481
X-60.315 Y8.447
X-60.179 Y8.384
X-60.052 Y8.305
X-59.917 Y8.201
X-59.806 Y8.1
X-59.705 Y7.989
X-59.619 Y7.866
X-59.534 Y7.717
X-59.435 Y7.505
X-59.383 Y7.363
X-59.342 Y7.219
X-59.317 Y7.071
X-59.301 Y6.876
X-59.3 Y6.6
X-59.324 Y6.294
X-59.394 Y5.85
X-59.497 Y5.411
X-59.612 Y4.975
X-59.682 Y4.531
X-59.717 Y4.081
X-59.735 Y3.631
X-59.695 Y3.183
X-59.615 Y2.739
X-59.516 Y2.3
X-59.361 Y1.877
X-59.168 Y1.47
X-58.958 Y1.071
X-58.697 Y0.704
X-58.404 Y0.362
X-58.098 Y0.032
X-57.75 Y-0.254
X-57.378 Y-0.508
X-56.995 Y-0.746
X-56.585 Y-0.931
X-56.159 Y-1.078
X-55.728 Y-1.209
X-55.283 Y-1.28
X-54.834 Y-1.31
X-54.383 Y-1.323
X-53.936 Y-1.275
X-53.494 Y-1.187
X-53.056 Y-1.082
X-52.636 Y-0.918
X-52.233 Y-0.718
X-51.837 Y-0.502
X-51.475 Y-0.234
X-51.138 Y0.065
X-50.813 Y0.377
X-50.534 Y0.73
X-50.287 Y1.107
X-50.055 Y1.493
X-49.878 Y1.907
X-49.738 Y2.335
X-49.615 Y2.769
X-49.553 Y3.215
X-49.53 Y3.665
X-49.524 Y4.115
X-49.581 Y4.562
X-49.677 Y5.002
X-49.789 Y5.438
X-49.894 Y5.876
X-49.944 Y6.096
X-49.971 Y6.252
X-49.991 Y6.462
X-49.995 Y6.767
X-49.98 Y6.995
X-49.958 Y7.144
X-49.917 Y7.308
X-49.845 Y7.525
X-49.732 Y7.788
X-49.663 Y7.921
X-49.579 Y8.045
X-49.458 Y8.196
X-49.291 Y8.372
X-49.213 Y8.435
X-49.121 Y8.475
X-49.022 Y8.488
X-47.765
G0 Z3
X-61.501 Y8.186
Z-3.515
G1 Z-3.674 F100
X-61.494 Y8.19 Z-3.723
X-61.475 Y8.201 Z-3.768
X-61.445 Y8.219 Z-3.803
X-61.407 Y8.242 Z-3.825
X-61.365 Y8.267 Z-3.833
G2 X-60.611 Y8.488 I0.809 J-1.36
G1 X-59.997 F800
X-59.847 Y8.481
X-59.702 Y8.444
X-59.566 Y8.381
X-59.441 Y8.298
X-59.327 Y8.2
X-59.224 Y8.091
X-59.131 Y7.973
X-59.049 Y7.848
X-58.978 Y7.716
X-58.911 Y7.564
X-58.854 Y7.399
X-58.804 Y7.203
X-58.764 Y6.971
X-58.741 Y6.73
X-58.738 Y6.405
X-58.764 Y6.027
X-58.831 Y5.582
X-58.925 Y5.141
X-59.001 Y4.697
X-59.051 Y4.25
X-59.069 Y3.8
X-59.04 Y3.35
X-58.975 Y2.904
X-58.865 Y2.468
X-58.706 Y2.046
X-58.512 Y1.64
X-58.271 Y1.259
X-57.997 Y0.902
X-57.688 Y0.573
X-57.345 Y0.282
X-56.98 Y0.018
X-56.585 Y-0.198
X-56.17 Y-0.374
X-55.741 Y-0.511
X-55.299 Y-0.599
X-54.851 Y-0.648
X-54.401 Y-0.649
X-53.953 Y-0.601
X-53.511 Y-0.514
X-53.083 Y-0.375
X-52.669 Y-0.197
X-52.274 Y0.021
X-51.907 Y0.281
X-51.562 Y0.57
X-51.253 Y0.899
X-50.981 Y1.257
X-50.741 Y1.639
X-50.547 Y2.045
X-50.389 Y2.467
X-50.276 Y2.903
X-50.213 Y3.349
X-50.187 Y3.799
X-50.215 Y4.248
X-50.286 Y4.693
X-50.378 Y5.134
X-50.477 Y5.574
X-50.552 Y5.98
X-50.589 Y6.344
X-50.595 Y6.634
X-50.58 Y6.891
X-50.543 Y7.152
X-50.481 Y7.43
X-50.408 Y7.664
X-50.326 Y7.869
X-50.226 Y8.07
X-50.105 Y8.273
X-50.061 Y8.334
X-49.979 Y8.417
X-49.875 Y8.47
X-49.76 Y8.488
X-49.022
G0 Z3
X-60.887 Y8.186
Z-3.515
G1 Z-3.674 F100
X-60.881 Y8.19 Z-3.723
X-60.861 Y8.201 Z-3.768
X-60.831 Y8.219 Z-3.803
X-60.793 Y8.242 Z-3.825
X-60.751 Y8.267 Z-3.833
G2 X-59.997 Y8.488 I0.809 J-1.36
G1 X-59.429 F800
X-59.28 Y8.481
X-59.134 Y8.443
X-58.999 Y8.378
X-58.875 Y8.293
X-58.763 Y8.193
X-58.663 Y8.082
X-58.574 Y7.961
X-58.495 Y7.833
X-58.415 Y7.676
X-58.341 Y7.497
X-58.279 Y7.305
X-58.222 Y7.064
X-58.181 Y6.796
X-58.16 Y6.492
X-58.163 Y6.109
X-58.204 Y5.66
X-58.273 Y5.215
X-58.341 Y4.77
X-58.39 Y4.322
X-58.405 Y3.872
X-58.379 Y3.422
X-58.306 Y2.978
X-58.18 Y2.545
X-58.005 Y2.13
X-57.782 Y1.739
X-57.515 Y1.376
X-57.207 Y1.047
X-56.863 Y0.757
X-56.485 Y0.512
X-56.08 Y0.315
X-55.654 Y0.167
X-55.215 Y0.068
X-54.767 Y0.022
X-54.316 Y0.034
X-53.871 Y0.098
X-53.436 Y0.216
X-53.018 Y0.383
X-52.623 Y0.6
X-52.255 Y0.86
X-51.924 Y1.165
X-51.631 Y1.508
X-51.381 Y1.883
X-51.177 Y2.284
X-51.02 Y2.706
X-50.918 Y3.145
X-50.869 Y3.593
X-50.875 Y4.043
X-50.925 Y4.491
X-51.001 Y4.935
X-51.085 Y5.377
X-51.156 Y5.822
X-51.195 Y6.23
X-51.2 Y6.584
X-51.177 Y6.929
X-51.13 Y7.253
X-51.061 Y7.552
X-50.972 Y7.834
X-50.868 Y8.089
X-50.784 Y8.256
X-50.75 Y8.311
X-50.668 Y8.406
X-50.558 Y8.467
X-50.434 Y8.488
X-49.76
G0 Z3
X-60.319 Y8.186
Z-3.515
G1 Z-3.674 F100
X-60.313 Y8.19 Z-3.723
X-60.293 Y8.201 Z-3.768
X-60.263 Y8.219 Z-3.803
X-60.225 Y8.242 Z-3.825
X-60.183 Y8.267 Z-3.833
G2 X-59.429 Y8.488 I0.809 J-1.36
G1 X-58.872 F800
X-58.722 Y8.481
X-58.577 Y8.441
X-58.443 Y8.374
X-58.321 Y8.287
X-58.21 Y8.186
X-58.111 Y8.074
X-58.022 Y7.953
X-57.931 Y7.806
X-57.85 Y7.645
X-57.771 Y7.454
X-57.697 Y7.223
X-57.641 Y6.98
X-57.596 Y6.679
X-57.57 Y6.31
X-57.575 Y5.881
X-57.617 Y5.432
X-57.673 Y4.986
X-57.722 Y4.538
X-57.745 Y4.088
X-57.728 Y3.638
X-57.661 Y3.192
X-57.537 Y2.759
X-57.352 Y2.349
X-57.111 Y1.968
X-56.82 Y1.625
X-56.482 Y1.327
X-56.104 Y1.082
X-55.693 Y0.897
X-55.26 Y0.772
X-54.814 Y0.711
X-54.363 Y0.714
X-53.919 Y0.787
X-53.49 Y0.924
X-53.084 Y1.12
X-52.711 Y1.372
X-52.38 Y1.677
X-52.098 Y2.029
X-51.869 Y2.417
X-51.698 Y2.834
X-51.589 Y3.271
X-51.547 Y3.719
X-51.562 Y4.169
X-51.612 Y4.617
X-51.68 Y5.062
X-51.746 Y5.508
X-51.796 Y5.955
X-51.814 Y6.402
X-51.798 Y6.818
X-51.751 Y7.206
X-51.677 Y7.568
X-51.585 Y7.889
X-51.507 Y8.095
X-51.431 Y8.257
X-51.405 Y8.303
X-51.322 Y8.401
X-51.211 Y8.466
X-51.084 Y8.488
X-50.434
G0 Z3
X-59.762 Y8.186
Z-3.515
G1 Z-3.674 F100
X-59.755 Y8.19 Z-3.723
X-59.736 Y8.201 Z-3.768
X-59.705 Y8.219 Z-3.803
X-59.667 Y8.242 Z-3.825
X-59.625 Y8.267 Z-3.833
G2 X-58.872 Y8.488 I0.809 J-1.36
G1 X-58.304 F800
X-58.154 Y8.481
X-58.011 Y8.436
X-57.878 Y8.366
X-57.757 Y8.277
X-57.648 Y8.175
X-57.549 Y8.062
X-57.456 Y7.935
X-57.362 Y7.783
X-57.278 Y7.616
X-57.191 Y7.406
X-57.116 Y7.172
X-57.051 Y6.895
X-56.999 Y6.55
X-56.973 Y6.174
X-56.978 Y5.724
X-57.013 Y5.275
X-57.056 Y4.826
X-57.086 Y4.377
X-57.082 Y3.926
X-57.027 Y3.479
X-56.91 Y3.044
X-56.722 Y2.635
X-56.463 Y2.266
X-56.144 Y1.949
X-55.772 Y1.695
X-55.357 Y1.519
X-54.917 Y1.422
X-54.467 Y1.408
X-54.022 Y1.481
X-53.6 Y1.637
X-53.213 Y1.868
X-52.877 Y2.168
X-52.606 Y2.528
X-52.405 Y2.931
X-52.281 Y3.364
X-52.235 Y3.812
X-52.245 Y4.262
X-52.287 Y4.711
X-52.343 Y5.158
X-52.393 Y5.606
X-52.425 Y6.055
X-52.43 Y6.505
X-52.402 Y6.955
X-52.343 Y7.375
X-52.264 Y7.729
X-52.18 Y8
X-52.112 Y8.17
X-52.045 Y8.304
X-52.041 Y8.31
X-51.959 Y8.405
X-51.849 Y8.467
X-51.725 Y8.488
X-51.084
G0 Z3
X-59.194 Y8.186
Z-3.515
G1 Z-3.674 F100
X-59.187 Y8.19 Z-3.723
X-59.168 Y8.201 Z-3.768
X-59.138 Y8.219 Z-3.803
X-59.1 Y8.242 Z-3.825
X-59.057 Y8.267 Z-3.833
G2 X-58.304 Y8.488 I0.809 J-1.36
G1 X-57.746 F800
X-57.596 Y8.481
X-57.451 Y8.445
X-57.314 Y8.383
X-57.189 Y8.301
X-57.075 Y8.203
X-56.971 Y8.095
X-56.877 Y7.978
X-56.793 Y7.854
X-56.718 Y7.724
X-56.651 Y7.59
X-56.593 Y7.451
X-56.541 Y7.311
X-56.496 Y7.168
X-56.457 Y7.023
X-56.424 Y6.876
X-56.397 Y6.729
X-56.375 Y6.58
X-56.358 Y6.431
X-56.345 Y6.282
X-56.336 Y6.132
X-56.332 Y5.982
X-56.33 Y5.832
X-56.332 Y5.682
X-56.336 Y5.532
X-56.346 Y5.295
X-56.367 Y4.845
X-56.381 Y4.395
X-56.359 Y3.945
X-56.27 Y3.503
X-56.099 Y3.086
X-55.835 Y2.721
X-55.488 Y2.435
X-55.282 Y2.344
X-54.852 Y2.21
X-54.626
X-54.179 Y2.266
X-53.973 Y2.356
X-53.589 Y2.591
X-53.289 Y2.927
X-53.097 Y3.335
X-53.005 Y3.776
X-52.985 Y4.226
X-53.006 Y4.676
X-53.054 Y5.237
X-53.066 Y5.386
X-53.076 Y5.536
X-53.084 Y5.686
X-53.091 Y5.836
X-53.096 Y5.986
X-53.098 Y6.136
Y6.286
X-53.096 Y6.436
X-53.09 Y6.585
X-53.081 Y6.735
X-53.069 Y6.885
X-53.054 Y7.034
X-53.035 Y7.183
X-53.012 Y7.331
X-52.986 Y7.479
X-52.955 Y7.626
X-52.92 Y7.771
X-52.88 Y7.916
X-52.834 Y8.059
X-52.779 Y8.198
X-52.742 Y8.277
X-52.66 Y8.389
X-52.543 Y8.463
X-52.407 Y8.488
X-51.725
G0 Z3
X-58.636 Y8.186
Z-3.515
G1 Z-3.674 F100
X-58.63 Y8.19 Z-3.723
X-58.61 Y8.201 Z-3.768
X-58.58 Y8.219 Z-3.803
X-58.542 Y8.242 Z-3.825
X-58.5 Y8.267 Z-3.833
G2 X-57.746 Y8.488 I0.809 J-1.36
G1 X-57.132 F800
X-56.983 Y8.481
X-56.84 Y8.433
X-56.708 Y8.363
X-56.587 Y8.274
X-56.476 Y8.173
X-56.376 Y8.061
X-56.278 Y7.931
X-56.18 Y7.778
X-56.083 Y7.595
X-55.989 Y7.376
X-55.902 Y7.12
X-55.825 Y6.815
X-55.763 Y6.441
X-55.724 Y5.992
X-55.723 Y5.88
X-55.722 Y5.767
X-55.688 Y5.66
X-55.623 Y5.568
X-55.444 Y5.431
X-55.017 Y5.287
X-54.808 Y5.25
X-54.699 Y5.222
X-54.591 Y5.191
X-54.478 Y5.193
X-54.372 Y5.229
X-54.281 Y5.296
X-54.133 Y5.466
X-53.913 Y5.859
X-53.805 Y6.296
X-53.738 Y6.742
X-53.673 Y7.187
X-53.59 Y7.63
X-53.509 Y7.936
X-53.443 Y8.12
X-53.382 Y8.257
X-53.361 Y8.296
X-53.278 Y8.398
X-53.165 Y8.465
X-53.036 Y8.488
X-52.407
G0 Z3
X-58.022 Y8.186
Z-3.515
G1 Z-3.674 F100
X-58.016 Y8.19 Z-3.723
X-57.996 Y8.201 Z-3.768
X-57.966 Y8.219 Z-3.803
X-57.928 Y8.242 Z-3.825
X-57.886 Y8.267 Z-3.833
G2 X-57.132 Y8.488 I0.809 J-1.36
G1 X-56.59 F800
X-56.44 Y8.481
X-56.296 Y8.439
X-56.162 Y8.372
X-56.038 Y8.287
X-55.925 Y8.188
X-55.823 Y8.079
X-55.72 Y7.949
X-55.621 Y7.801
X-55.514 Y7.609
X-55.42 Y7.405
X-55.324 Y7.139
X-55.294 Y7.031
X-55.241 Y6.812
X-55.216 Y6.702
X-55.171 Y6.598
G2 X-55.449 Y6.45 I-0.148 J-0.057 F100
G1 X-55.637 Y6.716
X-56.458 Y7.876 F800
X-56.714 Y8.238 F100
G2 X-56.59 Y8.488 I0.13 J0.092
G1 X-56.007 F800
X-55.857 Y8.481
X-55.711 Y8.447
X-55.574 Y8.387
X-55.447 Y8.307
X-55.33 Y8.213
X-55.223 Y8.107
X-55.126 Y7.993
X-55.038 Y7.872
X-54.958 Y7.745
X-54.905 Y7.646
G2 X-55.145 Y7.45 I-0.142 J-0.071 F100
G1 X-55.425 Y7.672
X-55.787 Y7.958 F800
X-56.1 Y8.205 F100
G2 X-56.007 Y8.488 I0.098 J0.125
G1 X-55.393 F800
X-55.243 Y8.481
X-55.099 Y8.439
X-54.998 Y8.389
X-54.889 Y8.361
X-54.664 Y8.371
X-54.4 Y8.466
X-54.359 Y8.479
X-54.316 Y8.486
X-54.274 Y8.488
G2 X-54.279 Y8.171 I-0.006 J-0.159 F100
G1 X-54.571
X-55.095 F800
X-55.387 F100
G2 X-55.393 Y8.488 J0.159
G1 X-53.036 F800
G2 X-53.041 Y8.171 I-0.006 J-0.159 F100
G1 X-53.042
G2 X-53.195 Y8.372 J0.159
G0 Z6
X-90.443 Y21.743
Z3
Z-0.683
G1 Z-0.841 F100
X-90.439 Y21.737 Z-0.89
X-90.428 Y21.717 Z-0.935
X-90.41 Y21.687 Z-0.97
X-90.387 Y21.649 Z-0.992
X-90.362 Y21.607 Z-1
G2 X-89.919 Y20.1 I-2.721 J-1.618
G1 Y19.998 F800
X-89.921 Y19.96
X-90.023 Y19.85
X-90.147 Y19.766
X-90.282 Y19.7
X-90.433 Y19.645
X-90.639 Y19.587
X-90.946 Y19.527
X-91.394 Y19.477
X-91.844 Y19.456
X-92.294 Y19.447
X-92.744 Y19.443
X-93.645 Y19.441
X-94.096
X-94.546 Y19.423
X-94.994 Y19.381
X-95.442 Y19.329
X-95.882 Y19.234
X-96.31 Y19.094
X-96.732 Y18.935
X-97.133 Y18.73
X-97.51 Y18.484
X-97.877 Y18.222
X-98.209 Y17.918
X-98.51 Y17.583
X-98.795 Y17.234
X-99.036 Y16.854
X-99.238 Y16.451
X-99.423 Y16.041
X-99.555 Y15.61
X-99.645 Y15.168
X-99.717 Y14.724
X-99.73 Y14.274
X-99.702 Y13.824
X-99.657 Y13.376
X-99.55 Y12.938
X-99.406 Y12.512
X-99.245 Y12.091
X-99.027 Y11.697
X-98.776 Y11.322
X-98.512 Y10.958
X-98.197 Y10.635
X-97.858 Y10.34
X-97.508 Y10.056
X-97.119 Y9.828
X-96.714 Y9.631
X-96.302 Y9.448
X-95.867 Y9.331
X-95.425 Y9.246
X-94.98 Y9.177
X-94.53 Y9.146
X-94.08 Y9.133
X-93.63 Y9.127
X-93.179 Y9.125
X-91.828 Y9.124
X-90.29 Y9.123
X-90.148 Y9.095
X-90.028 Y9.015
X-89.948 Y8.895
X-89.919 Y8.753
G0 Z3
X-90.222 Y20.888
Z-0.683
G1 Z-0.841 F100
X-90.218 Y20.881 Z-0.89
X-90.206 Y20.862 Z-0.935
X-90.188 Y20.831 Z-0.97
X-90.166 Y20.793 Z-0.992
X-90.141 Y20.751 Z-1
G2 X-89.919 Y19.998 I-1.36 J-0.809
G1 Y19.747 F800
X-89.923 Y19.672
X-89.992 Y19.539
X-90.087 Y19.423
X-90.2 Y19.325
X-90.324 Y19.24
X-90.456 Y19.169
X-90.631 Y19.092
X-90.826 Y19.024
X-91.103 Y18.952
X-91.492 Y18.884
X-91.941 Y18.842
X-92.391 Y18.823
X-92.841 Y18.814
X-93.291 Y18.809
X-93.742 Y18.807
X-94.192 Y18.796
X-94.642 Y18.766
X-95.09 Y18.719
X-95.532 Y18.635
X-95.966 Y18.514
X-96.388 Y18.355
X-96.79 Y18.152
X-97.173 Y17.916
X-97.528 Y17.638
X-97.851 Y17.324
X-98.145 Y16.983
X-98.398 Y16.61
X-98.617 Y16.216
X-98.794 Y15.802
X-98.924 Y15.371
X-99.016 Y14.93
X-99.056 Y14.481
X-99.053 Y14.031
X-99.007 Y13.583
X-98.91 Y13.143
X-98.778 Y12.712
X-98.596 Y12.3
X-98.373 Y11.909
X-98.115 Y11.54
X-97.816 Y11.203
X-97.489 Y10.892
X-97.132 Y10.619
X-96.746 Y10.386
X-96.342 Y10.186
X-95.917 Y10.038
X-95.48 Y9.928
X-95.036 Y9.852
X-94.588 Y9.807
X-94.138 Y9.782
X-93.688 Y9.77
X-93.238 Y9.764
X-92.787 Y9.761
X-91.886 Y9.759
X-90.985
X-90.685 Y9.757
X-90.524 Y9.743
X-90.376 Y9.718
X-90.231 Y9.68
X-90.16 Y9.653
X-90.034 Y9.574
X-89.949 Y9.452
X-89.919 Y9.306
G0 Z3
X-90.222 Y20.637
Z-0.683
G1 Z-0.841 F100
X-90.218 Y20.631 Z-0.89
X-90.206 Y20.611 Z-0.935
X-90.188 Y20.581 Z-0.97
X-90.166 Y20.543 Z-0.992
X-90.141 Y20.501 Z-1
G2 X-89.919 Y19.747 I-1.36 J-0.809
G1 Y19.41 F800
X-89.927 Y19.26
X-89.982 Y19.121
X-90.064 Y18.995
X-90.164 Y18.883
X-90.277 Y18.784
X-90.399 Y18.698
X-90.535 Y18.618
X-90.722 Y18.527
X-90.919 Y18.45
X-91.2 Y18.366
X-91.556 Y18.29
X-92.002 Y18.232
X-92.452 Y18.202
X-92.902 Y18.186
X-93.352 Y18.178
X-93.803 Y18.169
X-94.253 Y18.148
X-94.701 Y18.111
X-95.147 Y18.042
X-95.584 Y17.935
X-96.009 Y17.786
X-96.416 Y17.593
X-96.799 Y17.356
X-97.149 Y17.072
X-97.463 Y16.75
X-97.737 Y16.392
X-97.968 Y16.005
X-98.15 Y15.593
X-98.284 Y15.163
X-98.362 Y14.719
X-98.386 Y14.269
X-98.356 Y13.82
X-98.276 Y13.377
X-98.144 Y12.946
X-97.959 Y12.536
X-97.725 Y12.15
X-97.447 Y11.796
X-97.13 Y11.476
X-96.777 Y11.196
X-96.395 Y10.958
X-95.985 Y10.772
X-95.556 Y10.634
X-95.116 Y10.537
X-94.67 Y10.475
X-94.221 Y10.438
X-93.771 Y10.417
X-93.321 Y10.406
X-92.87 Y10.4
X-92.42 Y10.397
X-91.068 Y10.393
X-90.753 Y10.375
X-90.545 Y10.346
X-90.383 Y10.311
X-90.239 Y10.266
X-90.151 Y10.23
X-90.029 Y10.15
X-89.948 Y10.03
X-89.919 Y9.887
Y9.306
G0 Z3
X-90.222 Y20.3
Z-0.683
G1 Z-0.841 F100
X-90.218 Y20.293 Z-0.89
X-90.206 Y20.274 Z-0.935
X-90.188 Y20.244 Z-0.97
X-90.166 Y20.206 Z-0.992
X-90.141 Y20.164 Z-1
G2 X-89.919 Y19.41 I-1.36 J-0.809
G1 Y18.93 F800
X-89.927 Y18.78
X-89.976 Y18.638
X-90.051 Y18.508
X-90.143 Y18.391
X-90.25 Y18.285
X-90.366 Y18.19
X-90.501 Y18.099
X-90.665 Y18.005
X-90.865 Y17.912
X-91.112 Y17.82
X-91.419 Y17.733
X-91.841 Y17.65
X-92.288 Y17.598
X-92.738 Y17.569
X-93.188 Y17.552
X-93.638 Y17.537
X-94.088 Y17.514
X-94.537 Y17.473
X-94.981 Y17.401
X-95.418 Y17.29
X-95.838 Y17.129
X-96.235 Y16.914
X-96.598 Y16.648
X-96.92 Y16.333
X-97.196 Y15.977
X-97.415 Y15.583
X-97.574 Y15.162
X-97.671 Y14.722
X-97.703 Y14.273
X-97.669 Y13.824
X-97.57 Y13.384
X-97.407 Y12.964
X-97.185 Y12.572
X-96.909 Y12.216
X-96.583 Y11.906
X-96.215 Y11.645
X-95.814 Y11.441
X-95.389 Y11.29
X-94.951 Y11.187
X-94.505 Y11.121
X-94.057 Y11.081
X-93.607 Y11.057
X-93.157 Y11.044
X-92.706 Y11.037
X-92.256 Y11.033
X-91.355 Y11.029
X-90.939 Y11.009
X-90.652 Y10.973
X-90.461 Y10.933
X-90.294 Y10.883
X-90.154 Y10.83
X-90.122 Y10.813
X-90.015 Y10.731
X-89.944 Y10.616
X-89.919 Y10.483
Y9.887
G0 Z3
X-90.222 Y19.82
Z-0.683
G1 Z-0.841 F100
X-90.218 Y19.813 Z-0.89
X-90.206 Y19.794 Z-0.935
X-90.188 Y19.764 Z-0.97
X-90.166 Y19.726 Z-0.992
X-90.141 Y19.684 Z-1
G2 X-89.919 Y18.93 I-1.36 J-0.809
G1 Y18.419 F800
X-89.927 Y18.27
X-89.97 Y18.126
X-90.04 Y17.993
X-90.127 Y17.871
X-90.229 Y17.761
X-90.341 Y17.661
X-90.463 Y17.568
X-90.629 Y17.463
X-90.807 Y17.369
X-91.059 Y17.261
X-91.329 Y17.169
X-91.701 Y17.077
X-92.145 Y17.003
X-92.594 Y16.959
X-93.043 Y16.931
X-93.493 Y16.908
X-93.943 Y16.88
X-94.391 Y16.834
X-94.834 Y16.757
X-95.267 Y16.632
X-95.678 Y16.447
X-96.055 Y16.2
X-96.385 Y15.894
X-96.654 Y15.532
X-96.85 Y15.127
X-96.969 Y14.692
X-97.006 Y14.243
X-96.954 Y13.796
X-96.82 Y13.366
X-96.611 Y12.967
X-96.327 Y12.617
X-95.982 Y12.327
X-95.592 Y12.102
X-95.172 Y11.939
X-94.735 Y11.831
X-94.29 Y11.762
X-93.841 Y11.721
X-93.392 Y11.696
X-92.941 Y11.681
X-92.491 Y11.673
X-91.59 Y11.664
X-91.14 Y11.646
X-90.788 Y11.608
X-90.524 Y11.558
X-90.364 Y11.514
X-90.215 Y11.459
X-90.136 Y11.423
X-90.021 Y11.342
X-89.946 Y11.224
X-89.919 Y11.086
Y10.483
G0 Z3
X-90.222 Y19.309
Z-0.683
G1 Z-0.841 F100
X-90.218 Y19.303 Z-0.89
X-90.206 Y19.283 Z-0.935
X-90.188 Y19.253 Z-0.97
X-90.166 Y19.215 Z-0.992
X-90.141 Y19.173 Z-1
G2 X-89.919 Y18.419 I-1.36 J-0.809
G1 Y17.852 F800
X-89.927 Y17.703
X-89.962 Y17.557
X-90.024 Y17.42
X-90.106 Y17.294
X-90.202 Y17.179
X-90.309 Y17.074
X-90.424 Y16.978
X-90.547 Y16.891
X-90.674 Y16.813
X-90.807 Y16.742
X-90.942 Y16.678
X-91.081 Y16.621
X-91.222 Y16.57
X-91.365 Y16.524
X-91.509 Y16.483
X-91.655 Y16.447
X-91.801 Y16.415
X-91.949 Y16.386
X-92.096 Y16.362
X-92.245 Y16.34
X-92.394 Y16.32
X-92.543 Y16.303
X-92.692 Y16.288
X-92.885 Y16.27
X-93.334 Y16.233
X-93.783 Y16.195
X-94.23 Y16.141
X-94.672 Y16.053
X-95.096 Y15.902
X-95.486 Y15.677
X-95.817 Y15.372
X-96.06 Y14.992
X-96.197 Y14.563
X-96.209 Y14.113
X-96.154 Y13.895
X-95.992 Y13.474
X-95.712 Y13.121
X-95.351 Y12.852
X-94.942 Y12.663
X-94.509 Y12.541
X-94.065 Y12.465
X-93.616 Y12.419
X-93.167 Y12.392
X-92.717 Y12.376
X-92.041 Y12.363
X-91.832 Y12.357
X-91.682 Y12.353
X-91.532 Y12.346
X-91.382 Y12.337
X-91.232 Y12.326
X-91.083 Y12.311
X-90.934 Y12.293
X-90.786 Y12.27
X-90.639 Y12.242
X-90.492 Y12.209
X-90.348 Y12.168
X-90.207 Y12.117
X-90.139 Y12.087
X-90.023 Y12.006
X-89.946 Y11.887
X-89.919 Y11.748
Y11.086
G0 Z3
X-90.222 Y18.742
Z-0.683
G1 Z-0.841 F100
X-90.218 Y18.736 Z-0.89
X-90.206 Y18.716 Z-0.935
X-90.188 Y18.686 Z-0.97
X-90.166 Y18.648 Z-0.992
X-90.141 Y18.606 Z-1
G2 X-89.919 Y17.852 I-1.36 J-0.809
G1 Y17.239 F800
X-89.927 Y17.09
X-89.972 Y16.947
X-90.04 Y16.813
X-90.126 Y16.69
X-90.225 Y16.577
X-90.334 Y16.474
X-90.465 Y16.369
X-90.625 Y16.26
X-90.822 Y16.149
X-91.06 Y16.038
X-91.36 Y15.927
X-91.752 Y15.817
X-92.194 Y15.73
X-92.64 Y15.67
X-92.864 Y15.647
X-92.968 Y15.602
X-93.053 Y15.529
X-93.112 Y15.433
X-93.223 Y14.996
X-93.219 Y14.771
X-93.239 Y14.413
X-93.259 Y14.265
X-93.295 Y14.119
X-93.332 Y14.013
X-93.374 Y13.908
X-93.384 Y13.796
X-93.359 Y13.686
X-93.302 Y13.589
X-93.139 Y13.434
X-92.755 Y13.199
X-92.319 Y13.084
X-91.873 Y13.025
X-91.424 Y12.982
X-90.977 Y12.93
X-90.621 Y12.865
X-90.416 Y12.81
X-90.246 Y12.75
X-90.109 Y12.688
X-90.104 Y12.685
X-90.006 Y12.603
X-89.942 Y12.491
X-89.919 Y12.365
Y11.748
G0 Z3
X-90.222 Y18.129
Z-0.683
G1 Z-0.841 F100
X-90.218 Y18.123 Z-0.89
X-90.206 Y18.103 Z-0.935
X-90.188 Y18.073 Z-0.97
X-90.166 Y18.035 Z-0.992
X-90.141 Y17.993 Z-1
G2 X-89.919 Y17.239 I-1.36 J-0.809
G1 Y16.683 F800
X-89.927 Y16.533
X-89.967 Y16.388
X-90.031 Y16.253
X-90.114 Y16.128
X-90.21 Y16.012
X-90.317 Y15.906
X-90.444 Y15.8
X-90.605 Y15.685
X-90.796 Y15.571
X-91.036 Y15.453
X-91.341 Y15.332
X-91.772 Y15.2
X-91.979 Y15.111
X-92.144 Y14.958
X-92.274 Y14.774
X-92.327 Y14.675
X-92.349 Y14.564
X-92.335 Y14.452
X-92.243 Y14.247
X-92.165 Y14.165
X-91.822 Y13.874
X-91.403 Y13.709
X-90.966 Y13.597
X-90.541 Y13.493
X-90.342 Y13.426
X-90.184 Y13.359
X-90.118 Y13.325
X-90.013 Y13.242
X-89.943 Y13.128
X-89.919 Y12.997
Y12.365
G0 Z3
X-90.222 Y17.573
Z-0.683
G1 Z-0.841 F100
X-90.218 Y17.566 Z-0.89
X-90.206 Y17.547 Z-0.935
X-90.188 Y17.517 Z-0.97
X-90.166 Y17.478 Z-0.992
X-90.141 Y17.436 Z-1
G2 X-89.919 Y16.683 I-1.36 J-0.809
G1 Y16.116 F800
X-89.927 Y15.966
X-89.962 Y15.82
X-90.024 Y15.683
X-90.104 Y15.556
X-90.197 Y15.439
X-90.302 Y15.331
X-90.427 Y15.222
X-90.506 Y15.163
X-90.587 Y15.107
X-90.682 Y15.047
X-90.78 Y14.991
X-90.856 Y14.908
X-90.903 Y14.806
X-90.918 Y14.694
X-90.899 Y14.583
X-90.847 Y14.483
X-90.688 Y14.324
X-90.287 Y14.119
X-90.106 Y14.016
X-90.082 Y14
X-89.995 Y13.918
X-89.939 Y13.812
X-89.919 Y13.693
G0 Z3
X-90.222 Y17.006
Z-0.683
G1 Z-0.841 F100
X-90.218 Y16.999 Z-0.89
X-90.206 Y16.98 Z-0.935
X-90.188 Y16.95 Z-0.97
X-90.166 Y16.912 Z-0.992
X-90.141 Y16.869 Z-1
G2 X-89.919 Y16.116 I-1.36 J-0.809
G1 Y12.997 F800
G2 X-90.237 Y13.002 I-0.159 J0.006 F100
G1 X-90.231 Y13.046
X-90.212 Y13.086
X-90.184 Y13.12
X-90.147 Y13.135 Z-0.994
X-90.113 Y13.149 Z-0.979
X-90.083 Y13.161 Z-0.955
X-90.078 Z-0.95
X-90.055 Y13.158 Z-0.918
X-90.041 Y13.156 Z-0.881
X-90.036 Y13.155 Z-0.841
G0 Z3
X-90.443 Y21.743
Z-1.683
G1 Z-1.841 F100
X-90.439 Y21.737 Z-1.89
X-90.428 Y21.717 Z-1.935
X-90.41 Y21.687 Z-1.97
X-90.387 Y21.649 Z-1.992
X-90.362 Y21.607 Z-2
G2 X-89.919 Y20.1 I-2.721 J-1.618
G1 Y19.998 F800
X-89.921 Y19.96
X-90.023 Y19.85
X-90.147 Y19.766
X-90.282 Y19.7
X-90.433 Y19.645
X-90.639 Y19.587
X-90.946 Y19.527
X-91.394 Y19.477
X-91.844 Y19.456
X-92.294 Y19.447
X-92.744 Y19.443
X-93.645 Y19.441
X-94.096
X-94.546 Y19.423
X-94.994 Y19.381
X-95.442 Y19.329
X-95.882 Y19.234
X-96.31 Y19.094
X-96.732 Y18.935
X-97.133 Y18.73
X-97.51 Y18.484
X-97.877 Y18.222
X-98.209 Y17.918
X-98.51 Y17.583
X-98.795 Y17.234
X-99.036 Y16.854
X-99.238 Y16.451
X-99.423 Y16.041
X-99.555 Y15.61
X-99.645 Y15.168
X-99.717 Y14.724
X-99.73 Y14.274
X-99.702 Y13.824
X-99.657 Y13.376
X-99.55 Y12.938
X-99.406 Y12.512
X-99.245 Y12.091
X-99.027 Y11.697
X-98.776 Y11.322
X-98.512 Y10.958
X-98.197 Y10.635
X-97.858 Y10.34
X-97.508 Y10.056
X-97.119 Y9.828
X-96.714 Y9.631
X-96.302 Y9.448
X-95.867 Y9.331
X-95.425 Y9.246
X-94.98 Y9.177
X-94.53 Y9.146
X-94.08 Y9.133
X-93.63 Y9.127
X-93.179 Y9.125
X-91.828 Y9.124
X-90.29 Y9.123
X-90.148 Y9.095
X-90.028 Y9.015
X-89.948 Y8.895
X-89.919 Y8.753
G0 Z3
X-90.222 Y20.888
Z-1.683
G1 Z-1.841 F100
X-90.218 Y20.881 Z-1.89
X-90.206 Y20.862 Z-1.935
X-90.188 Y20.831 Z-1.97
X-90.166 Y20.793 Z-1.992
X-90.141 Y20.751 Z-2
G2 X-89.919 Y19.998 I-1.36 J-0.809
G1 Y19.747 F800
X-89.923 Y19.672
X-89.992 Y19.539
X-90.087 Y19.423
X-90.2 Y19.325
X-90.324 Y19.24
X-90.456 Y19.169
X-90.631 Y19.092
X-90.826 Y19.024
X-91.103 Y18.952
X-91.492 Y18.884
X-91.941 Y18.842
X-92.391 Y18.823
X-92.841 Y18.814
X-93.291 Y18.809
X-93.742 Y18.807
X-94.192 Y18.796
X-94.642 Y18.766
X-95.09 Y18.719
X-95.532 Y18.635
X-95.966 Y18.514
X-96.388 Y18.355
X-96.79 Y18.152
X-97.173 Y17.916
X-97.528 Y17.638
X-97.851 Y17.324
X-98.145 Y16.983
X-98.398 Y16.61
X-98.617 Y16.216
X-98.794 Y15.802
X-98.924 Y15.371
X-99.016 Y14.93
X-99.056 Y14.481
X-99.053 Y14.031
X-99.007 Y13.583
X-98.91 Y13.143
X-98.778 Y12.712
X-98.596 Y12.3
X-98.373 Y11.909
X-98.115 Y11.54
X-97.816 Y11.203
X-97.489 Y10.892
X-97.132 Y10.619
X-96.746 Y10.386
X-96.342 Y10.186
X-95.917 Y10.038
X-95.48 Y9.928
X-95.036 Y9.852
X-94.588 Y9.807
X-94.138 Y9.782
X-93.688 Y9.77
X-93.238 Y9.764
X-92.787 Y9.761
X-91.886 Y9.759
X-90.985
X-90.685 Y9.757
X-90.524 Y9.743
X-90.376 Y9.718
X-90.231 Y9.68
X-90.16 Y9.653
X-90.034 Y9.574
X-89.949 Y9.452
X-89.919 Y9.306
G0 Z3
X-90.222 Y20.637
Z-1.683
G1 Z-1.841 F100
X-90.218 Y20.631 Z-1.89
X-90.206 Y20.611 Z-1.935
X-90.188 Y20.581 Z-1.97
X-90.166 Y20.543 Z-1.992
X-90.141 Y20.501 Z-2
G2 X-89.919 Y19.747 I-1.36 J-0.809
G1 Y19.41 F800
X-89.927 Y19.26
X-89.982 Y19.121
X-90.064 Y18.995
X-90.164 Y18.883
X-90.277 Y18.784
X-90.399 Y18.698
X-90.535 Y18.618
X-90.722 Y18.527
X-90.919 Y18.45
X-91.2 Y18.366
X-91.556 Y18.29
X-92.002 Y18.232
X-92.452 Y18.202
X-92.902 Y18.186
X-93.352 Y18.178
X-93.803 Y18.169
X-94.253 Y18.148
X-94.701 Y18.111
X-95.147 Y18.042
X-95.584 Y17.935
X-96.009 Y17.786
X-96.416 Y17.593
X-96.799 Y17.356
X-97.149 Y17.072
X-97.463 Y16.75
X-97.737 Y16.392
X-97.968 Y16.005
X-98.15 Y15.593
X-98.284 Y15.163
X-98.362 Y14.719
X-98.386 Y14.269
X-98.356 Y13.82
X-98.276 Y13.377
X-98.144 Y12.946
X-97.959 Y12.536
X-97.725 Y12.15
X-97.447 Y11.796
X-97.13 Y11.476
X-96.777 Y11.196
X-96.395 Y10.958
X-95.985 Y10.772
X-95.556 Y10.634
X-95.116 Y10.537
X-94.67 Y10.475
X-94.221 Y10.438
X-93.771 Y10.417
X-93.321 Y10.406
X-92.87 Y10.4
X-92.42 Y10.397
X-91.068 Y10.393
X-90.753 Y10.375
X-90.545 Y10.346
X-90.383 Y10.311
X-90.239 Y10.266
X-90.151 Y10.23
X-90.029 Y10.15
X-89.948 Y10.03
X-89.919 Y9.887
Y9.306
G0 Z3
X-90.222 Y20.3
Z-1.683
G1 Z-1.841 F100
X-90.218 Y20.293 Z-1.89
X-90.206 Y20.274 Z-1.935
X-90.188 Y20.244 Z-1.97
X-90.166 Y20.206 Z-1.992
X-90.141 Y20.164 Z-2
G2 X-89.919 Y19.41 I-1.36 J-0.809
G1 Y18.93 F800
X-89.927 Y18.78
X-89.976 Y18.638
X-90.051 Y18.508
X-90.143 Y18.391
X-90.25 Y18.285
X-90.366 Y18.19
X-90.501 Y18.099
X-90.665 Y18.005
X-90.865 Y17.912
X-91.112 Y17.82
X-91.419 Y17.733
X-91.841 Y17.65
X-92.288 Y17.598
X-92.738 Y17.569
X-93.188 Y17.552
X-93.638 Y17.537
X-94.088 Y17.514
X-94.537 Y17.473
X-94.981 Y17.401
X-95.418 Y17.29
X-95.838 Y17.129
X-96.235 Y16.914
X-96.598 Y16.648
X-96.92 Y16.333
X-97.196 Y15.977
X-97.415 Y15.583
X-97.574 Y15.162
X-97.671 Y14.722
X-97.703 Y14.273
X-97.669 Y13.824
X-97.57 Y13.384
X-97.407 Y12.964
X-97.185 Y12.572
X-96.909 Y12.216
X-96.583 Y11.906
X-96.215 Y11.645
X-95.814 Y11.441
X-95.389 Y11.29
X-94.951 Y11.187
X-94.505 Y11.121
X-94.057 Y11.081
X-93.607 Y11.057
X-93.157 Y11.044
X-92.706 Y11.037
X-92.256 Y11.033
X-91.355 Y11.029
X-90.939 Y11.009
X-90.652 Y10.973
X-90.461 Y10.933
X-90.294 Y10.883
X-90.154 Y10.83
X-90.122 Y10.813
X-90.015 Y10.731
X-89.944 Y10.616
X-89.919 Y10.483
Y9.887
G0 Z3
X-90.222 Y19.82
Z-1.683
G1 Z-1.841 F100
X-90.218 Y19.813 Z-1.89
X-90.206 Y19.794 Z-1.935
X-90.188 Y19.764 Z-1.97
X-90.166 Y19.726 Z-1.992
X-90.141 Y19.684 Z-2
G2 X-89.919 Y18.93 I-1.36 J-0.809
G1 Y18.419 F800
X-89.927 Y18.27
X-89.97 Y18.126
X-90.04 Y17.993
X-90.127 Y17.871
X-90.229 Y17.761
X-90.341 Y17.661
X-90.463 Y17.568
X-90.629 Y17.463
X-90.807 Y17.369
X-91.059 Y17.261
X-91.329 Y17.169
X-91.701 Y17.077
X-92.145 Y17.003
X-92.594 Y16.959
X-93.043 Y16.931
X-93.493 Y16.908
X-93.943 Y16.88
X-94.391 Y16.834
X-94.834 Y16.757
X-95.267 Y16.632
X-95.678 Y16.447
X-96.055 Y16.2
X-96.385 Y15.894
X-96.654 Y15.532
X-96.85 Y15.127
X-96.969 Y14.692
X-97.006 Y14.243
X-96.954 Y13.796
X-96.82 Y13.366
X-96.611 Y12.967
X-96.327 Y12.617
X-95.982 Y12.327
X-95.592 Y12.102
X-95.172 Y11.939
X-94.735 Y11.831
X-94.29 Y11.762
X-93.841 Y11.721
X-93.392 Y11.696
X-92.941 Y11.681
X-92.491 Y11.673
X-91.59 Y11.664
X-91.14 Y11.646
X-90.788 Y11.608
X-90.524 Y11.558
X-90.364 Y11.514
X-90.215 Y11.459
X-90.136 Y11.423
X-90.021 Y11.342
X-89.946 Y11.224
X-89.919 Y11.086
Y10.483
G0 Z3
X-90.222 Y19.309
Z-1.683
G1 Z-1.841 F100
X-90.218 Y19.303 Z-1.89
X-90.206 Y19.283 Z-1.935
X-90.188 Y19.253 Z-1.97
X-90.166 Y19.215 Z-1.992
X-90.141 Y19.173 Z-2
G2 X-89.919 Y18.419 I-1.36 J-0.809
G1 Y17.852 F800
X-89.927 Y17.703
X-89.962 Y17.557
X-90.024 Y17.42
X-90.106 Y17.294
X-90.202 Y17.179
X-90.309 Y17.074
X-90.424 Y16.978
X-90.547 Y16.891
X-90.674 Y16.813
X-90.807 Y16.742
X-90.942 Y16.678
X-91.081 Y16.621
X-91.222 Y16.57
X-91.365 Y16.524
X-91.509 Y16.483
X-91.655 Y16.447
X-91.801 Y16.415
X-91.949 Y16.386
X-92.096 Y16.362
X-92.245 Y16.34
X-92.394 Y16.32
X-92.543 Y16.303
X-92.692 Y16.288
X-92.885 Y16.27
X-93.334 Y16.233
X-93.783 Y16.195
X-94.23 Y16.141
X-94.672 Y16.053
X-95.096 Y15.902
X-95.486 Y15.677
X-95.817 Y15.372
X-96.06 Y14.992
X-96.197 Y14.563
X-96.209 Y14.113
X-96.154 Y13.895
X-95.992 Y13.474
X-95.712 Y13.121
X-95.351 Y12.852
X-94.942 Y12.663
X-94.509 Y12.541
X-94.065 Y12.465
X-93.616 Y12.419
X-93.167 Y12.392
X-92.717 Y12.376
X-92.041 Y12.363
X-91.832 Y12.357
X-91.682 Y12.353
X-91.532 Y12.346
X-91.382 Y12.337
X-91.232 Y12.326
X-91.083 Y12.311
X-90.934 Y12.293
X-90.786 Y12.27
X-90.639 Y12.242
X-90.492 Y12.209
X-90.348 Y12.168
X-90.207 Y12.117
X-90.139 Y12.087
X-90.023 Y12.006
X-89.946 Y11.887
X-89.919 Y11.748
Y11.086
G0 Z3
X-90.222 Y18.742
Z-1.683
G1 Z-1.841 F100
X-90.218 Y18.736 Z-1.89
X-90.206 Y18.716 Z-1.935
X-90.188 Y18.686 Z-1.97
X-90.166 Y18.648 Z-1.992
X-90.141 Y18.606 Z-2
G2 X-89.919 Y17.852 I-1.36 J-0.809
G1 Y17.239 F800
X-89.927 Y17.09
X-89.972 Y16.947
X-90.04 Y16.813
X-90.126 Y16.69
X-90.225 Y16.577
X-90.334 Y16.474
X-90.465 Y16.369
X-90.625 Y16.26
X-90.822 Y16.149
X-91.06 Y16.038
X-91.36 Y15.927
X-91.752 Y15.817
X-92.194 Y15.73
X-92.64 Y15.67
X-92.864 Y15.647
X-92.968 Y15.602
X-93.053 Y15.529
X-93.112 Y15.433
X-93.223 Y14.996
X-93.219 Y14.771
X-93.239 Y14.413
X-93.259 Y14.265
X-93.295 Y14.119
X-93.332 Y14.013
X-93.374 Y13.908
X-93.384 Y13.796
X-93.359 Y13.686
X-93.302 Y13.589
X-93.139 Y13.434
X-92.755 Y13.199
X-92.319 Y13.084
X-91.873 Y13.025
X-91.424 Y12.982
X-90.977 Y12.93
X-90.621 Y12.865
X-90.416 Y12.81
X-90.246 Y12.75
X-90.109 Y12.688
X-90.104 Y12.685
X-90.006 Y12.603
X-89.942 Y12.491
X-89.919 Y12.365
Y11.748
G0 Z3
X-90.222 Y18.129
Z-1.683
G1 Z-1.841 F100
X-90.218 Y18.123 Z-1.89
X-90.206 Y18.103 Z-1.935
X-90.188 Y18.073 Z-1.97
X-90.166 Y18.035 Z-1.992
X-90.141 Y17.993 Z-2
G2 X-89.919 Y17.239 I-1.36 J-0.809
G1 Y16.683 F800
X-89.927 Y16.533
X-89.967 Y16.388
X-90.031 Y16.253
X-90.114 Y16.128
X-90.21 Y16.012
X-90.317 Y15.906
X-90.444 Y15.8
X-90.605 Y15.685
X-90.796 Y15.571
X-91.036 Y15.453
X-91.341 Y15.332
X-91.772 Y15.2
X-91.979 Y15.111
X-92.144 Y14.958
X-92.274 Y14.774
X-92.327 Y14.675
X-92.349 Y14.564
X-92.335 Y14.452
X-92.243 Y14.247
X-92.165 Y14.165
X-91.822 Y13.874
X-91.403 Y13.709
X-90.966 Y13.597
X-90.541 Y13.493
X-90.342 Y13.426
X-90.184 Y13.359
X-90.118 Y13.325
X-90.013 Y13.242
X-89.943 Y13.128
X-89.919 Y12.997
Y12.365
G0 Z3
X-90.222 Y17.573
Z-1.683
G1 Z-1.841 F100
X-90.218 Y17.566 Z-1.89
X-90.206 Y17.547 Z-1.935
X-90.188 Y17.517 Z-1.97
X-90.166 Y17.478 Z-1.992
X-90.141 Y17.436 Z-2
G2 X-89.919 Y16.683 I-1.36 J-0.809
G1 Y16.116 F800
X-89.927 Y15.966
X-89.962 Y15.82
X-90.024 Y15.683
X-90.104 Y15.556
X-90.197 Y15.439
X-90.302 Y15.331
X-90.427 Y15.222
X-90.506 Y15.163
X-90.587 Y15.107
X-90.682 Y15.047
X-90.78 Y14.991
X-90.856 Y14.908
X-90.903 Y14.806
X-90.918 Y14.694
X-90.899 Y14.583
X-90.847 Y14.483
X-90.688 Y14.324
X-90.287 Y14.119
X-90.106 Y14.016
X-90.082 Y14
X-89.995 Y13.918
X-89.939 Y13.812
X-89.919 Y13.693
G0 Z3
X-90.222 Y17.006
Z-1.683
G1 Z-1.841 F100
X-90.218 Y16.999 Z-1.89
X-90.206 Y16.98 Z-1.935
X-90.188 Y16.95 Z-1.97
X-90.166 Y16.912 Z-1.992
X-90.141 Y16.869 Z-2
G2 X-89.919 Y16.116 I-1.36 J-0.809
G1 Y12.997 F800
G2 X-90.237 Y13.002 I-0.159 J0.006 F100
G1 X-90.231 Y13.046
X-90.212 Y13.086
X-90.184 Y13.12
X-90.147 Y13.135 Z-1.994
X-90.113 Y13.149 Z-1.979
X-90.083 Y13.161 Z-1.955
X-90.078 Z-1.95
X-90.055 Y13.158 Z-1.918
X-90.041 Y13.156 Z-1.881
X-90.036 Y13.155 Z-1.841
G0 Z3
X-90.443 Y21.743
Z-2.682
G1 Z-2.841 F100
X-90.439 Y21.737 Z-2.89
X-90.428 Y21.717 Z-2.935
X-90.41 Y21.687 Z-2.97
X-90.387 Y21.649 Z-2.992
X-90.362 Y21.607 Z-3
G2 X-89.919 Y20.1 I-2.721 J-1.618
G1 Y19.998 F800
X-89.921 Y19.96
X-90.023 Y19.85
X-90.147 Y19.766
X-90.282 Y19.7
X-90.433 Y19.645
X-90.639 Y19.587
X-90.946 Y19.527
X-91.394 Y19.477
X-91.844 Y19.456
X-92.294 Y19.447
X-92.744 Y19.443
X-93.645 Y19.441
X-94.096
X-94.546 Y19.423
X-94.994 Y19.381
X-95.442 Y19.329
X-95.882 Y19.234
X-96.31 Y19.094
X-96.732 Y18.935
X-97.133 Y18.73
X-97.51 Y18.484
X-97.877 Y18.222
X-98.209 Y17.918
X-98.51 Y17.583
X-98.795 Y17.234
X-99.036 Y16.854
X-99.238 Y16.451
X-99.423 Y16.041
X-99.555 Y15.61
X-99.645 Y15.168
X-99.717 Y14.724
X-99.73 Y14.274
X-99.702 Y13.824
X-99.657 Y13.376
X-99.55 Y12.938
X-99.406 Y12.512
X-99.245 Y12.091
X-99.027 Y11.697
X-98.776 Y11.322
X-98.512 Y10.958
X-98.197 Y10.635
X-97.858 Y10.34
X-97.508 Y10.056
X-97.119 Y9.828
X-96.714 Y9.631
X-96.302 Y9.448
X-95.867 Y9.331
X-95.425 Y9.246
X-94.98 Y9.177
X-94.53 Y9.146
X-94.08 Y9.133
X-93.63 Y9.127
X-93.179 Y9.125
X-91.828 Y9.124
X-90.29 Y9.123
X-90.148 Y9.095
