(Sensor_1DOF)
(T1  D=1 CR=0 - ZMIN=-3.2 - flat end mill)
G90 G94
G17
G21
(When using Fusion 360 for Personal Use, the feedrate of)
(rapid moves is reduced to match the feedrate of cutting)
(moves, which can increase machining time. Unrestricted rapid)
(moves are available with a Fusion 360 Subscription.)

(Magnet Spot)
S20000 M3
G54
G0 X29.949 Y5.813
Z5
G1 Z3 F100
Z0.55
S2000
G3 X29.655 Y5.065 Z0.517 I0.119 J-0.478 F50
X30.457 Y5.035 Z0.484 I0.412 J0.269
X30.222 Y5.801 Z0.452 I-0.39 J0.3
X29.576 Y5.327 Z0.419 I-0.154 J-0.466
X30.236 Y4.875 Z0.386 I0.49 J0.008
X30.445 Y5.646 Z0.353 I-0.169 J0.46
X29.649 Y5.589 Z0.32 I-0.378 J-0.311
X29.965 Y4.857 Z0.287 I0.418 J-0.254
X30.551 Y5.396 Z0.255 I0.102 J0.477
X29.85 Y5.771 Z0.222 I-0.484 J-0.061
X29.727 Y4.987 Z0.189 I0.217 J-0.436
X30.507 Y5.129 Z0.156 I0.34 J0.348
X30.116 Y5.818 Z0.123 I-0.44 J0.206
X29.595 Y5.222 Z0.091 I-0.049 J-0.483
X30.329 Y4.927 Z0.058 I0.471 J0.113
X30.365 Y5.716 Z0.025 I-0.262 J0.407
X29.61 Y5.491 Z-0.008 I-0.298 J-0.381
X30.071 Y4.852 Z-0.041 I0.457 J-0.156
X30.521 Y5.497 Z-0.073 I-0.004 J0.482
X29.764 Y5.709 Z-0.106 I-0.454 J-0.163
X29.814 Y4.926 Z-0.139 I0.303 J-0.374
X30.536 Y5.23 Z-0.172 I0.253 J0.409
X30.011 Y5.811 Z-0.205 I-0.469 J0.104
X29.636 Y5.125 Z-0.237 I0.056 J-0.476
X30.407 Y4.997 Z-0.27 I0.431 J0.21
X30.273 Y5.766 Z-0.303 I-0.34 J0.337
X29.592 Y5.387 Z-0.336 I-0.206 J-0.431
X30.174 Y4.87 Z-0.369 I0.474 J-0.052
X30.47 Y5.589 Z-0.402 I-0.107 J0.465
X29.695 Y5.631 Z-0.434 I-0.403 J-0.254
X29.91 Y4.886 Z-0.467 I0.372 J-0.296
X30.542 Y5.335 Z-0.5 I0.157 J0.448
X29.592 Y5.335 I-0.475 J0
X30.542 Y5.335 I0.475 J0
S20000
G1 X30.568 Y5.609 F100
X30.57 Y5.759
X30.5 Y5.892
X30.39 Y5.994
X30.257 Y6.063
X30.111 Y6.097
X29.961 Y6.099
X29.814 Y6.069
X29.676 Y6.009
X29.553 Y5.924
X29.449 Y5.816
X29.368 Y5.69
X29.312 Y5.55
X29.285 Y5.403
X29.286 Y5.253
X29.315 Y5.106
X29.372 Y4.967
X29.455 Y4.842
X29.559 Y4.734
X29.683 Y4.649
X29.82 Y4.588
X29.966 Y4.555
X30.116 Y4.55
X30.264 Y4.574
X30.405 Y4.625
X30.534 Y4.702
X30.645 Y4.803
X30.736 Y4.922
X30.802 Y5.057
X30.852 Y5.198
X30.888 Y5.344
X30.913 Y5.492
X30.914 Y5.642
X30.89 Y5.79
X30.862 Y5.865
X30.855 Y5.882
X30.846 Y5.898
X30.837 Y5.914
X30.78 Y5.999
X30.754 Y6.029
X30.74 Y6.041
X30.453 Y6.233
X30.439 Y6.24
X30.381 Y6.253
X30.093 Y6.31
X30.079 Y6.312
X30.064
X30.036 Y6.309
X29.719 Y6.246
X29.704 Y6.242
X29.69 Y6.236
X29.597 Y6.178
X29.425 Y6.062
X29.385 Y6.035
X29.372 Y6.022
X29.362 Y6.009
X29.229 Y5.811
X29.168 Y5.717
X29.161 Y5.702
X29.157 Y5.688
X29.094 Y5.371
X29.089 Y5.342
Y5.328
X29.091 Y5.314
X29.148 Y5.026
X29.161 Y4.968
X29.167 Y4.954
X29.175 Y4.939
X29.348 Y4.68
X29.369 Y4.651
X29.387 Y4.634
X29.661 Y4.45
X29.69 Y4.433
X29.704 Y4.428
X29.748 Y4.418
X30.05 Y4.358
X30.064 Y4.357
X30.093 Y4.36
X30.427 Y4.427
X30.439 Y4.431
X30.45 Y4.436
X30.473 Y4.45
X30.727 Y4.619
X30.746 Y4.633
X30.764 Y4.65
X30.786 Y4.68
X30.965 Y4.948
X30.97 Y4.959
X30.977 Y4.981
X31.043 Y5.314
X31.045 Y5.328
Y5.342
X31.04 Y5.371
X30.977 Y5.688
X30.973 Y5.702
X30.967 Y5.717
X30.957 Y5.733
X30.837 Y5.914
X30.808 Y5.94
X30.772 Y5.954
X30.733 Y5.953
X30.697 Y5.936
X30.666 Y5.914 Z-0.492
X30.64 Y5.895 Z-0.471
X30.622 Y5.882 Z-0.438
X30.616 Y5.878 Z-0.4
Z5
(When using Fusion 360 for Personal Use, the feedrate of)
(rapid moves is reduced to match the feedrate of cutting)
(moves, which can increase machining time. Unrestricted rapid)
(moves are available with a Fusion 360 Subscription.)

(Holes)
G0 X30.967 Y35.335
G1 Z3 F100
Z1
Z-0.8 F10
G3 X29.167 Y35.335 I-0.9 J0 F100
X30.967 Y35.335 I0.9 J0
G1 Z-1.6 F10
G3 X29.167 Y35.335 I-0.9 J0 F100
X30.967 Y35.335 I0.9 J0
G1 Z-2.4 F10
G3 X29.167 Y35.335 I-0.9 J0 F100
X30.967 Y35.335 I0.9 J0
G1 Z-3.2 F10
G3 X29.167 Y35.335 I-0.9 J0 F100
X30.967 Y35.335 I0.9 J0
G1 Z2
Y25.335
Z1
Z-0.8 F10
G3 X29.167 Y25.335 I-0.9 J0 F100
X30.967 Y25.335 I0.9 J0
G1 Z-1.6 F10
G3 X29.167 Y25.335 I-0.9 J0 F100
X30.967 Y25.335 I0.9 J0
G1 Z-2.4 F10
G3 X29.167 Y25.335 I-0.9 J0 F100
X30.967 Y25.335 I0.9 J0
G1 Z-3.2 F10
G3 X29.167 Y25.335 I-0.9 J0 F100
X30.967 Y25.335 I0.9 J0
G1 Z2
X49.404 Y15
Z1
Z-0.8 F10
G3 X47.605 Y15 I-0.9 J0 F100
X49.404 Y15 I0.9 J0
G1 Z-1.6 F10
G3 X47.605 Y15 I-0.9 J0 F100
X49.404 Y15 I0.9 J0
G1 Z-2.4 F10
G3 X47.605 Y15 I-0.9 J0 F100
X49.404 Y15 I0.9 J0
G1 Z-3.2 F10
G3 X47.605 Y15 I-0.9 J0 F100
X49.404 Y15 I0.9 J0
G1 Z2
Y5
Z1
Z-0.8 F10
G3 X47.605 Y5 I-0.9 J0 F100
X49.404 Y5 I0.9 J0
G1 Z-1.6 F10
G3 X47.605 Y5 I-0.9 J0 F100
X49.404 Y5 I0.9 J0
G1 Z-2.4 F10
G3 X47.605 Y5 I-0.9 J0 F100
X49.404 Y5 I0.9 J0
G1 Z-3.2 F10
G3 X47.605 Y5 I-0.9 J0 F100
X49.404 Y5 I0.9 J0
G1 Z2
X65.231 Y9.97
Z1
Z-0.8 F10
G3 X63.331 Y9.955 I-0.95 J-0.008 F100
X65.231 Y9.97 I0.95 J0.008
G1 Z-1.6 F10
G3 X63.331 Y9.955 I-0.95 J-0.008 F100
X65.231 Y9.97 I0.95 J0.008
G1 Z-2.4 F10
G3 X63.331 Y9.955 I-0.95 J-0.008 F100
X65.231 Y9.97 I0.95 J0.008
G1 Z-3.2 F10
G3 X63.331 Y9.955 I-0.95 J-0.008 F100
X65.231 Y9.97 I0.95 J0.008
G1 Z2
X84.827 Y5.963
Z1
Z-0.8 F10
G3 X82.927 Y5.963 I-0.95 J0 F100
X84.827 Y5.963 I0.95 J0
G1 Z-1.6 F10
G3 X82.927 Y5.963 I-0.95 J0 F100
X84.827 Y5.963 I0.95 J0
G1 Z-2.4 F10
G3 X82.927 Y5.963 I-0.95 J0 F100
X84.827 Y5.963 I0.95 J0
G1 Z-3.2 F10
G3 X82.927 Y5.963 I-0.95 J0 F100
X84.827 Y5.963 I0.95 J0
G1 Z2
X84.759 Y25.783
Z1
Z-0.8 F10
G3 X82.995 Y26.143 I-0.882 J0.18 F100
X84.759 Y25.783 I0.882 J-0.18
G1 Z-1.6 F10
G3 X82.995 Y26.143 I-0.882 J0.18 F100
X84.759 Y25.783 I0.882 J-0.18
G1 Z-2.4 F10
G3 X82.995 Y26.143 I-0.882 J0.18 F100
X84.759 Y25.783 I0.882 J-0.18
G1 Z-3.2 F10
G3 X82.995 Y26.143 I-0.882 J0.18 F100
X84.759 Y25.783 I0.882 J-0.18
G1 Z2
Y35.783
Z1
Z-0.8 F10
G3 X82.995 Y36.143 I-0.882 J0.18 F100
X84.759 Y35.783 I0.882 J-0.18
G1 Z-1.6 F10
G3 X82.995 Y36.143 I-0.882 J0.18 F100
X84.759 Y35.783 I0.882 J-0.18
G1 Z-2.4 F10
G3 X82.995 Y36.143 I-0.882 J0.18 F100
X84.759 Y35.783 I0.882 J-0.18
G1 Z-3.2 F10
G3 X82.995 Y36.143 I-0.882 J0.18 F100
X84.759 Y35.783 I0.882 J-0.18
G1 Z2
X49.454 Y75
Z1
Z-0.8 F10
G3 X47.555 Y75 I-0.95 J0 F100
X49.454 Y75 I0.95 J0
G1 Z-1.6 F10
G3 X47.555 Y75 I-0.95 J0 F100
X49.454 Y75 I0.95 J0
G1 Z-2.4 F10
G3 X47.555 Y75 I-0.95 J0 F100
X49.454 Y75 I0.95 J0
G1 Z-3.2 F10
G3 X47.555 Y75 I-0.95 J0 F100
X49.454 Y75 I0.95 J0
G1 Z2
X57.555 Y83.05
Z1
Z-0.8 F10
G3 X55.555 Y83.05 I-1 J0 F100
X57.555 Y83.05 I1 J0
G1 Z-1.6 F10
G3 X55.555 Y83.05 I-1 J0 F100
X57.555 Y83.05 I1 J0
G1 Z-2.4 F10
G3 X55.555 Y83.05 I-1 J0 F100
X57.555 Y83.05 I1 J0
G1 Z-3.2 F10
G3 X55.555 Y83.05 I-1 J0 F100
X57.555 Y83.05 I1 J0
G1 Z2
X41.435 Y83.245
Z1
Z-0.8 F10
G3 X39.474 Y82.855 I-0.981 J-0.195 F100
X41.435 Y83.245 I0.981 J0.195
G1 Z-1.6 F10
G3 X39.474 Y82.855 I-0.981 J-0.195 F100
X41.435 Y83.245 I0.981 J0.195
G1 Z-2.4 F10
G3 X39.474 Y82.855 I-0.981 J-0.195 F100
X41.435 Y83.245 I0.981 J0.195
G1 Z-3.2 F10
G3 X39.474 Y82.855 I-0.981 J-0.195 F100
X41.435 Y83.245 I0.981 J0.195
G1 Z2
X41.454 Y66.95
Z1
Z-0.8 F10
G3 X39.454 Y66.95 I-1 J0 F100
X41.454 Y66.95 I1 J0
G1 Z-1.6 F10
G3 X39.454 Y66.95 I-1 J0 F100
X41.454 Y66.95 I1 J0
G1 Z-2.4 F10
G3 X39.454 Y66.95 I-1 J0 F100
X41.454 Y66.95 I1 J0
G1 Z-3.2 F10
G3 X39.454 Y66.95 I-1 J0 F100
X41.454 Y66.95 I1 J0
G1 Z2
X21.675
Z1
Z-0.8 F10
G3 X19.675 Y66.95 I-1 J0 F100
X21.675 Y66.95 I1 J0
G1 Z-1.6 F10
G3 X19.675 Y66.95 I-1 J0 F100
X21.675 Y66.95 I1 J0
G1 Z-2.4 F10
G3 X19.675 Y66.95 I-1 J0 F100
X21.675 Y66.95 I1 J0
G1 Z-3.2 F10
G3 X19.675 Y66.95 I-1 J0 F100
X21.675 Y66.95 I1 J0
G1 Z2
X13.554 Y75.198
Z1
Z-0.8 F10
G3 X11.696 Y74.802 I-0.929 J-0.198 F100
X13.554 Y75.198 I0.929 J0.198
G1 Z-1.6 F10
G3 X11.696 Y74.802 I-0.929 J-0.198 F100
X13.554 Y75.198 I0.929 J0.198
G1 Z-2.4 F10
G3 X11.696 Y74.802 I-0.929 J-0.198 F100
X13.554 Y75.198 I0.929 J0.198
G1 Z-3.2 F10
G3 X11.696 Y74.802 I-0.929 J-0.198 F100
X13.554 Y75.198 I0.929 J0.198
G1 Z2
X21.656 Y83.245
Z1
Z-0.8 F10
G3 X19.694 Y82.855 I-0.981 J-0.195 F100
X21.656 Y83.245 I0.981 J0.195
G1 Z-1.6 F10
G3 X19.694 Y82.855 I-0.981 J-0.195 F100
X21.656 Y83.245 I0.981 J0.195
G1 Z-2.4 F10
G3 X19.694 Y82.855 I-0.981 J-0.195 F100
X21.656 Y83.245 I0.981 J0.195
G1 Z-3.2 F10
G3 X19.694 Y82.855 I-0.981 J-0.195 F100
X21.656 Y83.245 I0.981 J0.195
G1 Z2
X5.575 Y83.05
Z1
Z-0.8 F10
G3 X3.575 Y83.05 I-1 J0 F100
X5.575 Y83.05 I1 J0
G1 Z-1.6 F10
G3 X3.575 Y83.05 I-1 J0 F100
X5.575 Y83.05 I1 J0
G1 Z-2.4 F10
G3 X3.575 Y83.05 I-1 J0 F100
X5.575 Y83.05 I1 J0
G1 Z-3.2 F10
G3 X3.575 Y83.05 I-1 J0 F100
X5.575 Y83.05 I1 J0
G1 Z2
Y66.95
Z1
Z-0.8 F10
G3 X3.575 Y66.95 I-1 J0 F100
X5.575 Y66.95 I1 J0
G1 Z-1.6 F10
G3 X3.575 Y66.95 I-1 J0 F100
X5.575 Y66.95 I1 J0
G1 Z-2.4 F10
G3 X3.575 Y66.95 I-1 J0 F100
X5.575 Y66.95 I1 J0
G1 Z-3.2 F10
G3 X3.575 Y66.95 I-1 J0 F100
X5.575 Y66.95 I1 J0
G1 Z2
X13.525 Y15
Z1
Z-0.8 F10
G3 X11.725 Y15 I-0.9 J0 F100
X13.525 Y15 I0.9 J0
G1 Z-1.6 F10
G3 X11.725 Y15 I-0.9 J0 F100
X13.525 Y15 I0.9 J0
G1 Z-2.4 F10
G3 X11.725 Y15 I-0.9 J0 F100
X13.525 Y15 I0.9 J0
G1 Z-3.2 F10
G3 X11.725 Y15 I-0.9 J0 F100
X13.525 Y15 I0.9 J0
G1 Z2
Y5
Z1
Z-0.8 F10
G3 X11.725 Y5 I-0.9 J0 F100
X13.525 Y5 I0.9 J0
G1 Z-1.6 F10
G3 X11.725 Y5 I-0.9 J0 F100
X13.525 Y5 I0.9 J0
G1 Z-2.4 F10
G3 X11.725 Y5 I-0.9 J0 F100
X13.525 Y5 I0.9 J0
G1 Z-3.2 F10
G3 X11.725 Y5 I-0.9 J0 F100
X13.525 Y5 I0.9 J0
G1 Z3
(When using Fusion 360 for Personal Use, the feedrate of)
(rapid moves is reduced to match the feedrate of cutting)
(moves, which can increase machining time. Unrestricted rapid)
(moves are available with a Fusion 360 Subscription.)

(Borders)
G0 X38.319 Y48.647
G1 Z3 F100
Z1
Z-0.8 F10
X36.797 Y60.406 F100
G2 X36.38 Y66.887 I50.082 J6.481
G1 Y82.485
G2 X40.729 Y86.835 I4.35 J0
G1 X56.279
G2 X60.63 Y82.485 I0 J-4.35
G1 Y66.887
G2 X60.212 Y60.406 I-50.5 J0
G1 X52.967 Y4.422
G2 X44.042 Y4.422 I-4.463 J0.578
G1 X38.319 Y48.647
Z-1.6 F10
X36.797 Y60.406 F100
G2 X36.38 Y66.887 I50.082 J6.481
G1 Y82.485
G2 X40.729 Y86.835 I4.35 J0
G1 X56.279
G2 X60.63 Y82.485 I0 J-4.35
G1 Y66.887
G2 X60.212 Y60.406 I-50.5 J0
G1 X52.967 Y4.422
G2 X44.042 Y4.422 I-4.463 J0.578
G1 X38.319 Y48.647
Z-2.4 F10
X36.797 Y60.406 F100
G2 X36.38 Y66.887 I50.082 J6.481
G1 Y82.485
G2 X40.729 Y86.835 I4.35 J0
G1 X56.279
G2 X60.63 Y82.485 I0 J-4.35
G1 Y66.887
G2 X60.212 Y60.406 I-50.5 J0
G1 X52.967 Y4.422
G2 X44.042 Y4.422 I-4.463 J0.578
G1 X38.319 Y48.647
Z-3.2 F10
X36.797 Y60.406 F100
G2 X36.38 Y66.887 I50.082 J6.481
G1 Y82.485
G2 X40.729 Y86.835 I4.35 J0
G1 X56.279
G2 X60.63 Y82.485 I0 J-4.35
G1 Y66.887
G2 X60.212 Y60.406 I-50.5 J0
G1 X52.967 Y4.422
G2 X44.042 Y4.422 I-4.463 J0.578
G1 X38.319 Y48.647
Z2
X30.249 Y39.831
Z1
Z-0.8 F10
G2 X34.567 Y35.335 I-0.182 J-4.496 F100
G1 Y5.335
G2 X25.567 Y5.335 I-4.5 J0
G1 Y35.335
G2 X30.249 Y39.831 I4.5 J0
G1 Z-1.6 F10
G2 X34.567 Y35.335 I-0.182 J-4.496 F100
G1 Y5.335
G2 X25.567 Y5.335 I-4.5 J0
G1 Y35.335
G2 X30.249 Y39.831 I4.5 J0
G1 Z-2.4 F10
G2 X34.567 Y35.335 I-0.182 J-4.496 F100
G1 Y5.335
G2 X25.567 Y5.335 I-4.5 J0
G1 Y35.335
G2 X30.249 Y39.831 I4.5 J0
G1 Z-3.2 F10
G2 X34.567 Y35.335 I-0.182 J-4.496 F100
G1 Y5.335
G2 X25.567 Y5.335 I-4.5 J0
G1 Y35.335
G2 X30.249 Y39.831 I4.5 J0
G1 Z2
X22.811 Y48.647
Z1
Z-0.8 F10
X21.239 Y36.502 F100
X17.088 Y4.422
G2 X8.162 Y4.422 I-4.463 J0.578
G1 X0.918 Y60.406
G2 X0.5 Y66.887 I50.082 J6.481
G1 Y82.485
G2 X4.85 Y86.835 I4.35 J0
G1 X20.4
G2 X24.75 Y82.485 I0 J-4.35
G1 Y66.887
G2 X24.332 Y60.406 I-50.5 J0
G1 X22.811 Y48.647
Z-1.6 F10
X21.239 Y36.502 F100
X17.088 Y4.422
G2 X8.162 Y4.422 I-4.463 J0.578
G1 X0.918 Y60.406
G2 X0.5 Y66.887 I50.082 J6.481
G1 Y82.485
G2 X4.85 Y86.835 I4.35 J0
G1 X20.4
G2 X24.75 Y82.485 I0 J-4.35
G1 Y66.887
G2 X24.332 Y60.406 I-50.5 J0
G1 X22.811 Y48.647
Z-2.4 F10
X21.239 Y36.502 F100
X17.088 Y4.422
G2 X8.162 Y4.422 I-4.463 J0.578
G1 X0.918 Y60.406
G2 X0.5 Y66.887 I50.082 J6.481
G1 Y82.485
G2 X4.85 Y86.835 I4.35 J0
G1 X20.4
G2 X24.75 Y82.485 I0 J-4.35
G1 Y66.887
G2 X24.332 Y60.406 I-50.5 J0
G1 X22.811 Y48.647
Z-3.2 F10
X21.239 Y36.502 F100
X17.088 Y4.422
G2 X8.162 Y4.422 I-4.463 J0.578
G1 X0.918 Y60.406
G2 X0.5 Y66.887 I50.082 J6.481
G1 Y82.485
G2 X4.85 Y86.835 I4.35 J0
G1 X20.4
G2 X24.75 Y82.485 I0 J-4.35
G1 Y66.887
G2 X24.332 Y60.406 I-50.5 J0
G1 X22.811 Y48.647
Z2
X84.473 Y86.321
Z1
Z-0.8 F10
G2 X88.377 Y82.844 I0.404 J-3.477 F100
G1 Y4.738
G2 X84.177 Y1.309 I-3.5 J0
G1 X62.312 Y5.772
G2 X59.657 Y10.197 I0.7 J3.429
G1 X81.522 Y83.84
G2 X84.473 Y86.321 I3.355 J-0.996
G1 Z-1.6 F10
G2 X88.377 Y82.844 I0.404 J-3.477 F100
G1 Y4.738
G2 X84.177 Y1.309 I-3.5 J0
G1 X62.312 Y5.772
G2 X59.657 Y10.197 I0.7 J3.429
G1 X81.522 Y83.84
G2 X84.473 Y86.321 I3.355 J-0.996
G1 Z-2.4 F10
G2 X88.377 Y82.844 I0.404 J-3.477 F100
G1 Y4.738
G2 X84.177 Y1.309 I-3.5 J0
G1 X62.312 Y5.772
G2 X59.657 Y10.197 I0.7 J3.429
G1 X81.522 Y83.84
G2 X84.473 Y86.321 I3.355 J-0.996
G1 Z-3.2 F10
G2 X88.377 Y82.844 I0.404 J-3.477 F100
G1 Y4.738
G2 X84.177 Y1.309 I-3.5 J0
G1 X62.312 Y5.772
G2 X59.657 Y10.197 I0.7 J3.429
G1 X81.522 Y83.84
G2 X84.473 Y86.321 I3.355 J-0.996
G1 Z3
M5
M30
