(Sensor_1DOF)
(T1  D=1 CR=0 - ZMIN=-3.2 - flat end mill)
G90 G94
G17
G21
(When using Fusion 360 for Personal Use, the feedrate of)
(rapid moves is reduced to match the feedrate of cutting)
(moves, which can increase machining time. Unrestricted rapid)
(moves are available with a Fusion 360 Subscription.)

(Magnet Spot)
S20000 M3
G54
G0 X30.067 Y5.335
Z5
G1 Z3 F300
Z0.5
Z-0.5 F20
X30.075 Y5.298 F300
X30.111 Y5.305
X30.13 Y5.337
X30.126 Y5.375
X30.103 Y5.404
X30.069 Y5.419
X30.031 Y5.416
X29.998 Y5.399
X29.971 Y5.373
X29.953 Y5.34
X29.946 Y5.303
X29.949 Y5.266
X29.977 Y5.196
X30.033 Y5.147
X30.105 Y5.126
X30.18 Y5.133
X30.247 Y5.166
X30.301 Y5.218
X30.337 Y5.284
X30.352 Y5.357
X30.347 Y5.432
X30.298 Y5.574
X30.186 Y5.673
X30.041 Y5.712
X29.893 Y5.69
X29.764 Y5.613
X29.67 Y5.496
X29.621 Y5.354
X29.618 Y5.204
X29.662 Y5.061
X29.748 Y4.938
X29.865 Y4.845
X30.004 Y4.788
X30.153 Y4.772
X30.301 Y4.797
X30.437 Y4.86
X30.554 Y4.955
X30.643 Y5.075
X30.701 Y5.214
X30.725 Y5.362
X30.72 Y5.512
X30.678 Y5.656
X30.609 Y5.789
X30.51 Y5.902
X30.392 Y5.993
X30.255 Y6.056
X30.11 Y6.091
X29.96 Y6.095
X29.812 Y6.071
X29.672 Y6.017
X29.543 Y5.939
X29.433 Y5.837
X29.342 Y5.718
X29.275 Y5.584
X29.231 Y5.441
X29.214 Y5.292
X29.222 Y5.142
X29.256 Y4.996
X29.314 Y4.858
X29.394 Y4.731
X29.495 Y4.619
X29.611 Y4.525
X29.742 Y4.451
X29.882 Y4.399
X30.03 Y4.37
X30.179 Y4.364
X30.328 Y4.381
X30.473 Y4.422
X30.61 Y4.483
X30.736 Y4.565
X30.848 Y4.664
X30.945 Y4.779
X31.024 Y4.906
X31.084 Y5.044
X31.125 Y5.188
X31.145 Y5.337
X31.144 Y5.487
X31.123 Y5.635
X31.082 Y5.78
X31.022 Y5.917
X30.943 Y6.044
X30.848 Y6.161
X30.739 Y6.263
X30.616 Y6.35
X30.484 Y6.421
X30.343 Y6.473
X30.197 Y6.506
X30.048 Y6.522
X29.898 Y6.517
X29.75 Y6.494
X29.606 Y6.453
X29.468 Y6.393
X29.338 Y6.317
X29.219 Y6.227
X29.112 Y6.122
X29.018 Y6.005
X28.938 Y5.878
X28.874 Y5.742
X28.826 Y5.6
X28.795 Y5.453
X28.782 Y5.304
X28.786 Y5.154
X28.807 Y5.005
X28.845 Y4.86
X28.899 Y4.72
X28.968 Y4.587
X29.053 Y4.463
X29.15 Y4.349
X29.259 Y4.246
X29.38 Y4.157
X29.509 Y4.081
X29.645 Y4.019
X29.788 Y3.973
X29.935 Y3.943
X30.084 Y3.928
X30.234 Y3.93
X30.383 Y3.948
X30.53 Y3.98
X30.672 Y4.029
X30.807 Y4.093
X30.936 Y4.17
X31.056 Y4.259
X31.166 Y4.362
X31.203 Y4.405
X31.207 Y4.411
X31.313 Y4.569
X31.435 Y4.752
X31.44 Y4.764
X31.444 Y4.775
X31.453 Y4.81
X31.555 Y5.323
Y5.333
Y5.343
X31.55 Y5.373
X31.454 Y5.856
X31.444 Y5.894
X31.436 Y5.915
X31.423 Y5.936
X31.154 Y6.339
X31.122 Y6.381
X31.111 Y6.394
X31.099 Y6.403
X30.658 Y6.698
X30.64 Y6.708
X30.62 Y6.714
X30.599 Y6.719
X30.086 Y6.821
X30.076 Y6.823
X30.062
X30.047 Y6.821
X29.594 Y6.731
X29.513 Y6.714
X29.493 Y6.707
X29.483 Y6.702
X29.03 Y6.4
X29.014 Y6.385
X29.001 Y6.369
X28.709 Y5.932
X28.696 Y5.913
X28.689 Y5.894
X28.649 Y5.695
X28.581 Y5.353
X28.579 Y5.343
Y5.333
X28.585 Y5.293
X28.681 Y4.81
X28.691 Y4.774
X28.697 Y4.756
X28.714 Y4.73
X28.983 Y4.327
X29.002 Y4.299
X29.03 Y4.271
X29.111 Y4.216
X29.473 Y3.974
X29.493 Y3.962
X29.503 Y3.958
X29.513 Y3.956
X29.996 Y3.859
X30.056 Y3.847
X30.066
X30.076
X30.398 Y3.911
X30.599 Y3.951
X30.62 Y3.956
X30.64 Y3.962
X30.657 Y3.971
X31.096 Y4.265
X31.122 Y4.288
X31.138 Y4.307
X31.207 Y4.411
Z3
X30.067 Y5.335
Z0
Z-1 F20
X30.075 Y5.298 F300
X30.111 Y5.305
X30.13 Y5.337
X30.126 Y5.375
X30.103 Y5.404
X30.069 Y5.419
X30.031 Y5.416
X29.998 Y5.399
X29.971 Y5.373
X29.953 Y5.34
X29.946 Y5.303
X29.949 Y5.266
X29.977 Y5.196
X30.033 Y5.147
X30.105 Y5.126
X30.18 Y5.133
X30.247 Y5.166
X30.301 Y5.218
X30.337 Y5.284
X30.352 Y5.357
X30.347 Y5.432
X30.298 Y5.574
X30.186 Y5.673
X30.041 Y5.712
X29.893 Y5.69
X29.764 Y5.613
X29.67 Y5.496
X29.621 Y5.354
X29.618 Y5.204
X29.662 Y5.061
X29.748 Y4.938
X29.865 Y4.845
X30.004 Y4.788
X30.153 Y4.772
X30.301 Y4.797
X30.437 Y4.86
X30.554 Y4.955
X30.643 Y5.075
X30.701 Y5.214
X30.725 Y5.362
X30.72 Y5.512
X30.678 Y5.656
X30.609 Y5.789
X30.51 Y5.902
X30.392 Y5.993
X30.255 Y6.056
X30.11 Y6.091
X29.96 Y6.095
X29.812 Y6.071
X29.672 Y6.017
X29.543 Y5.939
X29.433 Y5.837
X29.342 Y5.718
X29.275 Y5.584
X29.231 Y5.441
X29.214 Y5.292
X29.222 Y5.142
X29.256 Y4.996
X29.314 Y4.858
X29.394 Y4.731
X29.495 Y4.619
X29.611 Y4.525
X29.742 Y4.451
X29.882 Y4.399
X30.03 Y4.37
X30.179 Y4.364
X30.328 Y4.381
X30.473 Y4.422
X30.61 Y4.483
X30.736 Y4.565
X30.848 Y4.664
X30.945 Y4.779
X31.024 Y4.906
X31.084 Y5.044
X31.125 Y5.188
X31.145 Y5.337
X31.144 Y5.487
X31.123 Y5.635
X31.082 Y5.78
X31.022 Y5.917
X30.943 Y6.044
X30.848 Y6.161
X30.739 Y6.263
X30.616 Y6.35
X30.484 Y6.421
X30.343 Y6.473
X30.197 Y6.506
X30.048 Y6.522
X29.898 Y6.517
X29.75 Y6.494
X29.606 Y6.453
X29.468 Y6.393
X29.338 Y6.317
X29.219 Y6.227
X29.112 Y6.122
X29.018 Y6.005
X28.938 Y5.878
X28.874 Y5.742
X28.826 Y5.6
X28.795 Y5.453
X28.782 Y5.304
X28.786 Y5.154
X28.807 Y5.005
X28.845 Y4.86
X28.899 Y4.72
X28.968 Y4.587
X29.053 Y4.463
X29.15 Y4.349
X29.259 Y4.246
X29.38 Y4.157
X29.509 Y4.081
X29.645 Y4.019
X29.788 Y3.973
X29.935 Y3.943
X30.084 Y3.928
X30.234 Y3.93
X30.383 Y3.948
X30.53 Y3.98
X30.672 Y4.029
X30.807 Y4.093
X30.936 Y4.17
X31.056 Y4.259
X31.166 Y4.362
X31.203 Y4.405
X31.207 Y4.411
X31.313 Y4.569
X31.435 Y4.752
X31.44 Y4.764
X31.444 Y4.775
X31.453 Y4.81
X31.555 Y5.323
Y5.333
Y5.343
X31.55 Y5.373
X31.454 Y5.856
X31.444 Y5.894
X31.436 Y5.915
X31.423 Y5.936
X31.154 Y6.339
X31.122 Y6.381
X31.111 Y6.394
X31.099 Y6.403
X30.658 Y6.698
X30.64 Y6.708
X30.62 Y6.714
X30.599 Y6.719
X30.086 Y6.821
X30.076 Y6.823
X30.062
X30.047 Y6.821
X29.594 Y6.731
X29.513 Y6.714
X29.493 Y6.707
X29.483 Y6.702
X29.03 Y6.4
X29.014 Y6.385
X29.001 Y6.369
X28.709 Y5.932
X28.696 Y5.913
X28.689 Y5.894
X28.649 Y5.695
X28.581 Y5.353
X28.579 Y5.343
Y5.333
X28.585 Y5.293
X28.681 Y4.81
X28.691 Y4.774
X28.697 Y4.756
X28.714 Y4.73
X28.983 Y4.327
X29.002 Y4.299
X29.03 Y4.271
X29.111 Y4.216
X29.473 Y3.974
X29.493 Y3.962
X29.503 Y3.958
X29.513 Y3.956
X29.996 Y3.859
X30.056 Y3.847
X30.066
X30.076
X30.398 Y3.911
X30.599 Y3.951
X30.62 Y3.956
X30.64 Y3.962
X30.657 Y3.971
X31.096 Y4.265
X31.122 Y4.288
X31.138 Y4.307
X31.207 Y4.411
Z5
(When using Fusion 360 for Personal Use, the feedrate of)
(rapid moves is reduced to match the feedrate of cutting)
(moves, which can increase machining time. Unrestricted rapid)
(moves are available with a Fusion 360 Subscription.)

(Holes)
G0 X30.517 Y35.335
G1 Z3 F300
Z1
Z-0.533 F20
G3 X29.617 Y35.335 I-0.45 J0 F300
X30.517 Y35.335 I0.45 J0
G1 Z-1.067 F20
G3 X29.617 Y35.335 I-0.45 J0 F300
X30.517 Y35.335 I0.45 J0
G1 Z-1.6 F20
G3 X29.617 Y35.335 I-0.45 J0 F300
X30.517 Y35.335 I0.45 J0
G1 Z-2.133 F20
G3 X29.617 Y35.335 I-0.45 J0 F300
X30.517 Y35.335 I0.45 J0
G1 Z-2.667 F20
G3 X29.617 Y35.335 I-0.45 J0 F300
X30.517 Y35.335 I0.45 J0
G1 Z-3.2 F20
G3 X29.617 Y35.335 I-0.45 J0 F300
X30.517 Y35.335 I0.45 J0
G1 Z2
Y25.335
Z1
Z-0.533 F20
G3 X29.617 Y25.335 I-0.45 J0 F300
X30.517 Y25.335 I0.45 J0
G1 Z-1.067 F20
G3 X29.617 Y25.335 I-0.45 J0 F300
X30.517 Y25.335 I0.45 J0
G1 Z-1.6 F20
G3 X29.617 Y25.335 I-0.45 J0 F300
X30.517 Y25.335 I0.45 J0
G1 Z-2.133 F20
G3 X29.617 Y25.335 I-0.45 J0 F300
X30.517 Y25.335 I0.45 J0
G1 Z-2.667 F20
G3 X29.617 Y25.335 I-0.45 J0 F300
X30.517 Y25.335 I0.45 J0
G1 Z-3.2 F20
G3 X29.617 Y25.335 I-0.45 J0 F300
X30.517 Y25.335 I0.45 J0
G1 Z2
X13.075 Y15
Z1
Z-0.533 F20
G3 X12.175 Y15 I-0.45 J0 F300
X13.075 Y15 I0.45 J0
G1 Z-1.067 F20
G3 X12.175 Y15 I-0.45 J0 F300
X13.075 Y15 I0.45 J0
G1 Z-1.6 F20
G3 X12.175 Y15 I-0.45 J0 F300
X13.075 Y15 I0.45 J0
G1 Z-2.133 F20
G3 X12.175 Y15 I-0.45 J0 F300
X13.075 Y15 I0.45 J0
G1 Z-2.667 F20
G3 X12.175 Y15 I-0.45 J0 F300
X13.075 Y15 I0.45 J0
G1 Z-3.2 F20
G3 X12.175 Y15 I-0.45 J0 F300
X13.075 Y15 I0.45 J0
G1 Z2
Y5
Z1
Z-0.533 F20
G3 X12.175 Y5 I-0.45 J0 F300
X13.075 Y5 I0.45 J0
G1 Z-1.067 F20
G3 X12.175 Y5 I-0.45 J0 F300
X13.075 Y5 I0.45 J0
G1 Z-1.6 F20
G3 X12.175 Y5 I-0.45 J0 F300
X13.075 Y5 I0.45 J0
G1 Z-2.133 F20
G3 X12.175 Y5 I-0.45 J0 F300
X13.075 Y5 I0.45 J0
G1 Z-2.667 F20
G3 X12.175 Y5 I-0.45 J0 F300
X13.075 Y5 I0.45 J0
G1 Z-3.2 F20
G3 X12.175 Y5 I-0.45 J0 F300
X13.075 Y5 I0.45 J0
G1 Z2
X48.954
Z1
Z-0.533 F20
G3 X48.055 Y5 I-0.45 J0 F300
X48.954 Y5 I0.45 J0
G1 Z-1.067 F20
G3 X48.055 Y5 I-0.45 J0 F300
X48.954 Y5 I0.45 J0
G1 Z-1.6 F20
G3 X48.055 Y5 I-0.45 J0 F300
X48.954 Y5 I0.45 J0
G1 Z-2.133 F20
G3 X48.055 Y5 I-0.45 J0 F300
X48.954 Y5 I0.45 J0
G1 Z-2.667 F20
G3 X48.055 Y5 I-0.45 J0 F300
X48.954 Y5 I0.45 J0
G1 Z-3.2 F20
G3 X48.055 Y5 I-0.45 J0 F300
X48.954 Y5 I0.45 J0
G1 Z2
Y15
Z1
Z-0.533 F20
G3 X48.055 Y15 I-0.45 J0 F300
X48.954 Y15 I0.45 J0
G1 Z-1.067 F20
G3 X48.055 Y15 I-0.45 J0 F300
X48.954 Y15 I0.45 J0
G1 Z-1.6 F20
G3 X48.055 Y15 I-0.45 J0 F300
X48.954 Y15 I0.45 J0
G1 Z-2.133 F20
G3 X48.055 Y15 I-0.45 J0 F300
X48.954 Y15 I0.45 J0
G1 Z-2.667 F20
G3 X48.055 Y15 I-0.45 J0 F300
X48.954 Y15 I0.45 J0
G1 Z-3.2 F20
G3 X48.055 Y15 I-0.45 J0 F300
X48.954 Y15 I0.45 J0
G1 Z2
X64.756 Y9.962
Z1
Z-0.533 F20
G3 X63.806 Y9.962 I-0.475 J0 F300
X64.756 Y9.962 I0.475 J0
G1 Z-1.067 F20
G3 X63.806 Y9.962 I-0.475 J0 F300
X64.756 Y9.962 I0.475 J0
G1 Z-1.6 F20
G3 X63.806 Y9.962 I-0.475 J0 F300
X64.756 Y9.962 I0.475 J0
G1 Z-2.133 F20
G3 X63.806 Y9.962 I-0.475 J0 F300
X64.756 Y9.962 I0.475 J0
G1 Z-2.667 F20
G3 X63.806 Y9.962 I-0.475 J0 F300
X64.756 Y9.962 I0.475 J0
G1 Z-3.2 F20
G3 X63.806 Y9.962 I-0.475 J0 F300
X64.756 Y9.962 I0.475 J0
G1 Z2
X84.342 Y5.868
Z1
Z-0.533 F20
G3 X83.412 Y6.058 I-0.465 J0.095 F300
X84.342 Y5.868 I0.465 J-0.095
G1 Z-1.067 F20
G3 X83.412 Y6.058 I-0.465 J0.095 F300
X84.342 Y5.868 I0.465 J-0.095
G1 Z-1.6 F20
G3 X83.412 Y6.058 I-0.465 J0.095 F300
X84.342 Y5.868 I0.465 J-0.095
G1 Z-2.133 F20
G3 X83.412 Y6.058 I-0.465 J0.095 F300
X84.342 Y5.868 I0.465 J-0.095
G1 Z-2.667 F20
G3 X83.412 Y6.058 I-0.465 J0.095 F300
X84.342 Y5.868 I0.465 J-0.095
G1 Z-3.2 F20
G3 X83.412 Y6.058 I-0.465 J0.095 F300
X84.342 Y5.868 I0.465 J-0.095
G1 Z2
X84.318 Y25.873
Z1
Z-0.533 F20
G3 X83.436 Y26.053 I-0.441 J0.09 F300
X84.318 Y25.873 I0.441 J-0.09
G1 Z-1.067 F20
G3 X83.436 Y26.053 I-0.441 J0.09 F300
X84.318 Y25.873 I0.441 J-0.09
G1 Z-1.6 F20
G3 X83.436 Y26.053 I-0.441 J0.09 F300
X84.318 Y25.873 I0.441 J-0.09
G1 Z-2.133 F20
G3 X83.436 Y26.053 I-0.441 J0.09 F300
X84.318 Y25.873 I0.441 J-0.09
G1 Z-2.667 F20
G3 X83.436 Y26.053 I-0.441 J0.09 F300
X84.318 Y25.873 I0.441 J-0.09
G1 Z-3.2 F20
G3 X83.436 Y26.053 I-0.441 J0.09 F300
X84.318 Y25.873 I0.441 J-0.09
G1 Z2
X84.316 Y36.06
Z1
Z-0.533 F20
G3 X83.438 Y35.865 I-0.439 J-0.097 F300
X84.316 Y36.06 I0.439 J0.097
G1 Z-1.067 F20
G3 X83.438 Y35.865 I-0.439 J-0.097 F300
X84.316 Y36.06 I0.439 J0.097
G1 Z-1.6 F20
G3 X83.438 Y35.865 I-0.439 J-0.097 F300
X84.316 Y36.06 I0.439 J0.097
G1 Z-2.133 F20
G3 X83.438 Y35.865 I-0.439 J-0.097 F300
X84.316 Y36.06 I0.439 J0.097
G1 Z-2.667 F20
G3 X83.438 Y35.865 I-0.439 J-0.097 F300
X84.316 Y36.06 I0.439 J0.097
G1 Z-3.2 F20
G3 X83.438 Y35.865 I-0.439 J-0.097 F300
X84.316 Y36.06 I0.439 J0.097
G1 Z2
X57.555 Y66.95
Z1
Z-0.533 F20
G3 X55.555 Y66.95 I-1 J0 F300
X57.555 Y66.95 I1 J0
G1 Z-1.067 F20
G3 X55.555 Y66.95 I-1 J0 F300
X57.555 Y66.95 I1 J0
G1 Z-1.6 F20
G3 X55.555 Y66.95 I-1 J0 F300
X57.555 Y66.95 I1 J0
G1 Z-2.133 F20
G3 X55.555 Y66.95 I-1 J0 F300
X57.555 Y66.95 I1 J0
G1 Z-2.667 F20
G3 X55.555 Y66.95 I-1 J0 F300
X57.555 Y66.95 I1 J0
G1 Z-3.2 F20
G3 X55.555 Y66.95 I-1 J0 F300
X57.555 Y66.95 I1 J0
G1 Z2
X48.979 Y75
Z1
Z-0.533 F20
G3 X48.03 Y75 I-0.475 J0 F300
X48.979 Y75 I0.475 J0
G1 Z-1.067 F20
G3 X48.03 Y75 I-0.475 J0 F300
X48.979 Y75 I0.475 J0
G1 Z-1.6 F20
G3 X48.03 Y75 I-0.475 J0 F300
X48.979 Y75 I0.475 J0
G1 Z-2.133 F20
G3 X48.03 Y75 I-0.475 J0 F300
X48.979 Y75 I0.475 J0
G1 Z-2.667 F20
G3 X48.03 Y75 I-0.475 J0 F300
X48.979 Y75 I0.475 J0
G1 Z-3.2 F20
G3 X48.03 Y75 I-0.475 J0 F300
X48.979 Y75 I0.475 J0
G1 Z2
X57.555 Y83.05
Z1
Z-0.533 F20
G3 X55.555 Y83.05 I-1 J0 F300
X57.555 Y83.05 I1 J0
G1 Z-1.067 F20
G3 X55.555 Y83.05 I-1 J0 F300
X57.555 Y83.05 I1 J0
G1 Z-1.6 F20
G3 X55.555 Y83.05 I-1 J0 F300
X57.555 Y83.05 I1 J0
G1 Z-2.133 F20
G3 X55.555 Y83.05 I-1 J0 F300
X57.555 Y83.05 I1 J0
G1 Z-2.667 F20
G3 X55.555 Y83.05 I-1 J0 F300
X57.555 Y83.05 I1 J0
G1 Z-3.2 F20
G3 X55.555 Y83.05 I-1 J0 F300
X57.555 Y83.05 I1 J0
G1 Z2
X41.454
Z1
Z-0.533 F20
G3 X39.454 Y83.05 I-1 J0 F300
X41.454 Y83.05 I1 J0
G1 Z-1.067 F20
G3 X39.454 Y83.05 I-1 J0 F300
X41.454 Y83.05 I1 J0
G1 Z-1.6 F20
G3 X39.454 Y83.05 I-1 J0 F300
X41.454 Y83.05 I1 J0
G1 Z-2.133 F20
G3 X39.454 Y83.05 I-1 J0 F300
X41.454 Y83.05 I1 J0
G1 Z-2.667 F20
G3 X39.454 Y83.05 I-1 J0 F300
X41.454 Y83.05 I1 J0
G1 Z-3.2 F20
G3 X39.454 Y83.05 I-1 J0 F300
X41.454 Y83.05 I1 J0
G1 Z2
X41.435 Y67.145
Z1
Z-0.533 F20
G3 X39.474 Y66.755 I-0.981 J-0.195 F300
X41.435 Y67.145 I0.981 J0.195
G1 Z-1.067 F20
G3 X39.474 Y66.755 I-0.981 J-0.195 F300
X41.435 Y67.145 I0.981 J0.195
G1 Z-1.6 F20
G3 X39.474 Y66.755 I-0.981 J-0.195 F300
X41.435 Y67.145 I0.981 J0.195
G1 Z-2.133 F20
G3 X39.474 Y66.755 I-0.981 J-0.195 F300
X41.435 Y67.145 I0.981 J0.195
G1 Z-2.667 F20
G3 X39.474 Y66.755 I-0.981 J-0.195 F300
X41.435 Y67.145 I0.981 J0.195
G1 Z-3.2 F20
G3 X39.474 Y66.755 I-0.981 J-0.195 F300
X41.435 Y67.145 I0.981 J0.195
G1 Z2
X21.675 Y66.95
Z1
Z-0.533 F20
G3 X19.675 Y66.95 I-1 J0 F300
X21.675 Y66.95 I1 J0
G1 Z-1.067 F20
G3 X19.675 Y66.95 I-1 J0 F300
X21.675 Y66.95 I1 J0
G1 Z-1.6 F20
G3 X19.675 Y66.95 I-1 J0 F300
X21.675 Y66.95 I1 J0
G1 Z-2.133 F20
G3 X19.675 Y66.95 I-1 J0 F300
X21.675 Y66.95 I1 J0
G1 Z-2.667 F20
G3 X19.675 Y66.95 I-1 J0 F300
X21.675 Y66.95 I1 J0
G1 Z-3.2 F20
G3 X19.675 Y66.95 I-1 J0 F300
X21.675 Y66.95 I1 J0
G1 Z2
X13.059 Y75.193
Z1
Z-0.533 F20
G3 X12.191 Y74.807 I-0.434 J-0.193 F300
X13.059 Y75.193 I0.434 J0.193
G1 Z-1.067 F20
G3 X12.191 Y74.807 I-0.434 J-0.193 F300
X13.059 Y75.193 I0.434 J0.193
G1 Z-1.6 F20
G3 X12.191 Y74.807 I-0.434 J-0.193 F300
X13.059 Y75.193 I0.434 J0.193
G1 Z-2.133 F20
G3 X12.191 Y74.807 I-0.434 J-0.193 F300
X13.059 Y75.193 I0.434 J0.193
G1 Z-2.667 F20
G3 X12.191 Y74.807 I-0.434 J-0.193 F300
X13.059 Y75.193 I0.434 J0.193
G1 Z-3.2 F20
G3 X12.191 Y74.807 I-0.434 J-0.193 F300
X13.059 Y75.193 I0.434 J0.193
G1 Z2
X21.675 Y83.05
Z1
Z-0.533 F20
G3 X19.675 Y83.05 I-1 J0 F300
X21.675 Y83.05 I1 J0
G1 Z-1.067 F20
G3 X19.675 Y83.05 I-1 J0 F300
X21.675 Y83.05 I1 J0
G1 Z-1.6 F20
G3 X19.675 Y83.05 I-1 J0 F300
X21.675 Y83.05 I1 J0
G1 Z-2.133 F20
G3 X19.675 Y83.05 I-1 J0 F300
X21.675 Y83.05 I1 J0
G1 Z-2.667 F20
G3 X19.675 Y83.05 I-1 J0 F300
X21.675 Y83.05 I1 J0
G1 Z-3.2 F20
G3 X19.675 Y83.05 I-1 J0 F300
X21.675 Y83.05 I1 J0
G1 Z2
X5.556 Y83.245
Z1
Z-0.533 F20
G3 X3.594 Y82.855 I-0.981 J-0.195 F300
X5.556 Y83.245 I0.981 J0.195
G1 Z-1.067 F20
G3 X3.594 Y82.855 I-0.981 J-0.195 F300
X5.556 Y83.245 I0.981 J0.195
G1 Z-1.6 F20
G3 X3.594 Y82.855 I-0.981 J-0.195 F300
X5.556 Y83.245 I0.981 J0.195
G1 Z-2.133 F20
G3 X3.594 Y82.855 I-0.981 J-0.195 F300
X5.556 Y83.245 I0.981 J0.195
G1 Z-2.667 F20
G3 X3.594 Y82.855 I-0.981 J-0.195 F300
X5.556 Y83.245 I0.981 J0.195
G1 Z-3.2 F20
G3 X3.594 Y82.855 I-0.981 J-0.195 F300
X5.556 Y83.245 I0.981 J0.195
G1 Z2
Y67.145
Z1
Z-0.533 F20
G3 X3.594 Y66.755 I-0.981 J-0.195 F300
X5.556 Y67.145 I0.981 J0.195
G1 Z-1.067 F20
G3 X3.594 Y66.755 I-0.981 J-0.195 F300
X5.556 Y67.145 I0.981 J0.195
G1 Z-1.6 F20
G3 X3.594 Y66.755 I-0.981 J-0.195 F300
X5.556 Y67.145 I0.981 J0.195
G1 Z-2.133 F20
G3 X3.594 Y66.755 I-0.981 J-0.195 F300
X5.556 Y67.145 I0.981 J0.195
G1 Z-2.667 F20
G3 X3.594 Y66.755 I-0.981 J-0.195 F300
X5.556 Y67.145 I0.981 J0.195
G1 Z-3.2 F20
G3 X3.594 Y66.755 I-0.981 J-0.195 F300
X5.556 Y67.145 I0.981 J0.195
G1 Z3
(When using Fusion 360 for Personal Use, the feedrate of)
(rapid moves is reduced to match the feedrate of cutting)
(moves, which can increase machining time. Unrestricted rapid)
(moves are available with a Fusion 360 Subscription.)

(Borders)
G0 X38.319 Y48.647
G1 Z3 F300
Z1
Z-0.533 F20
X36.797 Y60.406 F300
G2 X36.38 Y66.887 I50.082 J6.481
G1 Y82.485
G2 X40.729 Y86.835 I4.35 J0
G1 X56.279
G2 X60.63 Y82.485 I0 J-4.35
G1 Y66.887
G2 X60.212 Y60.406 I-50.5 J0
G1 X52.967 Y4.422
G2 X44.042 Y4.422 I-4.463 J0.578
G1 X38.319 Y48.647
Z-1.067 F20
X36.797 Y60.406 F300
G2 X36.38 Y66.887 I50.082 J6.481
G1 Y82.485
G2 X40.729 Y86.835 I4.35 J0
G1 X56.279
G2 X60.63 Y82.485 I0 J-4.35
G1 Y66.887
G2 X60.212 Y60.406 I-50.5 J0
G1 X52.967 Y4.422
G2 X44.042 Y4.422 I-4.463 J0.578
G1 X38.319 Y48.647
Z-1.6 F20
X36.797 Y60.406 F300
G2 X36.38 Y66.887 I50.082 J6.481
G1 Y82.485
G2 X40.729 Y86.835 I4.35 J0
G1 X56.279
G2 X60.63 Y82.485 I0 J-4.35
G1 Y66.887
G2 X60.212 Y60.406 I-50.5 J0
G1 X52.967 Y4.422
G2 X44.042 Y4.422 I-4.463 J0.578
G1 X38.319 Y48.647
Z-2.133 F20
X36.797 Y60.406 F300
G2 X36.38 Y66.887 I50.082 J6.481
G1 Y82.485
G2 X40.729 Y86.835 I4.35 J0
G1 X56.279
G2 X60.63 Y82.485 I0 J-4.35
G1 Y66.887
G2 X60.212 Y60.406 I-50.5 J0
G1 X52.967 Y4.422
G2 X44.042 Y4.422 I-4.463 J0.578
G1 X38.319 Y48.647
Z-2.667 F20
X36.797 Y60.406 F300
G2 X36.38 Y66.887 I50.082 J6.481
G1 Y82.485
G2 X40.729 Y86.835 I4.35 J0
G1 X56.279
G2 X60.63 Y82.485 I0 J-4.35
G1 Y66.887
G2 X60.212 Y60.406 I-50.5 J0
G1 X52.967 Y4.422
G2 X44.042 Y4.422 I-4.463 J0.578
G1 X38.319 Y48.647
Z-3.2 F20
X36.797 Y60.406 F300
G2 X36.38 Y66.887 I50.082 J6.481
G1 Y82.485
G2 X40.729 Y86.835 I4.35 J0
G1 X56.279
G2 X60.63 Y82.485 I0 J-4.35
G1 Y66.887
G2 X60.212 Y60.406 I-50.5 J0
G1 X52.967 Y4.422
G2 X44.042 Y4.422 I-4.463 J0.578
G1 X38.319 Y48.647
Z2
X30.249 Y39.831
Z1
Z-0.533 F20
G2 X34.567 Y35.335 I-0.182 J-4.496 F300
G1 Y5.335
G2 X25.567 Y5.335 I-4.5 J0
G1 Y35.335
G2 X30.249 Y39.831 I4.5 J0
G1 Z-1.067 F20
G2 X34.567 Y35.335 I-0.182 J-4.496 F300
G1 Y5.335
G2 X25.567 Y5.335 I-4.5 J0
G1 Y35.335
G2 X30.249 Y39.831 I4.5 J0
G1 Z-1.6 F20
G2 X34.567 Y35.335 I-0.182 J-4.496 F300
G1 Y5.335
G2 X25.567 Y5.335 I-4.5 J0
G1 Y35.335
G2 X30.249 Y39.831 I4.5 J0
G1 Z-2.133 F20
G2 X34.567 Y35.335 I-0.182 J-4.496 F300
G1 Y5.335
G2 X25.567 Y5.335 I-4.5 J0
G1 Y35.335
G2 X30.249 Y39.831 I4.5 J0
G1 Z-2.667 F20
G2 X34.567 Y35.335 I-0.182 J-4.496 F300
G1 Y5.335
G2 X25.567 Y5.335 I-4.5 J0
G1 Y35.335
G2 X30.249 Y39.831 I4.5 J0
G1 Z-3.2 F20
G2 X34.567 Y35.335 I-0.182 J-4.496 F300
G1 Y5.335
G2 X25.567 Y5.335 I-4.5 J0
G1 Y35.335
G2 X30.249 Y39.831 I4.5 J0
G1 Z2
X22.811 Y48.647
Z1
Z-0.533 F20
X21.239 Y36.502 F300
X17.088 Y4.422
G2 X8.162 Y4.422 I-4.463 J0.578
G1 X0.918 Y60.406
G2 X0.5 Y66.887 I50.082 J6.481
G1 Y82.485
G2 X4.85 Y86.835 I4.35 J0
G1 X20.4
G2 X24.75 Y82.485 I0 J-4.35
G1 Y66.887
G2 X24.332 Y60.406 I-50.5 J0
G1 X22.811 Y48.647
Z-1.067 F20
X21.239 Y36.502 F300
X17.088 Y4.422
G2 X8.162 Y4.422 I-4.463 J0.578
G1 X0.918 Y60.406
G2 X0.5 Y66.887 I50.082 J6.481
G1 Y82.485
G2 X4.85 Y86.835 I4.35 J0
G1 X20.4
G2 X24.75 Y82.485 I0 J-4.35
G1 Y66.887
G2 X24.332 Y60.406 I-50.5 J0
G1 X22.811 Y48.647
Z-1.6 F20
X21.239 Y36.502 F300
X17.088 Y4.422
G2 X8.162 Y4.422 I-4.463 J0.578
G1 X0.918 Y60.406
G2 X0.5 Y66.887 I50.082 J6.481
G1 Y82.485
G2 X4.85 Y86.835 I4.35 J0
G1 X20.4
G2 X24.75 Y82.485 I0 J-4.35
G1 Y66.887
G2 X24.332 Y60.406 I-50.5 J0
G1 X22.811 Y48.647
Z-2.133 F20
X21.239 Y36.502 F300
X17.088 Y4.422
G2 X8.162 Y4.422 I-4.463 J0.578
G1 X0.918 Y60.406
G2 X0.5 Y66.887 I50.082 J6.481
G1 Y82.485
G2 X4.85 Y86.835 I4.35 J0
G1 X20.4
G2 X24.75 Y82.485 I0 J-4.35
G1 Y66.887
G2 X24.332 Y60.406 I-50.5 J0
G1 X22.811 Y48.647
Z-2.667 F20
X21.239 Y36.502 F300
X17.088 Y4.422
G2 X8.162 Y4.422 I-4.463 J0.578
G1 X0.918 Y60.406
G2 X0.5 Y66.887 I50.082 J6.481
G1 Y82.485
G2 X4.85 Y86.835 I4.35 J0
G1 X20.4
G2 X24.75 Y82.485 I0 J-4.35
G1 Y66.887
G2 X24.332 Y60.406 I-50.5 J0
G1 X22.811 Y48.647
Z-3.2 F20
X21.239 Y36.502 F300
X17.088 Y4.422
G2 X8.162 Y4.422 I-4.463 J0.578
G1 X0.918 Y60.406
G2 X0.5 Y66.887 I50.082 J6.481
G1 Y82.485
G2 X4.85 Y86.835 I4.35 J0
G1 X20.4
G2 X24.75 Y82.485 I0 J-4.35
G1 Y66.887
G2 X24.332 Y60.406 I-50.5 J0
G1 X22.811 Y48.647
Z2
X84.473 Y86.321
Z1
Z-0.533 F20
G2 X88.377 Y82.844 I0.404 J-3.477 F300
G1 Y4.738
G2 X84.177 Y1.309 I-3.5 J0
G1 X62.312 Y5.772
G2 X59.657 Y10.197 I0.7 J3.429
G1 X81.522 Y83.84
G2 X84.473 Y86.321 I3.355 J-0.996
G1 Z-1.067 F20
G2 X88.377 Y82.844 I0.404 J-3.477 F300
G1 Y4.738
G2 X84.177 Y1.309 I-3.5 J0
G1 X62.312 Y5.772
G2 X59.657 Y10.197 I0.7 J3.429
G1 X81.522 Y83.84
G2 X84.473 Y86.321 I3.355 J-0.996
G1 Z-1.6 F20
G2 X88.377 Y82.844 I0.404 J-3.477 F300
G1 Y4.738
G2 X84.177 Y1.309 I-3.5 J0
G1 X62.312 Y5.772
G2 X59.657 Y10.197 I0.7 J3.429
G1 X81.522 Y83.84
G2 X84.473 Y86.321 I3.355 J-0.996
G1 Z-2.133 F20
G2 X88.377 Y82.844 I0.404 J-3.477 F300
G1 Y4.738
G2 X84.177 Y1.309 I-3.5 J0
G1 X62.312 Y5.772
G2 X59.657 Y10.197 I0.7 J3.429
G1 X81.522 Y83.84
G2 X84.473 Y86.321 I3.355 J-0.996
G1 Z-2.667 F20
G2 X88.377 Y82.844 I0.404 J-3.477 F300
G1 Y4.738
G2 X84.177 Y1.309 I-3.5 J0
G1 X62.312 Y5.772
G2 X59.657 Y10.197 I0.7 J3.429
G1 X81.522 Y83.84
G2 X84.473 Y86.321 I3.355 J-0.996
G1 Z-3.2 F20
G2 X88.377 Y82.844 I0.404 J-3.477 F300
G1 Y4.738
G2 X84.177 Y1.309 I-3.5 J0
G1 X62.312 Y5.772
G2 X59.657 Y10.197 I0.7 J3.429
G1 X81.522 Y83.84
G2 X84.473 Y86.321 I3.355 J-0.996
G1 Z3
M5
M30
