(Tendon)
(T1  D=1 CR=0 - ZMIN=-4.4 - flat end mill)
G90 G94
G17
G21
(When using Fusion 360 for Personal Use, the feedrate of)
(rapid moves is reduced to match the feedrate of cutting)
(moves, which can increase machining time. Unrestricted rapid)
(moves are available with a Fusion 360 Subscription.)

(Holes)
S20000 M3
G54
G0 X23.032 Y47.404
Z3
G1 Z1 F300
Z-0.6 F20
G3 X22.134 Y47.351 I-0.449 J-0.026 F300
X23.032 Y47.404 I0.449 J0.026
G1 Z-1.2 F20
G3 X22.134 Y47.351 I-0.449 J-0.026 F300
X23.032 Y47.404 I0.449 J0.026
G1 Z-1.8 F20
G3 X22.134 Y47.351 I-0.449 J-0.026 F300
X23.032 Y47.404 I0.449 J0.026
G1 Z-2.4 F20
G3 X22.134 Y47.351 I-0.449 J-0.026 F300
X23.032 Y47.404 I0.449 J0.026
G1 Z-3 F20
G3 X22.134 Y47.351 I-0.449 J-0.026 F300
X23.032 Y47.404 I0.449 J0.026
G1 Z-3.6 F20
G3 X22.134 Y47.351 I-0.449 J-0.026 F300
X23.032 Y47.404 I0.449 J0.026
G1 Z-4.2 F20
G3 X22.134 Y47.351 I-0.449 J-0.026 F300
X23.032 Y47.404 I0.449 J0.026
G1 Z-4.4 F20
G3 X22.134 Y47.351 I-0.449 J-0.026 F300
X23.032 Y47.404 I0.449 J0.026
G1 Z2
X5.432 Y40.105
Z1
Z-0.6 F20
G3 X4.568 Y40.357 I-0.432 J0.126 F300
X5.432 Y40.105 I0.432 J-0.126
G1 Z-1.2 F20
G3 X4.568 Y40.357 I-0.432 J0.126 F300
X5.432 Y40.105 I0.432 J-0.126
G1 Z-1.8 F20
G3 X4.568 Y40.357 I-0.432 J0.126 F300
X5.432 Y40.105 I0.432 J-0.126
G1 Z-2.4 F20
G3 X4.568 Y40.357 I-0.432 J0.126 F300
X5.432 Y40.105 I0.432 J-0.126
G1 Z-3 F20
G3 X4.568 Y40.357 I-0.432 J0.126 F300
X5.432 Y40.105 I0.432 J-0.126
G1 Z-3.6 F20
G3 X4.568 Y40.357 I-0.432 J0.126 F300
X5.432 Y40.105 I0.432 J-0.126
G1 Z-4.2 F20
G3 X4.568 Y40.357 I-0.432 J0.126 F300
X5.432 Y40.105 I0.432 J-0.126
G1 Z-4.4 F20
G3 X4.568 Y40.357 I-0.432 J0.126 F300
X5.432 Y40.105 I0.432 J-0.126
G1 Z2
X109.112 Y9.865
Z1
Z-0.6 F20
G3 X108.248 Y10.117 I-0.432 J0.126 F300
X109.112 Y9.865 I0.432 J-0.126
G1 Z-1.2 F20
G3 X108.248 Y10.117 I-0.432 J0.126 F300
X109.112 Y9.865 I0.432 J-0.126
G1 Z-1.8 F20
G3 X108.248 Y10.117 I-0.432 J0.126 F300
X109.112 Y9.865 I0.432 J-0.126
G1 Z-2.4 F20
G3 X108.248 Y10.117 I-0.432 J0.126 F300
X109.112 Y9.865 I0.432 J-0.126
G1 Z-3 F20
G3 X108.248 Y10.117 I-0.432 J0.126 F300
X109.112 Y9.865 I0.432 J-0.126
G1 Z-3.6 F20
G3 X108.248 Y10.117 I-0.432 J0.126 F300
X109.112 Y9.865 I0.432 J-0.126
G1 Z-4.2 F20
G3 X108.248 Y10.117 I-0.432 J0.126 F300
X109.112 Y9.865 I0.432 J-0.126
G1 Z-4.4 F20
G3 X108.248 Y10.117 I-0.432 J0.126 F300
X109.112 Y9.865 I0.432 J-0.126
G1 Z2
X124.076 Y9.159
Z1
Z-0.6 F20
G3 X123.234 Y9.476 I-0.421 J0.159 F300
X124.076 Y9.159 I0.421 J-0.159
G1 Z-1.2 F20
G3 X123.234 Y9.476 I-0.421 J0.159 F300
X124.076 Y9.159 I0.421 J-0.159
G1 Z-1.8 F20
G3 X123.234 Y9.476 I-0.421 J0.159 F300
X124.076 Y9.159 I0.421 J-0.159
G1 Z-2.4 F20
G3 X123.234 Y9.476 I-0.421 J0.159 F300
X124.076 Y9.159 I0.421 J-0.159
G1 Z-3 F20
G3 X123.234 Y9.476 I-0.421 J0.159 F300
X124.076 Y9.159 I0.421 J-0.159
G1 Z-3.6 F20
G3 X123.234 Y9.476 I-0.421 J0.159 F300
X124.076 Y9.159 I0.421 J-0.159
G1 Z-4.2 F20
G3 X123.234 Y9.476 I-0.421 J0.159 F300
X124.076 Y9.159 I0.421 J-0.159
G1 Z-4.4 F20
G3 X123.234 Y9.476 I-0.421 J0.159 F300
X124.076 Y9.159 I0.421 J-0.159
G1 Z3
(When using Fusion 360 for Personal Use, the feedrate of)
(rapid moves is reduced to match the feedrate of cutting)
(moves, which can increase machining time. Unrestricted rapid)
(moves are available with a Fusion 360 Subscription.)

(Borders)
G0 X20.849 Y51.53
G1 Z3 F300
Z1
Z-0.6 F20
X20.854 Y51.532 F300
X21.626 Y51.844
X21.637 Y51.848
X22.415 Y52.142
X22.426 Y52.146
X23.211 Y52.422
X23.222 Y52.426
X24.013 Y52.684
X24.024 Y52.687
X24.823 Y52.928
X24.833 Y52.931
X25.639 Y53.155
X25.649 Y53.158
X26.461 Y53.364
X26.472 Y53.367
X27.29 Y53.556
X27.3 Y53.559
X28.126 Y53.732
X28.136 Y53.734
X28.968 Y53.891
X28.977 Y53.893
X29.816 Y54.034
X29.825 Y54.036
X30.671 Y54.162
X30.68 Y54.163
X31.532 Y54.274
X31.541 Y54.275
X32.399 Y54.372
X32.408 Y54.373
X33.273 Y54.456
X33.281 Y54.457
X34.153 Y54.526
X34.16 Y54.527
X35.039 Y54.584
X35.046
X35.931 Y54.629
X35.937
X36.829 Y54.662
X36.835
X37.733 Y54.684
X37.739 Y54.685
X38.644 Y54.696
X38.649
X39.56 Y54.698
X39.565
X40.483 Y54.69
X40.487
X41.411 Y54.674
X41.417
X43.283 Y54.619
X43.29 Y54.618
X45.181 Y54.536
X45.187
X47.102 Y54.431
X47.106
X49.045 Y54.308
X49.048
X51.009 Y54.172
X51.011
X52.994 Y54.027
X55 Y53.877
X57.024 Y53.726
X59.067 Y53.577
X61.127 Y53.432
X63.203 Y53.295
X65.293 Y53.166
X67.397 Y53.047
X69.512 Y52.937
X73.77 Y52.736
X78.046 Y52.54
X78.049
X80.186 Y52.431
X80.19
X82.323 Y52.308
X82.328
X84.453 Y52.163
X84.46 Y52.162
X86.574 Y51.99
X86.58 Y51.989
X87.632 Y51.89
X87.637
X88.685 Y51.781
X88.69 Y51.78
X89.733 Y51.661
X89.739 Y51.66
X90.777 Y51.53
X90.783 Y51.529
X91.816 Y51.386
X91.823 Y51.385
X92.85 Y51.229
X92.857 Y51.228
X93.877 Y51.058
X93.885 Y51.057
X94.898 Y50.872
X94.906 Y50.871
X95.913 Y50.67
X95.921 Y50.669
X96.92 Y50.452
X96.928 Y50.451
X97.919 Y50.217
X97.928 Y50.215
X98.91 Y49.965
X98.919 Y49.962
X99.892 Y49.693
X99.901 Y49.691
X100.864 Y49.403
X100.874 Y49.4
X101.827 Y49.094
X101.837 Y49.09
X102.78 Y48.764
X102.791 Y48.761
X103.723 Y48.415
X103.734 Y48.41
X104.654 Y48.044
X104.665 Y48.039
X105.573 Y47.652
X105.585 Y47.647
X106.481 Y47.238
X106.492 Y47.232
X107.376 Y46.802
X107.388 Y46.796
X108.258 Y46.343
X108.27 Y46.337
X109.127 Y45.861
X109.138 Y45.855
X109.981 Y45.356
X109.993 Y45.349
X110.822 Y44.828
X110.834 Y44.82
X111.647 Y44.275
X111.659 Y44.267
X112.458 Y43.699
X112.47 Y43.69
X113.253 Y43.097
X113.265 Y43.088
X114.032 Y42.47
X114.043 Y42.461
X114.793 Y41.818
X114.805 Y41.808
X115.538 Y41.141
X115.549 Y41.131
X116.265 Y40.438
X116.275 Y40.428
X116.974 Y39.709
X116.985 Y39.698
X117.665 Y38.954
X117.675 Y38.943
X118.337 Y38.172
X118.347 Y38.161
X118.991 Y37.364
X119 Y37.352
X119.624 Y36.529
X119.633 Y36.517
X120.238 Y35.667
X120.247 Y35.655
X120.832 Y34.778
X120.84 Y34.766
X121.404 Y33.862
X121.411 Y33.85
X121.956 Y32.919
X121.964 Y32.906
X122.487 Y31.948
X122.493 Y31.936
X122.996 Y30.95
X123.003 Y30.937
X123.484 Y29.924
X123.49 Y29.911
X123.949 Y28.87
X123.954 Y28.858
X124.392 Y27.789
X124.397 Y27.777
X124.812 Y26.68
X124.816 Y26.668
X125.209 Y25.543
X125.213 Y25.531
X125.583 Y24.378
X125.587 Y24.366
X125.935 Y23.185
X125.938 Y23.173
X126.262 Y21.964
X126.265 Y21.953
X126.567 Y20.715
X126.569 Y20.704
X126.847 Y19.437
X126.85 Y19.426
X127.104 Y18.132
X127.106 Y18.121
X127.337 Y16.798
X127.338 Y16.788
X127.545 Y15.436
X127.547 Y15.426
X127.73 Y14.046
X127.731 Y14.036
X127.89 Y12.627
X127.891 Y12.617
X128.026 Y11.18
X128.027 Y11.171
X128.137 Y9.707
G2 X119.271 Y8.3 I-4.483 J-0.389
G1 X119.261 Y8.358
X119.112 Y9.699
X118.953 Y11.006
X118.783 Y12.281
X118.603 Y13.525
X118.411 Y14.736
X118.208 Y15.917
X117.994 Y17.066
X117.77 Y18.184
X117.532 Y19.271
X117.284 Y20.327
X117.024 Y21.353
X116.751 Y22.348
X116.466 Y23.313
X116.167 Y24.248
X115.856 Y25.153
X115.53 Y26.03
X115.192 Y26.877
X114.839 Y27.696
X114.471 Y28.487
X114.088 Y29.25
X113.689 Y29.987
X113.275 Y30.696
X112.845 Y31.379
X112.398 Y32.037
X111.934 Y32.67
X111.454 Y33.278
X110.955 Y33.862
X110.438 Y34.423
X109.903 Y34.962
X109.349 Y35.478
X108.776 Y35.973
X108.182 Y36.447
X107.57 Y36.901
X106.937 Y37.335
X106.282 Y37.75
X105.608 Y38.147
X104.912 Y38.525
X104.195 Y38.886
X103.456 Y39.231
X102.697 Y39.558
X101.916 Y39.87
X101.113 Y40.166
X100.288 Y40.447
X99.442 Y40.714
X98.574 Y40.967
X97.685 Y41.206
X96.776 Y41.433
X95.845 Y41.647
X94.895 Y41.849
X93.925 Y42.041
X92.937 Y42.221
X91.93 Y42.392
X90.906 Y42.553
X89.866 Y42.705
X88.81 Y42.849
X87.74 Y42.985
X86.658 Y43.114
X85.565 Y43.236
X83.347 Y43.464
X81.102 Y43.672
X78.838 Y43.866
X76.57 Y44.048
X74.307 Y44.223
X72.062 Y44.393
X69.844 Y44.561
X68.748 Y44.644
X67.663 Y44.728
X66.589 Y44.812
X65.527 Y44.896
X64.477 Y44.98
X63.441 Y45.065
X62.419 Y45.15
X61.412 Y45.235
X60.419 Y45.32
X59.441 Y45.405
X58.478 Y45.49
X57.53 Y45.575
X56.597 Y45.659
X55.679 Y45.742
X54.775 Y45.823
X53.886 Y45.903
X53.012 Y45.981
X52.151 Y46.057
X51.303 Y46.131
X50.469 Y46.201
X49.647 Y46.268
X48.838 Y46.331
X48.04 Y46.39
X47.254 Y46.445
X46.479 Y46.494
X45.713 Y46.538
X44.958 Y46.576
X44.211 Y46.608
X43.474 Y46.633
X42.743 Y46.651
X42.021 Y46.661
X41.304 Y46.663
X40.594 Y46.657
X39.889 Y46.641
X39.188 Y46.616
X38.491 Y46.582
X37.796 Y46.537
X37.105 Y46.481
X36.414 Y46.414
X35.725 Y46.335
X35.035 Y46.245
X34.345 Y46.142
X33.654 Y46.026
X32.961 Y45.898
X32.265 Y45.756
X31.567 Y45.6
X30.865 Y45.43
X30.158 Y45.245
X29.448 Y45.046
X28.732 Y44.832
X28.011 Y44.603
X27.284 Y44.359
X26.552 Y44.099
X25.813 Y43.823
X25.068 Y43.532
X24.316 Y43.224
G2 X20.849 Y51.53 I-1.732 J4.153
G1 Z-1.2 F20
X20.854 Y51.532 F300
X21.626 Y51.844
X21.637 Y51.848
X22.415 Y52.142
X22.426 Y52.146
X23.211 Y52.422
X23.222 Y52.426
X24.013 Y52.684
X24.024 Y52.687
X24.823 Y52.928
X24.833 Y52.931
X25.639 Y53.155
X25.649 Y53.158
X26.461 Y53.364
X26.472 Y53.367
X27.29 Y53.556
X27.3 Y53.559
X28.126 Y53.732
X28.136 Y53.734
X28.968 Y53.891
X28.977 Y53.893
X29.816 Y54.034
X29.825 Y54.036
X30.671 Y54.162
X30.68 Y54.163
X31.532 Y54.274
X31.541 Y54.275
X32.399 Y54.372
X32.408 Y54.373
X33.273 Y54.456
X33.281 Y54.457
X34.153 Y54.526
X34.16 Y54.527
X35.039 Y54.584
X35.046
X35.931 Y54.629
X35.937
X36.829 Y54.662
X36.835
X37.733 Y54.684
X37.739 Y54.685
X38.644 Y54.696
X38.649
X39.56 Y54.698
X39.565
X40.483 Y54.69
X40.487
X41.411 Y54.674
X41.417
X43.283 Y54.619
X43.29 Y54.618
X45.181 Y54.536
X45.187
X47.102 Y54.431
X47.106
X49.045 Y54.308
X49.048
X51.009 Y54.172
X51.011
X52.994 Y54.027
X55 Y53.877
X57.024 Y53.726
X59.067 Y53.577
X61.127 Y53.432
X63.203 Y53.295
X65.293 Y53.166
X67.397 Y53.047
X69.512 Y52.937
X73.77 Y52.736
X78.046 Y52.54
X78.049
X80.186 Y52.431
X80.19
X82.323 Y52.308
X82.328
X84.453 Y52.163
X84.46 Y52.162
X86.574 Y51.99
X86.58 Y51.989
X87.632 Y51.89
X87.637
X88.685 Y51.781
X88.69 Y51.78
X89.733 Y51.661
X89.739 Y51.66
X90.777 Y51.53
X90.783 Y51.529
X91.816 Y51.386
X91.823 Y51.385
X92.85 Y51.229
X92.857 Y51.228
X93.877 Y51.058
X93.885 Y51.057
X94.898 Y50.872
X94.906 Y50.871
X95.913 Y50.67
X95.921 Y50.669
X96.92 Y50.452
X96.928 Y50.451
X97.919 Y50.217
X97.928 Y50.215
X98.91 Y49.965
X98.919 Y49.962
X99.892 Y49.693
X99.901 Y49.691
X100.864 Y49.403
X100.874 Y49.4
X101.827 Y49.094
X101.837 Y49.09
X102.78 Y48.764
X102.791 Y48.761
X103.723 Y48.415
X103.734 Y48.41
X104.654 Y48.044
X104.665 Y48.039
X105.573 Y47.652
X105.585 Y47.647
X106.481 Y47.238
X106.492 Y47.232
X107.376 Y46.802
X107.388 Y46.796
X108.258 Y46.343
X108.27 Y46.337
X109.127 Y45.861
X109.138 Y45.855
X109.981 Y45.356
X109.993 Y45.349
X110.822 Y44.828
X110.834 Y44.82
X111.647 Y44.275
X111.659 Y44.267
X112.458 Y43.699
X112.47 Y43.69
X113.253 Y43.097
X113.265 Y43.088
X114.032 Y42.47
X114.043 Y42.461
X114.793 Y41.818
X114.805 Y41.808
X115.538 Y41.141
X115.549 Y41.131
X116.265 Y40.438
X116.275 Y40.428
X116.974 Y39.709
X116.985 Y39.698
X117.665 Y38.954
X117.675 Y38.943
X118.337 Y38.172
X118.347 Y38.161
X118.991 Y37.364
X119 Y37.352
X119.624 Y36.529
X119.633 Y36.517
X120.238 Y35.667
X120.247 Y35.655
X120.832 Y34.778
X120.84 Y34.766
X121.404 Y33.862
X121.411 Y33.85
X121.956 Y32.919
X121.964 Y32.906
X122.487 Y31.948
X122.493 Y31.936
X122.996 Y30.95
X123.003 Y30.937
X123.484 Y29.924
X123.49 Y29.911
X123.949 Y28.87
X123.954 Y28.858
X124.392 Y27.789
X124.397 Y27.777
X124.812 Y26.68
X124.816 Y26.668
X125.209 Y25.543
X125.213 Y25.531
X125.583 Y24.378
X125.587 Y24.366
X125.935 Y23.185
X125.938 Y23.173
X126.262 Y21.964
X126.265 Y21.953
X126.567 Y20.715
X126.569 Y20.704
X126.847 Y19.437
X126.85 Y19.426
X127.104 Y18.132
X127.106 Y18.121
X127.337 Y16.798
X127.338 Y16.788
X127.545 Y15.436
X127.547 Y15.426
X127.73 Y14.046
X127.731 Y14.036
X127.89 Y12.627
X127.891 Y12.617
X128.026 Y11.18
X128.027 Y11.171
X128.137 Y9.707
G2 X119.271 Y8.3 I-4.483 J-0.389
G1 X119.261 Y8.358
X119.112 Y9.699
X118.953 Y11.006
X118.783 Y12.281
X118.603 Y13.525
X118.411 Y14.736
X118.208 Y15.917
X117.994 Y17.066
X117.77 Y18.184
X117.532 Y19.271
X117.284 Y20.327
X117.024 Y21.353
X116.751 Y22.348
X116.466 Y23.313
X116.167 Y24.248
X115.856 Y25.153
X115.53 Y26.03
X115.192 Y26.877
X114.839 Y27.696
X114.471 Y28.487
X114.088 Y29.25
X113.689 Y29.987
X113.275 Y30.696
X112.845 Y31.379
X112.398 Y32.037
X111.934 Y32.67
X111.454 Y33.278
X110.955 Y33.862
X110.438 Y34.423
X109.903 Y34.962
X109.349 Y35.478
X108.776 Y35.973
X108.182 Y36.447
X107.57 Y36.901
X106.937 Y37.335
X106.282 Y37.75
X105.608 Y38.147
X104.912 Y38.525
X104.195 Y38.886
X103.456 Y39.231
X102.697 Y39.558
X101.916 Y39.87
X101.113 Y40.166
X100.288 Y40.447
X99.442 Y40.714
X98.574 Y40.967
X97.685 Y41.206
X96.776 Y41.433
X95.845 Y41.647
X94.895 Y41.849
X93.925 Y42.041
X92.937 Y42.221
X91.93 Y42.392
X90.906 Y42.553
X89.866 Y42.705
X88.81 Y42.849
X87.74 Y42.985
X86.658 Y43.114
X85.565 Y43.236
X83.347 Y43.464
X81.102 Y43.672
X78.838 Y43.866
X76.57 Y44.048
X74.307 Y44.223
X72.062 Y44.393
X69.844 Y44.561
X68.748 Y44.644
X67.663 Y44.728
X66.589 Y44.812
X65.527 Y44.896
X64.477 Y44.98
X63.441 Y45.065
X62.419 Y45.15
X61.412 Y45.235
X60.419 Y45.32
X59.441 Y45.405
X58.478 Y45.49
X57.53 Y45.575
X56.597 Y45.659
X55.679 Y45.742
X54.775 Y45.823
X53.886 Y45.903
X53.012 Y45.981
X52.151 Y46.057
X51.303 Y46.131
X50.469 Y46.201
X49.647 Y46.268
X48.838 Y46.331
X48.04 Y46.39
X47.254 Y46.445
X46.479 Y46.494
X45.713 Y46.538
X44.958 Y46.576
X44.211 Y46.608
X43.474 Y46.633
X42.743 Y46.651
X42.021 Y46.661
X41.304 Y46.663
X40.594 Y46.657
X39.889 Y46.641
X39.188 Y46.616
X38.491 Y46.582
X37.796 Y46.537
X37.105 Y46.481
X36.414 Y46.414
X35.725 Y46.335
X35.035 Y46.245
X34.345 Y46.142
X33.654 Y46.026
X32.961 Y45.898
X32.265 Y45.756
X31.567 Y45.6
X30.865 Y45.43
X30.158 Y45.245
X29.448 Y45.046
X28.732 Y44.832
X28.011 Y44.603
X27.284 Y44.359
X26.552 Y44.099
X25.813 Y43.823
X25.068 Y43.532
X24.316 Y43.224
G2 X20.849 Y51.53 I-1.732 J4.153
G1 Z-1.8 F20
X20.854 Y51.532 F300
X21.626 Y51.844
X21.637 Y51.848
X22.415 Y52.142
X22.426 Y52.146
X23.211 Y52.422
X23.222 Y52.426
X24.013 Y52.684
X24.024 Y52.687
X24.823 Y52.928
X24.833 Y52.931
X25.639 Y53.155
X25.649 Y53.158
X26.461 Y53.364
X26.472 Y53.367
X27.29 Y53.556
X27.3 Y53.559
X28.126 Y53.732
X28.136 Y53.734
X28.968 Y53.891
X28.977 Y53.893
X29.816 Y54.034
X29.825 Y54.036
X30.671 Y54.162
X30.68 Y54.163
X31.532 Y54.274
X31.541 Y54.275
X32.399 Y54.372
X32.408 Y54.373
X33.273 Y54.456
X33.281 Y54.457
X34.153 Y54.526
X34.16 Y54.527
X35.039 Y54.584
X35.046
X35.931 Y54.629
X35.937
X36.829 Y54.662
X36.835
X37.733 Y54.684
X37.739 Y54.685
X38.644 Y54.696
X38.649
X39.56 Y54.698
X39.565
X40.483 Y54.69
X40.487
X41.411 Y54.674
X41.417
X43.283 Y54.619
X43.29 Y54.618
X45.181 Y54.536
X45.187
X47.102 Y54.431
X47.106
X49.045 Y54.308
X49.048
X51.009 Y54.172
X51.011
X52.994 Y54.027
X55 Y53.877
X57.024 Y53.726
X59.067 Y53.577
X61.127 Y53.432
X63.203 Y53.295
X65.293 Y53.166
X67.397 Y53.047
X69.512 Y52.937
X73.77 Y52.736
X78.046 Y52.54
X78.049
X80.186 Y52.431
X80.19
X82.323 Y52.308
X82.328
X84.453 Y52.163
X84.46 Y52.162
X86.574 Y51.99
X86.58 Y51.989
X87.632 Y51.89
X87.637
X88.685 Y51.781
X88.69 Y51.78
X89.733 Y51.661
X89.739 Y51.66
X90.777 Y51.53
X90.783 Y51.529
X91.816 Y51.386
X91.823 Y51.385
X92.85 Y51.229
X92.857 Y51.228
X93.877 Y51.058
X93.885 Y51.057
X94.898 Y50.872
X94.906 Y50.871
X95.913 Y50.67
X95.921 Y50.669
X96.92 Y50.452
X96.928 Y50.451
X97.919 Y50.217
X97.928 Y50.215
X98.91 Y49.965
X98.919 Y49.962
X99.892 Y49.693
X99.901 Y49.691
X100.864 Y49.403
X100.874 Y49.4
X101.827 Y49.094
X101.837 Y49.09
X102.78 Y48.764
X102.791 Y48.761
X103.723 Y48.415
X103.734 Y48.41
X104.654 Y48.044
X104.665 Y48.039
X105.573 Y47.652
X105.585 Y47.647
X106.481 Y47.238
X106.492 Y47.232
X107.376 Y46.802
X107.388 Y46.796
X108.258 Y46.343
X108.27 Y46.337
X109.127 Y45.861
X109.138 Y45.855
X109.981 Y45.356
X109.993 Y45.349
X110.822 Y44.828
X110.834 Y44.82
X111.647 Y44.275
X111.659 Y44.267
X112.458 Y43.699
X112.47 Y43.69
X113.253 Y43.097
X113.265 Y43.088
X114.032 Y42.47
X114.043 Y42.461
X114.793 Y41.818
X114.805 Y41.808
X115.538 Y41.141
X115.549 Y41.131
X116.265 Y40.438
X116.275 Y40.428
X116.974 Y39.709
X116.985 Y39.698
X117.665 Y38.954
X117.675 Y38.943
X118.337 Y38.172
X118.347 Y38.161
X118.991 Y37.364
X119 Y37.352
X119.624 Y36.529
X119.633 Y36.517
X120.238 Y35.667
X120.247 Y35.655
X120.832 Y34.778
X120.84 Y34.766
X121.404 Y33.862
X121.411 Y33.85
X121.956 Y32.919
X121.964 Y32.906
X122.487 Y31.948
X122.493 Y31.936
X122.996 Y30.95
X123.003 Y30.937
X123.484 Y29.924
X123.49 Y29.911
X123.949 Y28.87
X123.954 Y28.858
X124.392 Y27.789
X124.397 Y27.777
X124.812 Y26.68
X124.816 Y26.668
X125.209 Y25.543
X125.213 Y25.531
X125.583 Y24.378
X125.587 Y24.366
X125.935 Y23.185
X125.938 Y23.173
X126.262 Y21.964
X126.265 Y21.953
X126.567 Y20.715
X126.569 Y20.704
X126.847 Y19.437
X126.85 Y19.426
X127.104 Y18.132
X127.106 Y18.121
X127.337 Y16.798
X127.338 Y16.788
X127.545 Y15.436
X127.547 Y15.426
X127.73 Y14.046
X127.731 Y14.036
X127.89 Y12.627
X127.891 Y12.617
X128.026 Y11.18
X128.027 Y11.171
X128.137 Y9.707
G2 X119.271 Y8.3 I-4.483 J-0.389
G1 X119.261 Y8.358
X119.112 Y9.699
X118.953 Y11.006
X118.783 Y12.281
X118.603 Y13.525
X118.411 Y14.736
X118.208 Y15.917
X117.994 Y17.066
X117.77 Y18.184
X117.532 Y19.271
X117.284 Y20.327
X117.024 Y21.353
X116.751 Y22.348
X116.466 Y23.313
X116.167 Y24.248
X115.856 Y25.153
X115.53 Y26.03
X115.192 Y26.877
X114.839 Y27.696
X114.471 Y28.487
X114.088 Y29.25
X113.689 Y29.987
X113.275 Y30.696
X112.845 Y31.379
X112.398 Y32.037
X111.934 Y32.67
X111.454 Y33.278
X110.955 Y33.862
X110.438 Y34.423
X109.903 Y34.962
X109.349 Y35.478
X108.776 Y35.973
X108.182 Y36.447
X107.57 Y36.901
X106.937 Y37.335
X106.282 Y37.75
X105.608 Y38.147
X104.912 Y38.525
X104.195 Y38.886
X103.456 Y39.231
X102.697 Y39.558
X101.916 Y39.87
X101.113 Y40.166
X100.288 Y40.447
X99.442 Y40.714
X98.574 Y40.967
X97.685 Y41.206
X96.776 Y41.433
X95.845 Y41.647
X94.895 Y41.849
X93.925 Y42.041
X92.937 Y42.221
X91.93 Y42.392
X90.906 Y42.553
X89.866 Y42.705
X88.81 Y42.849
X87.74 Y42.985
X86.658 Y43.114
X85.565 Y43.236
X83.347 Y43.464
X81.102 Y43.672
X78.838 Y43.866
X76.57 Y44.048
X74.307 Y44.223
X72.062 Y44.393
X69.844 Y44.561
X68.748 Y44.644
X67.663 Y44.728
X66.589 Y44.812
X65.527 Y44.896
X64.477 Y44.98
X63.441 Y45.065
X62.419 Y45.15
X61.412 Y45.235
X60.419 Y45.32
X59.441 Y45.405
X58.478 Y45.49
X57.53 Y45.575
X56.597 Y45.659
X55.679 Y45.742
X54.775 Y45.823
X53.886 Y45.903
X53.012 Y45.981
X52.151 Y46.057
X51.303 Y46.131
X50.469 Y46.201
X49.647 Y46.268
X48.838 Y46.331
X48.04 Y46.39
X47.254 Y46.445
X46.479 Y46.494
X45.713 Y46.538
X44.958 Y46.576
X44.211 Y46.608
X43.474 Y46.633
X42.743 Y46.651
X42.021 Y46.661
X41.304 Y46.663
X40.594 Y46.657
X39.889 Y46.641
X39.188 Y46.616
X38.491 Y46.582
X37.796 Y46.537
X37.105 Y46.481
X36.414 Y46.414
X35.725 Y46.335
X35.035 Y46.245
X34.345 Y46.142
X33.654 Y46.026
X32.961 Y45.898
X32.265 Y45.756
X31.567 Y45.6
X30.865 Y45.43
X30.158 Y45.245
X29.448 Y45.046
X28.732 Y44.832
X28.011 Y44.603
X27.284 Y44.359
X26.552 Y44.099
X25.813 Y43.823
X25.068 Y43.532
X24.316 Y43.224
G2 X20.849 Y51.53 I-1.732 J4.153
G1 Z-2.4 F20
X20.854 Y51.532 F300
X21.626 Y51.844
X21.637 Y51.848
X22.415 Y52.142
X22.426 Y52.146
X23.211 Y52.422
X23.222 Y52.426
X24.013 Y52.684
X24.024 Y52.687
X24.823 Y52.928
X24.833 Y52.931
X25.639 Y53.155
X25.649 Y53.158
X26.461 Y53.364
X26.472 Y53.367
X27.29 Y53.556
X27.3 Y53.559
X28.126 Y53.732
X28.136 Y53.734
X28.968 Y53.891
X28.977 Y53.893
X29.816 Y54.034
X29.825 Y54.036
X30.671 Y54.162
X30.68 Y54.163
X31.532 Y54.274
X31.541 Y54.275
X32.399 Y54.372
X32.408 Y54.373
X33.273 Y54.456
X33.281 Y54.457
X34.153 Y54.526
X34.16 Y54.527
X35.039 Y54.584
X35.046
X35.931 Y54.629
X35.937
X36.829 Y54.662
X36.835
X37.733 Y54.684
X37.739 Y54.685
X38.644 Y54.696
X38.649
X39.56 Y54.698
X39.565
X40.483 Y54.69
X40.487
X41.411 Y54.674
X41.417
X43.283 Y54.619
X43.29 Y54.618
X45.181 Y54.536
X45.187
X47.102 Y54.431
X47.106
X49.045 Y54.308
X49.048
X51.009 Y54.172
X51.011
X52.994 Y54.027
X55 Y53.877
X57.024 Y53.726
X59.067 Y53.577
X61.127 Y53.432
X63.203 Y53.295
X65.293 Y53.166
X67.397 Y53.047
X69.512 Y52.937
X73.77 Y52.736
X78.046 Y52.54
X78.049
X80.186 Y52.431
X80.19
X82.323 Y52.308
X82.328
X84.453 Y52.163
X84.46 Y52.162
X86.574 Y51.99
X86.58 Y51.989
X87.632 Y51.89
X87.637
X88.685 Y51.781
X88.69 Y51.78
X89.733 Y51.661
X89.739 Y51.66
X90.777 Y51.53
X90.783 Y51.529
X91.816 Y51.386
X91.823 Y51.385
X92.85 Y51.229
X92.857 Y51.228
X93.877 Y51.058
X93.885 Y51.057
X94.898 Y50.872
X94.906 Y50.871
X95.913 Y50.67
X95.921 Y50.669
X96.92 Y50.452
X96.928 Y50.451
X97.919 Y50.217
X97.928 Y50.215
X98.91 Y49.965
X98.919 Y49.962
X99.892 Y49.693
X99.901 Y49.691
X100.864 Y49.403
X100.874 Y49.4
X101.827 Y49.094
X101.837 Y49.09
X102.78 Y48.764
X102.791 Y48.761
X103.723 Y48.415
X103.734 Y48.41
X104.654 Y48.044
X104.665 Y48.039
X105.573 Y47.652
X105.585 Y47.647
X106.481 Y47.238
X106.492 Y47.232
X107.376 Y46.802
X107.388 Y46.796
X108.258 Y46.343
X108.27 Y46.337
X109.127 Y45.861
X109.138 Y45.855
X109.981 Y45.356
X109.993 Y45.349
X110.822 Y44.828
X110.834 Y44.82
X111.647 Y44.275
X111.659 Y44.267
X112.458 Y43.699
X112.47 Y43.69
X113.253 Y43.097
X113.265 Y43.088
X114.032 Y42.47
X114.043 Y42.461
X114.793 Y41.818
X114.805 Y41.808
X115.538 Y41.141
X115.549 Y41.131
X116.265 Y40.438
X116.275 Y40.428
X116.974 Y39.709
X116.985 Y39.698
X117.665 Y38.954
X117.675 Y38.943
X118.337 Y38.172
X118.347 Y38.161
X118.991 Y37.364
X119 Y37.352
X119.624 Y36.529
X119.633 Y36.517
X120.238 Y35.667
X120.247 Y35.655
X120.832 Y34.778
X120.84 Y34.766
X121.404 Y33.862
X121.411 Y33.85
X121.956 Y32.919
X121.964 Y32.906
X122.487 Y31.948
X122.493 Y31.936
X122.996 Y30.95
X123.003 Y30.937
X123.484 Y29.924
X123.49 Y29.911
X123.949 Y28.87
X123.954 Y28.858
X124.392 Y27.789
X124.397 Y27.777
X124.812 Y26.68
X124.816 Y26.668
X125.209 Y25.543
X125.213 Y25.531
X125.583 Y24.378
X125.587 Y24.366
X125.935 Y23.185
X125.938 Y23.173
X126.262 Y21.964
X126.265 Y21.953
X126.567 Y20.715
X126.569 Y20.704
X126.847 Y19.437
X126.85 Y19.426
X127.104 Y18.132
X127.106 Y18.121
X127.337 Y16.798
X127.338 Y16.788
X127.545 Y15.436
X127.547 Y15.426
X127.73 Y14.046
X127.731 Y14.036
X127.89 Y12.627
X127.891 Y12.617
X128.026 Y11.18
X128.027 Y11.171
X128.137 Y9.707
G2 X119.271 Y8.3 I-4.483 J-0.389
G1 X119.261 Y8.358
X119.112 Y9.699
X118.953 Y11.006
X118.783 Y12.281
X118.603 Y13.525
X118.411 Y14.736
X118.208 Y15.917
X117.994 Y17.066
X117.77 Y18.184
X117.532 Y19.271
X117.284 Y20.327
X117.024 Y21.353
X116.751 Y22.348
X116.466 Y23.313
X116.167 Y24.248
X115.856 Y25.153
X115.53 Y26.03
X115.192 Y26.877
X114.839 Y27.696
X114.471 Y28.487
X114.088 Y29.25
X113.689 Y29.987
X113.275 Y30.696
X112.845 Y31.379
X112.398 Y32.037
X111.934 Y32.67
X111.454 Y33.278
X110.955 Y33.862
X110.438 Y34.423
X109.903 Y34.962
X109.349 Y35.478
X108.776 Y35.973
X108.182 Y36.447
X107.57 Y36.901
X106.937 Y37.335
X106.282 Y37.75
X105.608 Y38.147
X104.912 Y38.525
X104.195 Y38.886
X103.456 Y39.231
X102.697 Y39.558
X101.916 Y39.87
X101.113 Y40.166
X100.288 Y40.447
X99.442 Y40.714
X98.574 Y40.967
X97.685 Y41.206
X96.776 Y41.433
X95.845 Y41.647
X94.895 Y41.849
X93.925 Y42.041
X92.937 Y42.221
X91.93 Y42.392
X90.906 Y42.553
X89.866 Y42.705
X88.81 Y42.849
X87.74 Y42.985
X86.658 Y43.114
X85.565 Y43.236
X83.347 Y43.464
X81.102 Y43.672
X78.838 Y43.866
X76.57 Y44.048
X74.307 Y44.223
X72.062 Y44.393
X69.844 Y44.561
X68.748 Y44.644
X67.663 Y44.728
X66.589 Y44.812
X65.527 Y44.896
X64.477 Y44.98
X63.441 Y45.065
X62.419 Y45.15
X61.412 Y45.235
X60.419 Y45.32
X59.441 Y45.405
X58.478 Y45.49
X57.53 Y45.575
X56.597 Y45.659
X55.679 Y45.742
X54.775 Y45.823
X53.886 Y45.903
X53.012 Y45.981
X52.151 Y46.057
X51.303 Y46.131
X50.469 Y46.201
X49.647 Y46.268
X48.838 Y46.331
X48.04 Y46.39
X47.254 Y46.445
X46.479 Y46.494
X45.713 Y46.538
X44.958 Y46.576
X44.211 Y46.608
X43.474 Y46.633
X42.743 Y46.651
X42.021 Y46.661
X41.304 Y46.663
X40.594 Y46.657
X39.889 Y46.641
X39.188 Y46.616
X38.491 Y46.582
X37.796 Y46.537
X37.105 Y46.481
X36.414 Y46.414
X35.725 Y46.335
X35.035 Y46.245
X34.345 Y46.142
X33.654 Y46.026
X32.961 Y45.898
X32.265 Y45.756
X31.567 Y45.6
X30.865 Y45.43
X30.158 Y45.245
X29.448 Y45.046
X28.732 Y44.832
X28.011 Y44.603
X27.284 Y44.359
X26.552 Y44.099
X25.813 Y43.823
X25.068 Y43.532
X24.316 Y43.224
G2 X20.849 Y51.53 I-1.732 J4.153
G1 Z-3 F20
X20.854 Y51.532 F300
X21.626 Y51.844
X21.637 Y51.848
X22.415 Y52.142
X22.426 Y52.146
X23.211 Y52.422
X23.222 Y52.426
X24.013 Y52.684
X24.024 Y52.687
X24.823 Y52.928
X24.833 Y52.931
X25.639 Y53.155
X25.649 Y53.158
X26.461 Y53.364
X26.472 Y53.367
X27.29 Y53.556
X27.3 Y53.559
X28.126 Y53.732
X28.136 Y53.734
X28.968 Y53.891
X28.977 Y53.893
X29.816 Y54.034
X29.825 Y54.036
X30.671 Y54.162
X30.68 Y54.163
X31.532 Y54.274
X31.541 Y54.275
X32.399 Y54.372
X32.408 Y54.373
X33.273 Y54.456
X33.281 Y54.457
X34.153 Y54.526
X34.16 Y54.527
X35.039 Y54.584
X35.046
X35.931 Y54.629
X35.937
X36.829 Y54.662
X36.835
X37.733 Y54.684
X37.739 Y54.685
X38.644 Y54.696
X38.649
X39.56 Y54.698
X39.565
X40.483 Y54.69
X40.487
X41.411 Y54.674
X41.417
X43.283 Y54.619
X43.29 Y54.618
X45.181 Y54.536
X45.187
X47.102 Y54.431
X47.106
X49.045 Y54.308
X49.048
X51.009 Y54.172
X51.011
X52.994 Y54.027
X55 Y53.877
X57.024 Y53.726
X59.067 Y53.577
X61.127 Y53.432
X63.203 Y53.295
X65.293 Y53.166
X67.397 Y53.047
X69.512 Y52.937
X73.77 Y52.736
X78.046 Y52.54
X78.049
X80.186 Y52.431
X80.19
X82.323 Y52.308
X82.328
X84.453 Y52.163
X84.46 Y52.162
X86.574 Y51.99
X86.58 Y51.989
X87.632 Y51.89
X87.637
X88.685 Y51.781
X88.69 Y51.78
X89.733 Y51.661
X89.739 Y51.66
X90.777 Y51.53
X90.783 Y51.529
X91.816 Y51.386
X91.823 Y51.385
X92.85 Y51.229
X92.857 Y51.228
X93.877 Y51.058
X93.885 Y51.057
X94.898 Y50.872
X94.906 Y50.871
X95.913 Y50.67
X95.921 Y50.669
X96.92 Y50.452
X96.928 Y50.451
X97.919 Y50.217
X97.928 Y50.215
X98.91 Y49.965
X98.919 Y49.962
X99.892 Y49.693
X99.901 Y49.691
X100.864 Y49.403
X100.874 Y49.4
X101.827 Y49.094
X101.837 Y49.09
X102.78 Y48.764
X102.791 Y48.761
X103.723 Y48.415
X103.734 Y48.41
X104.654 Y48.044
X104.665 Y48.039
X105.573 Y47.652
X105.585 Y47.647
X106.481 Y47.238
X106.492 Y47.232
X107.376 Y46.802
X107.388 Y46.796
X108.258 Y46.343
X108.27 Y46.337
X109.127 Y45.861
X109.138 Y45.855
X109.981 Y45.356
X109.993 Y45.349
X110.822 Y44.828
X110.834 Y44.82
X111.647 Y44.275
X111.659 Y44.267
X112.458 Y43.699
X112.47 Y43.69
X113.253 Y43.097
X113.265 Y43.088
X114.032 Y42.47
X114.043 Y42.461
X114.793 Y41.818
X114.805 Y41.808
X115.538 Y41.141
X115.549 Y41.131
X116.265 Y40.438
X116.275 Y40.428
X116.974 Y39.709
X116.985 Y39.698
X117.665 Y38.954
X117.675 Y38.943
X118.337 Y38.172
X118.347 Y38.161
X118.991 Y37.364
X119 Y37.352
X119.624 Y36.529
X119.633 Y36.517
X120.238 Y35.667
X120.247 Y35.655
X120.832 Y34.778
X120.84 Y34.766
X121.404 Y33.862
X121.411 Y33.85
X121.956 Y32.919
X121.964 Y32.906
X122.487 Y31.948
X122.493 Y31.936
X122.996 Y30.95
X123.003 Y30.937
X123.484 Y29.924
X123.49 Y29.911
X123.949 Y28.87
X123.954 Y28.858
X124.392 Y27.789
X124.397 Y27.777
X124.812 Y26.68
X124.816 Y26.668
X125.209 Y25.543
X125.213 Y25.531
X125.583 Y24.378
X125.587 Y24.366
X125.935 Y23.185
X125.938 Y23.173
X126.262 Y21.964
X126.265 Y21.953
X126.567 Y20.715
X126.569 Y20.704
X126.847 Y19.437
X126.85 Y19.426
X127.104 Y18.132
X127.106 Y18.121
X127.337 Y16.798
X127.338 Y16.788
X127.545 Y15.436
X127.547 Y15.426
X127.73 Y14.046
X127.731 Y14.036
X127.89 Y12.627
X127.891 Y12.617
X128.026 Y11.18
X128.027 Y11.171
X128.137 Y9.707
G2 X119.271 Y8.3 I-4.483 J-0.389
G1 X119.261 Y8.358
X119.112 Y9.699
X118.953 Y11.006
X118.783 Y12.281
X118.603 Y13.525
X118.411 Y14.736
X118.208 Y15.917
X117.994 Y17.066
X117.77 Y18.184
X117.532 Y19.271
X117.284 Y20.327
X117.024 Y21.353
X116.751 Y22.348
X116.466 Y23.313
X116.167 Y24.248
X115.856 Y25.153
X115.53 Y26.03
X115.192 Y26.877
X114.839 Y27.696
X114.471 Y28.487
X114.088 Y29.25
X113.689 Y29.987
X113.275 Y30.696
X112.845 Y31.379
X112.398 Y32.037
X111.934 Y32.67
X111.454 Y33.278
X110.955 Y33.862
X110.438 Y34.423
X109.903 Y34.962
X109.349 Y35.478
X108.776 Y35.973
X108.182 Y36.447
X107.57 Y36.901
X106.937 Y37.335
X106.282 Y37.75
X105.608 Y38.147
X104.912 Y38.525
X104.195 Y38.886
X103.456 Y39.231
X102.697 Y39.558
X101.916 Y39.87
X101.113 Y40.166
X100.288 Y40.447
X99.442 Y40.714
X98.574 Y40.967
X97.685 Y41.206
X96.776 Y41.433
X95.845 Y41.647
X94.895 Y41.849
X93.925 Y42.041
X92.937 Y42.221
X91.93 Y42.392
X90.906 Y42.553
X89.866 Y42.705
X88.81 Y42.849
X87.74 Y42.985
X86.658 Y43.114
X85.565 Y43.236
X83.347 Y43.464
X81.102 Y43.672
X78.838 Y43.866
X76.57 Y44.048
X74.307 Y44.223
X72.062 Y44.393
X69.844 Y44.561
X68.748 Y44.644
X67.663 Y44.728
X66.589 Y44.812
X65.527 Y44.896
X64.477 Y44.98
X63.441 Y45.065
X62.419 Y45.15
X61.412 Y45.235
X60.419 Y45.32
X59.441 Y45.405
X58.478 Y45.49
X57.53 Y45.575
X56.597 Y45.659
X55.679 Y45.742
X54.775 Y45.823
X53.886 Y45.903
X53.012 Y45.981
X52.151 Y46.057
X51.303 Y46.131
X50.469 Y46.201
X49.647 Y46.268
X48.838 Y46.331
X48.04 Y46.39
X47.254 Y46.445
X46.479 Y46.494
X45.713 Y46.538
X44.958 Y46.576
X44.211 Y46.608
X43.474 Y46.633
X42.743 Y46.651
X42.021 Y46.661
X41.304 Y46.663
X40.594 Y46.657
X39.889 Y46.641
X39.188 Y46.616
X38.491 Y46.582
X37.796 Y46.537
X37.105 Y46.481
X36.414 Y46.414
X35.725 Y46.335
X35.035 Y46.245
X34.345 Y46.142
X33.654 Y46.026
X32.961 Y45.898
X32.265 Y45.756
X31.567 Y45.6
X30.865 Y45.43
X30.158 Y45.245
X29.448 Y45.046
X28.732 Y44.832
X28.011 Y44.603
X27.284 Y44.359
X26.552 Y44.099
X25.813 Y43.823
X25.068 Y43.532
X24.316 Y43.224
G2 X20.849 Y51.53 I-1.732 J4.153
G1 Z-3.6 F20
X20.854 Y51.532 F300
X21.626 Y51.844
X21.637 Y51.848
X22.415 Y52.142
X22.426 Y52.146
X23.211 Y52.422
X23.222 Y52.426
X24.013 Y52.684
X24.024 Y52.687
X24.823 Y52.928
X24.833 Y52.931
X25.639 Y53.155
X25.649 Y53.158
X26.461 Y53.364
X26.472 Y53.367
X27.29 Y53.556
X27.3 Y53.559
X28.126 Y53.732
X28.136 Y53.734
X28.968 Y53.891
X28.977 Y53.893
X29.816 Y54.034
X29.825 Y54.036
X30.671 Y54.162
X30.68 Y54.163
X31.532 Y54.274
X31.541 Y54.275
X32.399 Y54.372
X32.408 Y54.373
X33.273 Y54.456
X33.281 Y54.457
X34.153 Y54.526
X34.16 Y54.527
X35.039 Y54.584
X35.046
X35.931 Y54.629
X35.937
X36.829 Y54.662
X36.835
X37.733 Y54.684
X37.739 Y54.685
X38.644 Y54.696
X38.649
X39.56 Y54.698
X39.565
X40.483 Y54.69
X40.487
X41.411 Y54.674
X41.417
X43.283 Y54.619
X43.29 Y54.618
X45.181 Y54.536
X45.187
X47.102 Y54.431
X47.106
X49.045 Y54.308
X49.048
X51.009 Y54.172
X51.011
X52.994 Y54.027
X55 Y53.877
X57.024 Y53.726
X59.067 Y53.577
X61.127 Y53.432
X63.203 Y53.295
X65.293 Y53.166
X67.397 Y53.047
X69.512 Y52.937
X73.77 Y52.736
X78.046 Y52.54
X78.049
X80.186 Y52.431
X80.19
X82.323 Y52.308
X82.328
X84.453 Y52.163
X84.46 Y52.162
X86.574 Y51.99
X86.58 Y51.989
X87.632 Y51.89
X87.637
X88.685 Y51.781
X88.69 Y51.78
X89.733 Y51.661
X89.739 Y51.66
X90.777 Y51.53
X90.783 Y51.529
X91.816 Y51.386
X91.823 Y51.385
X92.85 Y51.229
X92.857 Y51.228
X93.877 Y51.058
X93.885 Y51.057
X94.898 Y50.872
X94.906 Y50.871
X95.913 Y50.67
X95.921 Y50.669
X96.92 Y50.452
X96.928 Y50.451
X97.919 Y50.217
X97.928 Y50.215
X98.91 Y49.965
X98.919 Y49.962
X99.892 Y49.693
X99.901 Y49.691
X100.864 Y49.403
X100.874 Y49.4
X101.827 Y49.094
X101.837 Y49.09
X102.78 Y48.764
X102.791 Y48.761
X103.723 Y48.415
X103.734 Y48.41
X104.654 Y48.044
X104.665 Y48.039
X105.573 Y47.652
X105.585 Y47.647
X106.481 Y47.238
X106.492 Y47.232
X107.376 Y46.802
X107.388 Y46.796
X108.258 Y46.343
X108.27 Y46.337
X109.127 Y45.861
X109.138 Y45.855
X109.981 Y45.356
X109.993 Y45.349
X110.822 Y44.828
X110.834 Y44.82
X111.647 Y44.275
X111.659 Y44.267
X112.458 Y43.699
X112.47 Y43.69
X113.253 Y43.097
X113.265 Y43.088
X114.032 Y42.47
X114.043 Y42.461
X114.793 Y41.818
X114.805 Y41.808
X115.538 Y41.141
X115.549 Y41.131
X116.265 Y40.438
X116.275 Y40.428
X116.974 Y39.709
X116.985 Y39.698
X117.665 Y38.954
X117.675 Y38.943
X118.337 Y38.172
X118.347 Y38.161
X118.991 Y37.364
X119 Y37.352
X119.624 Y36.529
X119.633 Y36.517
X120.238 Y35.667
X120.247 Y35.655
X120.832 Y34.778
X120.84 Y34.766
X121.404 Y33.862
X121.411 Y33.85
X121.956 Y32.919
X121.964 Y32.906
X122.487 Y31.948
X122.493 Y31.936
X122.996 Y30.95
X123.003 Y30.937
X123.484 Y29.924
X123.49 Y29.911
X123.949 Y28.87
X123.954 Y28.858
X124.392 Y27.789
X124.397 Y27.777
X124.812 Y26.68
X124.816 Y26.668
X125.209 Y25.543
X125.213 Y25.531
X125.583 Y24.378
X125.587 Y24.366
X125.935 Y23.185
X125.938 Y23.173
X126.262 Y21.964
X126.265 Y21.953
X126.567 Y20.715
X126.569 Y20.704
X126.847 Y19.437
X126.85 Y19.426
X127.104 Y18.132
X127.106 Y18.121
X127.337 Y16.798
X127.338 Y16.788
X127.545 Y15.436
X127.547 Y15.426
X127.73 Y14.046
X127.731 Y14.036
X127.89 Y12.627
X127.891 Y12.617
X128.026 Y11.18
X128.027 Y11.171
X128.137 Y9.707
G2 X119.271 Y8.3 I-4.483 J-0.389
G1 X119.261 Y8.358
X119.112 Y9.699
X118.953 Y11.006
X118.783 Y12.281
X118.603 Y13.525
X118.411 Y14.736
X118.208 Y15.917
X117.994 Y17.066
X117.77 Y18.184
X117.532 Y19.271
X117.284 Y20.327
X117.024 Y21.353
X116.751 Y22.348
X116.466 Y23.313
X116.167 Y24.248
X115.856 Y25.153
X115.53 Y26.03
X115.192 Y26.877
X114.839 Y27.696
X114.471 Y28.487
X114.088 Y29.25
X113.689 Y29.987
X113.275 Y30.696
X112.845 Y31.379
X112.398 Y32.037
X111.934 Y32.67
X111.454 Y33.278
X110.955 Y33.862
X110.438 Y34.423
X109.903 Y34.962
X109.349 Y35.478
X108.776 Y35.973
X108.182 Y36.447
X107.57 Y36.901
X106.937 Y37.335
X106.282 Y37.75
X105.608 Y38.147
X104.912 Y38.525
X104.195 Y38.886
X103.456 Y39.231
X102.697 Y39.558
X101.916 Y39.87
X101.113 Y40.166
X100.288 Y40.447
X99.442 Y40.714
X98.574 Y40.967
X97.685 Y41.206
X96.776 Y41.433
X95.845 Y41.647
X94.895 Y41.849
X93.925 Y42.041
X92.937 Y42.221
X91.93 Y42.392
X90.906 Y42.553
X89.866 Y42.705
X88.81 Y42.849
X87.74 Y42.985
X86.658 Y43.114
X85.565 Y43.236
X83.347 Y43.464
X81.102 Y43.672
X78.838 Y43.866
X76.57 Y44.048
X74.307 Y44.223
X72.062 Y44.393
X69.844 Y44.561
X68.748 Y44.644
X67.663 Y44.728
X66.589 Y44.812
X65.527 Y44.896
X64.477 Y44.98
X63.441 Y45.065
X62.419 Y45.15
X61.412 Y45.235
X60.419 Y45.32
X59.441 Y45.405
X58.478 Y45.49
X57.53 Y45.575
X56.597 Y45.659
X55.679 Y45.742
X54.775 Y45.823
X53.886 Y45.903
X53.012 Y45.981
X52.151 Y46.057
X51.303 Y46.131
X50.469 Y46.201
X49.647 Y46.268
X48.838 Y46.331
X48.04 Y46.39
X47.254 Y46.445
X46.479 Y46.494
X45.713 Y46.538
X44.958 Y46.576
X44.211 Y46.608
X43.474 Y46.633
X42.743 Y46.651
X42.021 Y46.661
X41.304 Y46.663
X40.594 Y46.657
X39.889 Y46.641
X39.188 Y46.616
X38.491 Y46.582
X37.796 Y46.537
X37.105 Y46.481
X36.414 Y46.414
X35.725 Y46.335
X35.035 Y46.245
X34.345 Y46.142
X33.654 Y46.026
X32.961 Y45.898
X32.265 Y45.756
X31.567 Y45.6
X30.865 Y45.43
X30.158 Y45.245
X29.448 Y45.046
X28.732 Y44.832
X28.011 Y44.603
X27.284 Y44.359
X26.552 Y44.099
X25.813 Y43.823
X25.068 Y43.532
X24.316 Y43.224
G2 X20.849 Y51.53 I-1.732 J4.153
G1 Z-4.2 F20
X20.854 Y51.532 F300
X21.626 Y51.844
X21.637 Y51.848
X22.415 Y52.142
X22.426 Y52.146
X23.211 Y52.422
X23.222 Y52.426
X24.013 Y52.684
X24.024 Y52.687
X24.823 Y52.928
X24.833 Y52.931
X25.639 Y53.155
X25.649 Y53.158
X26.461 Y53.364
X26.472 Y53.367
X27.29 Y53.556
X27.3 Y53.559
X28.126 Y53.732
X28.136 Y53.734
X28.968 Y53.891
X28.977 Y53.893
X29.816 Y54.034
X29.825 Y54.036
X30.671 Y54.162
X30.68 Y54.163
X31.532 Y54.274
X31.541 Y54.275
X32.399 Y54.372
X32.408 Y54.373
X33.273 Y54.456
X33.281 Y54.457
X34.153 Y54.526
X34.16 Y54.527
X35.039 Y54.584
X35.046
X35.931 Y54.629
X35.937
X36.829 Y54.662
X36.835
X37.733 Y54.684
X37.739 Y54.685
X38.644 Y54.696
X38.649
X39.56 Y54.698
X39.565
X40.483 Y54.69
X40.487
X41.411 Y54.674
X41.417
X43.283 Y54.619
X43.29 Y54.618
X45.181 Y54.536
X45.187
X47.102 Y54.431
X47.106
X49.045 Y54.308
X49.048
X51.009 Y54.172
X51.011
X52.994 Y54.027
X55 Y53.877
X57.024 Y53.726
X59.067 Y53.577
X61.127 Y53.432
X63.203 Y53.295
X65.293 Y53.166
X67.397 Y53.047
X69.512 Y52.937
X73.77 Y52.736
X78.046 Y52.54
X78.049
X80.186 Y52.431
X80.19
X82.323 Y52.308
X82.328
X84.453 Y52.163
X84.46 Y52.162
X86.574 Y51.99
X86.58 Y51.989
X87.632 Y51.89
X87.637
X88.685 Y51.781
X88.69 Y51.78
X89.733 Y51.661
X89.739 Y51.66
X90.777 Y51.53
X90.783 Y51.529
X91.816 Y51.386
X91.823 Y51.385
X92.85 Y51.229
X92.857 Y51.228
X93.877 Y51.058
X93.885 Y51.057
X94.898 Y50.872
X94.906 Y50.871
X95.913 Y50.67
X95.921 Y50.669
X96.92 Y50.452
X96.928 Y50.451
X97.919 Y50.217
X97.928 Y50.215
X98.91 Y49.965
X98.919 Y49.962
X99.892 Y49.693
X99.901 Y49.691
X100.864 Y49.403
X100.874 Y49.4
X101.827 Y49.094
X101.837 Y49.09
X102.78 Y48.764
X102.791 Y48.761
X103.723 Y48.415
X103.734 Y48.41
X104.654 Y48.044
X104.665 Y48.039
X105.573 Y47.652
X105.585 Y47.647
X106.481 Y47.238
X106.492 Y47.232
X107.376 Y46.802
X107.388 Y46.796
X108.258 Y46.343
X108.27 Y46.337
X109.127 Y45.861
X109.138 Y45.855
X109.981 Y45.356
X109.993 Y45.349
X110.822 Y44.828
X110.834 Y44.82
X111.647 Y44.275
X111.659 Y44.267
X112.458 Y43.699
X112.47 Y43.69
X113.253 Y43.097
X113.265 Y43.088
X114.032 Y42.47
X114.043 Y42.461
X114.793 Y41.818
X114.805 Y41.808
X115.538 Y41.141
X115.549 Y41.131
X116.265 Y40.438
X116.275 Y40.428
X116.974 Y39.709
X116.985 Y39.698
X117.665 Y38.954
X117.675 Y38.943
X118.337 Y38.172
X118.347 Y38.161
X118.991 Y37.364
X119 Y37.352
X119.624 Y36.529
X119.633 Y36.517
X120.238 Y35.667
X120.247 Y35.655
X120.832 Y34.778
X120.84 Y34.766
X121.404 Y33.862
X121.411 Y33.85
X121.956 Y32.919
X121.964 Y32.906
X122.487 Y31.948
X122.493 Y31.936
X122.996 Y30.95
X123.003 Y30.937
X123.484 Y29.924
X123.49 Y29.911
X123.949 Y28.87
X123.954 Y28.858
X124.392 Y27.789
X124.397 Y27.777
X124.812 Y26.68
X124.816 Y26.668
X125.209 Y25.543
X125.213 Y25.531
X125.583 Y24.378
X125.587 Y24.366
X125.935 Y23.185
X125.938 Y23.173
X126.262 Y21.964
X126.265 Y21.953
X126.567 Y20.715
X126.569 Y20.704
X126.847 Y19.437
X126.85 Y19.426
X127.104 Y18.132
X127.106 Y18.121
X127.337 Y16.798
X127.338 Y16.788
X127.545 Y15.436
X127.547 Y15.426
X127.73 Y14.046
X127.731 Y14.036
X127.89 Y12.627
X127.891 Y12.617
X128.026 Y11.18
X128.027 Y11.171
X128.137 Y9.707
G2 X119.271 Y8.3 I-4.483 J-0.389
G1 X119.261 Y8.358
X119.112 Y9.699
X118.953 Y11.006
X118.783 Y12.281
X118.603 Y13.525
X118.411 Y14.736
X118.208 Y15.917
X117.994 Y17.066
X117.77 Y18.184
X117.532 Y19.271
X117.284 Y20.327
X117.024 Y21.353
X116.751 Y22.348
X116.466 Y23.313
X116.167 Y24.248
X115.856 Y25.153
X115.53 Y26.03
X115.192 Y26.877
X114.839 Y27.696
X114.471 Y28.487
X114.088 Y29.25
X113.689 Y29.987
X113.275 Y30.696
X112.845 Y31.379
X112.398 Y32.037
X111.934 Y32.67
X111.454 Y33.278
X110.955 Y33.862
X110.438 Y34.423
X109.903 Y34.962
X109.349 Y35.478
X108.776 Y35.973
X108.182 Y36.447
X107.57 Y36.901
X106.937 Y37.335
X106.282 Y37.75
X105.608 Y38.147
X104.912 Y38.525
X104.195 Y38.886
X103.456 Y39.231
X102.697 Y39.558
X101.916 Y39.87
X101.113 Y40.166
X100.288 Y40.447
X99.442 Y40.714
X98.574 Y40.967
X97.685 Y41.206
X96.776 Y41.433
X95.845 Y41.647
X94.895 Y41.849
X93.925 Y42.041
X92.937 Y42.221
X91.93 Y42.392
X90.906 Y42.553
X89.866 Y42.705
X88.81 Y42.849
X87.74 Y42.985
X86.658 Y43.114
X85.565 Y43.236
X83.347 Y43.464
X81.102 Y43.672
X78.838 Y43.866
X76.57 Y44.048
X74.307 Y44.223
X72.062 Y44.393
X69.844 Y44.561
X68.748 Y44.644
X67.663 Y44.728
X66.589 Y44.812
X65.527 Y44.896
X64.477 Y44.98
X63.441 Y45.065
X62.419 Y45.15
X61.412 Y45.235
X60.419 Y45.32
X59.441 Y45.405
X58.478 Y45.49
X57.53 Y45.575
X56.597 Y45.659
X55.679 Y45.742
X54.775 Y45.823
X53.886 Y45.903
X53.012 Y45.981
X52.151 Y46.057
X51.303 Y46.131
X50.469 Y46.201
X49.647 Y46.268
X48.838 Y46.331
X48.04 Y46.39
X47.254 Y46.445
X46.479 Y46.494
X45.713 Y46.538
X44.958 Y46.576
X44.211 Y46.608
X43.474 Y46.633
X42.743 Y46.651
X42.021 Y46.661
X41.304 Y46.663
X40.594 Y46.657
X39.889 Y46.641
X39.188 Y46.616
X38.491 Y46.582
X37.796 Y46.537
X37.105 Y46.481
X36.414 Y46.414
X35.725 Y46.335
X35.035 Y46.245
X34.345 Y46.142
X33.654 Y46.026
X32.961 Y45.898
X32.265 Y45.756
X31.567 Y45.6
X30.865 Y45.43
X30.158 Y45.245
X29.448 Y45.046
X28.732 Y44.832
X28.011 Y44.603
X27.284 Y44.359
X26.552 Y44.099
X25.813 Y43.823
X25.068 Y43.532
X24.316 Y43.224
G2 X20.849 Y51.53 I-1.732 J4.153
G1 Z-4.4 F20
X20.854 Y51.532 F300
X21.626 Y51.844
X21.637 Y51.848
X22.415 Y52.142
X22.426 Y52.146
X23.211 Y52.422
X23.222 Y52.426
X24.013 Y52.684
X24.024 Y52.687
X24.823 Y52.928
X24.833 Y52.931
X25.639 Y53.155
X25.649 Y53.158
X26.461 Y53.364
X26.472 Y53.367
X27.29 Y53.556
X27.3 Y53.559
X28.126 Y53.732
X28.136 Y53.734
X28.968 Y53.891
X28.977 Y53.893
X29.816 Y54.034
X29.825 Y54.036
X30.671 Y54.162
X30.68 Y54.163
X31.532 Y54.274
X31.541 Y54.275
X32.399 Y54.372
X32.408 Y54.373
X33.273 Y54.456
X33.281 Y54.457
X34.153 Y54.526
X34.16 Y54.527
X35.039 Y54.584
X35.046
X35.931 Y54.629
X35.937
X36.829 Y54.662
X36.835
X37.733 Y54.684
X37.739 Y54.685
X38.644 Y54.696
X38.649
X39.56 Y54.698
X39.565
X40.483 Y54.69
X40.487
X41.411 Y54.674
X41.417
X43.283 Y54.619
X43.29 Y54.618
X45.181 Y54.536
X45.187
X47.102 Y54.431
X47.106
X49.045 Y54.308
X49.048
X51.009 Y54.172
X51.011
X52.994 Y54.027
X55 Y53.877
X57.024 Y53.726
X59.067 Y53.577
X61.127 Y53.432
X63.203 Y53.295
X65.293 Y53.166
X67.397 Y53.047
X69.512 Y52.937
X73.77 Y52.736
X78.046 Y52.54
X78.049
X80.186 Y52.431
X80.19
X82.323 Y52.308
X82.328
X84.453 Y52.163
X84.46 Y52.162
X86.574 Y51.99
X86.58 Y51.989
X87.632 Y51.89
X87.637
X88.685 Y51.781
X88.69 Y51.78
X89.733 Y51.661
X89.739 Y51.66
X90.777 Y51.53
X90.783 Y51.529
X91.816 Y51.386
X91.823 Y51.385
X92.85 Y51.229
X92.857 Y51.228
X93.877 Y51.058
X93.885 Y51.057
X94.898 Y50.872
X94.906 Y50.871
X95.913 Y50.67
X95.921 Y50.669
X96.92 Y50.452
X96.928 Y50.451
X97.919 Y50.217
X97.928 Y50.215
X98.91 Y49.965
X98.919 Y49.962
X99.892 Y49.693
X99.901 Y49.691
X100.864 Y49.403
X100.874 Y49.4
X101.827 Y49.094
X101.837 Y49.09
X102.78 Y48.764
X102.791 Y48.761
X103.723 Y48.415
X103.734 Y48.41
X104.654 Y48.044
X104.665 Y48.039
X105.573 Y47.652
X105.585 Y47.647
X106.481 Y47.238
X106.492 Y47.232
X107.376 Y46.802
X107.388 Y46.796
X108.258 Y46.343
X108.27 Y46.337
X109.127 Y45.861
X109.138 Y45.855
X109.981 Y45.356
X109.993 Y45.349
X110.822 Y44.828
X110.834 Y44.82
X111.647 Y44.275
X111.659 Y44.267
X112.458 Y43.699
X112.47 Y43.69
X113.253 Y43.097
X113.265 Y43.088
X114.032 Y42.47
X114.043 Y42.461
X114.793 Y41.818
X114.805 Y41.808
X115.538 Y41.141
X115.549 Y41.131
X116.265 Y40.438
X116.275 Y40.428
X116.974 Y39.709
X116.985 Y39.698
X117.665 Y38.954
X117.675 Y38.943
X118.337 Y38.172
X118.347 Y38.161
X118.991 Y37.364
X119 Y37.352
X119.624 Y36.529
X119.633 Y36.517
X120.238 Y35.667
X120.247 Y35.655
X120.832 Y34.778
X120.84 Y34.766
X121.404 Y33.862
X121.411 Y33.85
X121.956 Y32.919
X121.964 Y32.906
X122.487 Y31.948
X122.493 Y31.936
X122.996 Y30.95
X123.003 Y30.937
X123.484 Y29.924
X123.49 Y29.911
X123.949 Y28.87
X123.954 Y28.858
X124.392 Y27.789
X124.397 Y27.777
X124.812 Y26.68
X124.816 Y26.668
X125.209 Y25.543
X125.213 Y25.531
X125.583 Y24.378
X125.587 Y24.366
X125.935 Y23.185
X125.938 Y23.173
X126.262 Y21.964
X126.265 Y21.953
X126.567 Y20.715
X126.569 Y20.704
X126.847 Y19.437
X126.85 Y19.426
X127.104 Y18.132
X127.106 Y18.121
X127.337 Y16.798
X127.338 Y16.788
X127.545 Y15.436
X127.547 Y15.426
X127.73 Y14.046
X127.731 Y14.036
X127.89 Y12.627
X127.891 Y12.617
X128.026 Y11.18
X128.027 Y11.171
X128.137 Y9.707
G2 X119.271 Y8.3 I-4.483 J-0.389
G1 X119.261 Y8.358
X119.112 Y9.699
X118.953 Y11.006
X118.783 Y12.281
X118.603 Y13.525
X118.411 Y14.736
X118.208 Y15.917
X117.994 Y17.066
X117.77 Y18.184
X117.532 Y19.271
X117.284 Y20.327
X117.024 Y21.353
X116.751 Y22.348
X116.466 Y23.313
X116.167 Y24.248
X115.856 Y25.153
X115.53 Y26.03
X115.192 Y26.877
X114.839 Y27.696
X114.471 Y28.487
X114.088 Y29.25
X113.689 Y29.987
X113.275 Y30.696
X112.845 Y31.379
X112.398 Y32.037
X111.934 Y32.67
X111.454 Y33.278
X110.955 Y33.862
X110.438 Y34.423
X109.903 Y34.962
X109.349 Y35.478
X108.776 Y35.973
X108.182 Y36.447
X107.57 Y36.901
X106.937 Y37.335
X106.282 Y37.75
X105.608 Y38.147
X104.912 Y38.525
X104.195 Y38.886
X103.456 Y39.231
X102.697 Y39.558
X101.916 Y39.87
X101.113 Y40.166
X100.288 Y40.447
X99.442 Y40.714
X98.574 Y40.967
X97.685 Y41.206
X96.776 Y41.433
X95.845 Y41.647
X94.895 Y41.849
X93.925 Y42.041
X92.937 Y42.221
X91.93 Y42.392
X90.906 Y42.553
X89.866 Y42.705
X88.81 Y42.849
X87.74 Y42.985
X86.658 Y43.114
X85.565 Y43.236
X83.347 Y43.464
X81.102 Y43.672
X78.838 Y43.866
X76.57 Y44.048
X74.307 Y44.223
X72.062 Y44.393
X69.844 Y44.561
X68.748 Y44.644
X67.663 Y44.728
X66.589 Y44.812
X65.527 Y44.896
X64.477 Y44.98
X63.441 Y45.065
X62.419 Y45.15
X61.412 Y45.235
X60.419 Y45.32
X59.441 Y45.405
X58.478 Y45.49
X57.53 Y45.575
X56.597 Y45.659
X55.679 Y45.742
X54.775 Y45.823
X53.886 Y45.903
X53.012 Y45.981
X52.151 Y46.057
X51.303 Y46.131
X50.469 Y46.201
X49.647 Y46.268
X48.838 Y46.331
X48.04 Y46.39
X47.254 Y46.445
X46.479 Y46.494
X45.713 Y46.538
X44.958 Y46.576
X44.211 Y46.608
X43.474 Y46.633
X42.743 Y46.651
X42.021 Y46.661
X41.304 Y46.663
X40.594 Y46.657
X39.889 Y46.641
X39.188 Y46.616
X38.491 Y46.582
X37.796 Y46.537
X37.105 Y46.481
X36.414 Y46.414
X35.725 Y46.335
X35.035 Y46.245
X34.345 Y46.142
X33.654 Y46.026
X32.961 Y45.898
X32.265 Y45.756
X31.567 Y45.6
X30.865 Y45.43
X30.158 Y45.245
X29.448 Y45.046
X28.732 Y44.832
X28.011 Y44.603
X27.284 Y44.359
X26.552 Y44.099
X25.813 Y43.823
X25.068 Y43.532
X24.316 Y43.224
G2 X20.849 Y51.53 I-1.732 J4.153
G1 Z2
X43.16 Y9.412
Z1
Z-0.6 F20
X43.377 Y9.401 F300
X44.466 Y9.355
X45.566 Y9.317
X47.794 Y9.259
X50.049 Y9.222
X52.321 Y9.202
X54.596 Y9.193
X56.866 Y9.191
X59.118 Y9.193
X61.342 Y9.195
X62.44
X63.529 Y9.194
X64.607 Y9.193
X65.672 Y9.19
X66.725 Y9.186
X67.764 Y9.18
X68.79 Y9.174
X69.801 Y9.166
X70.797 Y9.156
X71.779 Y9.146
X72.746 Y9.135
X73.697 Y9.123
X74.634 Y9.11
X75.556 Y9.098
X76.463 Y9.085
X77.355 Y9.073
X78.233 Y9.062
X79.098 Y9.052
X79.948 Y9.043
X80.785 Y9.037
X81.61 Y9.033
X82.422 Y9.031
X83.221 Y9.033
X84.01 Y9.039
X84.786 Y9.049
X85.553 Y9.063
X86.309 Y9.083
X87.056 Y9.108
X87.794 Y9.14
X88.523 Y9.178
X89.244 Y9.223
X89.959 Y9.275
X90.667 Y9.336
X91.369 Y9.405
X92.066 Y9.483
X92.758 Y9.571
X93.447 Y9.669
X94.132 Y9.777
X94.816 Y9.897
X95.497 Y10.027
X96.178 Y10.17
X96.858 Y10.325
X97.538 Y10.493
X98.219 Y10.674
X98.902 Y10.869
X99.587 Y11.078
X100.274 Y11.301
X100.964 Y11.539
X101.658 Y11.791
X102.355 Y12.059
X103.057 Y12.343
X103.762 Y12.642
X104.473 Y12.957
X105.188 Y13.288
X105.908 Y13.635
X106.635 Y14
G2 X110.725 Y5.983 I2.045 J-4.009
G1 X110.72 Y5.98
X109.975 Y5.61
X109.965 Y5.605
X109.211 Y5.253
X109.2 Y5.248
X108.438 Y4.913
X108.428 Y4.908
X107.658 Y4.59
X107.648 Y4.586
X106.871 Y4.285
X106.86 Y4.281
X106.074 Y3.997
X106.064 Y3.993
X105.27 Y3.725
X105.26 Y3.722
X104.458 Y3.471
X104.448 Y3.468
X103.638 Y3.232
X103.628 Y3.229
X102.811 Y3.009
X102.801 Y3.007
X101.975 Y2.802
X101.966 Y2.8
X101.133 Y2.609
X101.124 Y2.607
X100.283 Y2.432
X100.275 Y2.43
X99.426 Y2.268
X99.418 Y2.266
X98.561 Y2.117
X98.553 Y2.116
X97.689 Y1.98
X97.682 Y1.979
X96.81 Y1.855
X96.803 Y1.854
X95.924 Y1.742
X95.917
X95.031 Y1.641
X95.025 Y1.64
X94.131 Y1.549
X94.125
X93.224 Y1.468
X93.219
X92.311 Y1.397
X92.306 Y1.396
X91.39 Y1.334
X91.386
X90.463 Y1.279
X90.457
X88.592 Y1.192
X88.585
X86.694 Y1.13
X86.688 Y1.129
X84.771 Y1.088
X84.766
X82.824 Y1.062
X82.821
X80.855 Y1.048
X80.853
X78.864 Y1.041
X76.853 Y1.037
X74.823 Y1.034
X72.775 Y1.027
X70.71 Y1.014
X68.63 Y0.992
X66.536 Y0.961
X64.429 Y0.92
X62.312 Y0.868
X58.051 Y0.743
X53.772 Y0.613
X53.77
X51.63 Y0.558
X51.627
X49.49 Y0.518
X49.485
X47.355 Y0.5
X47.348
X45.227 Y0.511
X45.221
X44.164 Y0.53
X44.159
X43.106 Y0.558
X43.101 Y0.559
X42.052 Y0.598
X42.046
X41.001 Y0.649
X40.995 Y0.65
X39.954 Y0.713
X39.948 Y0.714
X38.912 Y0.791
X38.905 Y0.792
X37.874 Y0.883
X37.867 Y0.884
X36.842 Y0.991
X36.834 Y0.992
X35.815 Y1.115
X35.807 Y1.116
X34.794 Y1.255
X34.786 Y1.256
X33.78 Y1.413
X33.771 Y1.415
X32.773 Y1.59
X32.763 Y1.592
X31.773 Y1.785
X31.763 Y1.787
X30.781 Y2
X30.771 Y2.003
X29.797 Y2.235
X29.787 Y2.238
X28.822 Y2.491
X28.811 Y2.494
X27.856 Y2.768
X27.845 Y2.772
X26.899 Y3.067
X26.887 Y3.071
X25.952 Y3.388
X25.94 Y3.392
X25.016 Y3.731
X25.004 Y3.736
X24.09 Y4.098
X24.078 Y4.103
X23.175 Y4.488
X23.163 Y4.493
X22.273 Y4.902
X22.26 Y4.908
X21.382 Y5.34
X21.369 Y5.346
X20.503 Y5.803
X20.491 Y5.81
X19.638 Y6.291
X19.626 Y6.298
X18.786 Y6.804
X18.774 Y6.812
X17.948 Y7.344
X17.936 Y7.352
X17.124 Y7.909
X17.112 Y7.918
X16.315 Y8.501
X16.303 Y8.51
X15.52 Y9.119
X15.509 Y9.129
X14.742 Y9.765
X14.73 Y9.775
X13.979 Y10.437
X13.967 Y10.448
X13.232 Y11.138
X13.221 Y11.148
X12.502 Y11.866
X12.492 Y11.877
X11.789 Y12.622
X11.779 Y12.633
X11.094 Y13.406
X11.084 Y13.418
X10.416 Y14.219
X10.407 Y14.23
X9.757 Y15.06
X9.748 Y15.072
X9.116 Y15.93
X9.107 Y15.942
X8.494 Y16.828
X8.485 Y16.84
X7.89 Y17.756
X7.883 Y17.768
X7.307 Y18.712
X7.299 Y18.724
X6.742 Y19.698
X6.736 Y19.71
X6.198 Y20.713
X6.192 Y20.725
X5.674 Y21.757
X5.668 Y21.769
X5.171 Y22.831
X5.165 Y22.843
X4.688 Y23.935
X4.683 Y23.946
X4.226 Y25.068
X4.221 Y25.079
X3.784 Y26.23
X3.78 Y26.242
X3.365 Y27.423
X3.361 Y27.434
X2.966 Y28.645
X2.963 Y28.656
X2.589 Y29.897
X2.586 Y29.908
X2.233 Y31.18
X2.231 Y31.19
X1.9 Y32.492
X1.897 Y32.502
X1.588 Y33.834
X1.586 Y33.844
X1.298 Y35.206
X1.296 Y35.216
X1.03 Y36.609
X1.028 Y36.618
X0.783 Y38.041
X0.782 Y38.05
X0.56 Y39.501
G2 X9.293 Y41.58 I4.44 J0.73
G1 X9.307 Y41.523
X9.558 Y40.197
X9.817 Y38.907
X10.083 Y37.648
X10.359 Y36.422
X10.642 Y35.228
X10.934 Y34.066
X11.235 Y32.937
X11.544 Y31.839
X11.863 Y30.774
X12.191 Y29.739
X12.529 Y28.737
X12.877 Y27.765
X13.235 Y26.825
X13.604 Y25.915
X13.984 Y25.036
X14.375 Y24.187
X14.777 Y23.368
X15.192 Y22.578
X15.619 Y21.818
X16.059 Y21.086
X16.513 Y20.382
X16.98 Y19.706
X17.461 Y19.058
X17.956 Y18.436
X18.467 Y17.841
X18.993 Y17.271
X19.535 Y16.727
X20.093 Y16.207
X20.668 Y15.71
X21.26 Y15.238
X21.869 Y14.788
X22.496 Y14.361
X23.142 Y13.955
X23.807 Y13.57
X24.49 Y13.206
X25.193 Y12.862
X25.916 Y12.538
X26.658 Y12.233
X27.42 Y11.946
X28.203 Y11.677
X29.006 Y11.426
X29.829 Y11.192
X30.673 Y10.975
X31.537 Y10.773
X32.421 Y10.587
X33.326 Y10.416
X34.25 Y10.26
X35.194 Y10.117
X36.157 Y9.988
X37.138 Y9.871
X38.138 Y9.766
X39.155 Y9.673
X40.188 Y9.591
X41.237 Y9.518
X42.3 Y9.455
X43.16 Y9.412
Z-1.2 F20
X43.377 Y9.401 F300
X44.466 Y9.355
X45.566 Y9.317
X47.794 Y9.259
X50.049 Y9.222
X52.321 Y9.202
X54.596 Y9.193
X56.866 Y9.191
X59.118 Y9.193
X61.342 Y9.195
X62.44
X63.529 Y9.194
X64.607 Y9.193
X65.672 Y9.19
X66.725 Y9.186
X67.764 Y9.18
X68.79 Y9.174
X69.801 Y9.166
X70.797 Y9.156
X71.779 Y9.146
X72.746 Y9.135
X73.697 Y9.123
X74.634 Y9.11
X75.556 Y9.098
X76.463 Y9.085
X77.355 Y9.073
X78.233 Y9.062
X79.098 Y9.052
X79.948 Y9.043
X80.785 Y9.037
X81.61 Y9.033
X82.422 Y9.031
X83.221 Y9.033
X84.01 Y9.039
X84.786 Y9.049
X85.553 Y9.063
X86.309 Y9.083
X87.056 Y9.108
X87.794 Y9.14
X88.523 Y9.178
X89.244 Y9.223
X89.959 Y9.275
X90.667 Y9.336
X91.369 Y9.405
X92.066 Y9.483
X92.758 Y9.571
X93.447 Y9.669
X94.132 Y9.777
X94.816 Y9.897
X95.497 Y10.027
X96.178 Y10.17
X96.858 Y10.325
X97.538 Y10.493
X98.219 Y10.674
X98.902 Y10.869
X99.587 Y11.078
X100.274 Y11.301
X100.964 Y11.539
X101.658 Y11.791
X102.355 Y12.059
X103.057 Y12.343
X103.762 Y12.642
X104.473 Y12.957
X105.188 Y13.288
X105.908 Y13.635
X106.635 Y14
G2 X110.725 Y5.983 I2.045 J-4.009
G1 X110.72 Y5.98
X109.975 Y5.61
X109.965 Y5.605
X109.211 Y5.253
X109.2 Y5.248
X108.438 Y4.913
X108.428 Y4.908
X107.658 Y4.59
X107.648 Y4.586
X106.871 Y4.285
X106.86 Y4.281
X106.074 Y3.997
X106.064 Y3.993
X105.27 Y3.725
X105.26 Y3.722
X104.458 Y3.471
X104.448 Y3.468
X103.638 Y3.232
X103.628 Y3.229
X102.811 Y3.009
X102.801 Y3.007
X101.975 Y2.802
X101.966 Y2.8
X101.133 Y2.609
X101.124 Y2.607
X100.283 Y2.432
X100.275 Y2.43
X99.426 Y2.268
X99.418 Y2.266
X98.561 Y2.117
X98.553 Y2.116
X97.689 Y1.98
X97.682 Y1.979
X96.81 Y1.855
X96.803 Y1.854
X95.924 Y1.742
X95.917
X95.031 Y1.641
X95.025 Y1.64
X94.131 Y1.549
X94.125
X93.224 Y1.468
X93.219
X92.311 Y1.397
X92.306 Y1.396
X91.39 Y1.334
X91.386
X90.463 Y1.279
X90.457
X88.592 Y1.192
X88.585
X86.694 Y1.13
X86.688 Y1.129
X84.771 Y1.088
X84.766
X82.824 Y1.062
X82.821
X80.855 Y1.048
X80.853
X78.864 Y1.041
X76.853 Y1.037
X74.823 Y1.034
X72.775 Y1.027
X70.71 Y1.014
X68.63 Y0.992
X66.536 Y0.961
X64.429 Y0.92
X62.312 Y0.868
X58.051 Y0.743
X53.772 Y0.613
X53.77
X51.63 Y0.558
X51.627
X49.49 Y0.518
X49.485
X47.355 Y0.5
X47.348
X45.227 Y0.511
X45.221
X44.164 Y0.53
X44.159
X43.106 Y0.558
X43.101 Y0.559
X42.052 Y0.598
X42.046
X41.001 Y0.649
X40.995 Y0.65
X39.954 Y0.713
X39.948 Y0.714
X38.912 Y0.791
X38.905 Y0.792
X37.874 Y0.883
X37.867 Y0.884
X36.842 Y0.991
X36.834 Y0.992
X35.815 Y1.115
X35.807 Y1.116
X34.794 Y1.255
X34.786 Y1.256
X33.78 Y1.413
X33.771 Y1.415
X32.773 Y1.59
X32.763 Y1.592
X31.773 Y1.785
X31.763 Y1.787
X30.781 Y2
X30.771 Y2.003
X29.797 Y2.235
X29.787 Y2.238
X28.822 Y2.491
X28.811 Y2.494
X27.856 Y2.768
X27.845 Y2.772
X26.899 Y3.067
X26.887 Y3.071
X25.952 Y3.388
X25.94 Y3.392
X25.016 Y3.731
X25.004 Y3.736
X24.09 Y4.098
X24.078 Y4.103
X23.175 Y4.488
X23.163 Y4.493
X22.273 Y4.902
X22.26 Y4.908
X21.382 Y5.34
X21.369 Y5.346
X20.503 Y5.803
X20.491 Y5.81
X19.638 Y6.291
X19.626 Y6.298
X18.786 Y6.804
X18.774 Y6.812
X17.948 Y7.344
X17.936 Y7.352
X17.124 Y7.909
X17.112 Y7.918
X16.315 Y8.501
X16.303 Y8.51
X15.52 Y9.119
X15.509 Y9.129
X14.742 Y9.765
X14.73 Y9.775
X13.979 Y10.437
X13.967 Y10.448
X13.232 Y11.138
X13.221 Y11.148
X12.502 Y11.866
X12.492 Y11.877
X11.789 Y12.622
X11.779 Y12.633
X11.094 Y13.406
X11.084 Y13.418
X10.416 Y14.219
X10.407 Y14.23
X9.757 Y15.06
X9.748 Y15.072
X9.116 Y15.93
X9.107 Y15.942
X8.494 Y16.828
X8.485 Y16.84
X7.89 Y17.756
X7.883 Y17.768
X7.307 Y18.712
X7.299 Y18.724
X6.742 Y19.698
X6.736 Y19.71
X6.198 Y20.713
X6.192 Y20.725
X5.674 Y21.757
X5.668 Y21.769
X5.171 Y22.831
X5.165 Y22.843
X4.688 Y23.935
X4.683 Y23.946
X4.226 Y25.068
X4.221 Y25.079
X3.784 Y26.23
X3.78 Y26.242
X3.365 Y27.423
X3.361 Y27.434
X2.966 Y28.645
X2.963 Y28.656
X2.589 Y29.897
X2.586 Y29.908
X2.233 Y31.18
X2.231 Y31.19
X1.9 Y32.492
X1.897 Y32.502
X1.588 Y33.834
X1.586 Y33.844
X1.298 Y35.206
X1.296 Y35.216
X1.03 Y36.609
X1.028 Y36.618
X0.783 Y38.041
X0.782 Y38.05
X0.56 Y39.501
G2 X9.293 Y41.58 I4.44 J0.73
G1 X9.307 Y41.523
X9.558 Y40.197
X9.817 Y38.907
X10.083 Y37.648
X10.359 Y36.422
X10.642 Y35.228
X10.934 Y34.066
X11.235 Y32.937
X11.544 Y31.839
X11.863 Y30.774
X12.191 Y29.739
X12.529 Y28.737
X12.877 Y27.765
X13.235 Y26.825
X13.604 Y25.915
X13.984 Y25.036
X14.375 Y24.187
X14.777 Y23.368
X15.192 Y22.578
X15.619 Y21.818
X16.059 Y21.086
X16.513 Y20.382
X16.98 Y19.706
X17.461 Y19.058
X17.956 Y18.436
X18.467 Y17.841
X18.993 Y17.271
X19.535 Y16.727
X20.093 Y16.207
X20.668 Y15.71
X21.26 Y15.238
X21.869 Y14.788
X22.496 Y14.361
X23.142 Y13.955
X23.807 Y13.57
X24.49 Y13.206
X25.193 Y12.862
X25.916 Y12.538
X26.658 Y12.233
X27.42 Y11.946
X28.203 Y11.677
X29.006 Y11.426
X29.829 Y11.192
X30.673 Y10.975
X31.537 Y10.773
X32.421 Y10.587
X33.326 Y10.416
X34.25 Y10.26
X35.194 Y10.117
X36.157 Y9.988
X37.138 Y9.871
X38.138 Y9.766
X39.155 Y9.673
X40.188 Y9.591
X41.237 Y9.518
X42.3 Y9.455
X43.16 Y9.412
Z-1.8 F20
X43.377 Y9.401 F300
X44.466 Y9.355
X45.566 Y9.317
X47.794 Y9.259
X50.049 Y9.222
X52.321 Y9.202
X54.596 Y9.193
X56.866 Y9.191
X59.118 Y9.193
X61.342 Y9.195
X62.44
X63.529 Y9.194
X64.607 Y9.193
X65.672 Y9.19
X66.725 Y9.186
X67.764 Y9.18
X68.79 Y9.174
X69.801 Y9.166
X70.797 Y9.156
X71.779 Y9.146
X72.746 Y9.135
X73.697 Y9.123
X74.634 Y9.11
X75.556 Y9.098
X76.463 Y9.085
X77.355 Y9.073
X78.233 Y9.062
X79.098 Y9.052
X79.948 Y9.043
X80.785 Y9.037
X81.61 Y9.033
X82.422 Y9.031
X83.221 Y9.033
X84.01 Y9.039
X84.786 Y9.049
X85.553 Y9.063
X86.309 Y9.083
X87.056 Y9.108
X87.794 Y9.14
X88.523 Y9.178
X89.244 Y9.223
X89.959 Y9.275
X90.667 Y9.336
X91.369 Y9.405
X92.066 Y9.483
X92.758 Y9.571
X93.447 Y9.669
X94.132 Y9.777
X94.816 Y9.897
X95.497 Y10.027
X96.178 Y10.17
X96.858 Y10.325
X97.538 Y10.493
X98.219 Y10.674
X98.902 Y10.869
X99.587 Y11.078
X100.274 Y11.301
X100.964 Y11.539
X101.658 Y11.791
X102.355 Y12.059
X103.057 Y12.343
X103.762 Y12.642
X104.473 Y12.957
X105.188 Y13.288
X105.908 Y13.635
X106.635 Y14
G2 X110.725 Y5.983 I2.045 J-4.009
G1 X110.72 Y5.98
X109.975 Y5.61
X109.965 Y5.605
X109.211 Y5.253
X109.2 Y5.248
X108.438 Y4.913
X108.428 Y4.908
X107.658 Y4.59
X107.648 Y4.586
X106.871 Y4.285
X106.86 Y4.281
X106.074 Y3.997
X106.064 Y3.993
X105.27 Y3.725
X105.26 Y3.722
X104.458 Y3.471
X104.448 Y3.468
X103.638 Y3.232
X103.628 Y3.229
X102.811 Y3.009
X102.801 Y3.007
X101.975 Y2.802
X101.966 Y2.8
X101.133 Y2.609
X101.124 Y2.607
X100.283 Y2.432
X100.275 Y2.43
X99.426 Y2.268
X99.418 Y2.266
X98.561 Y2.117
X98.553 Y2.116
X97.689 Y1.98
X97.682 Y1.979
X96.81 Y1.855
X96.803 Y1.854
X95.924 Y1.742
X95.917
X95.031 Y1.641
X95.025 Y1.64
X94.131 Y1.549
X94.125
X93.224 Y1.468
X93.219
X92.311 Y1.397
X92.306 Y1.396
X91.39 Y1.334
X91.386
X90.463 Y1.279
X90.457
X88.592 Y1.192
X88.585
X86.694 Y1.13
X86.688 Y1.129
X84.771 Y1.088
X84.766
X82.824 Y1.062
X82.821
X80.855 Y1.048
X80.853
X78.864 Y1.041
X76.853 Y1.037
X74.823 Y1.034
X72.775 Y1.027
X70.71 Y1.014
X68.63 Y0.992
X66.536 Y0.961
X64.429 Y0.92
X62.312 Y0.868
X58.051 Y0.743
X53.772 Y0.613
X53.77
X51.63 Y0.558
X51.627
X49.49 Y0.518
X49.485
X47.355 Y0.5
X47.348
X45.227 Y0.511
X45.221
X44.164 Y0.53
X44.159
X43.106 Y0.558
X43.101 Y0.559
X42.052 Y0.598
X42.046
X41.001 Y0.649
X40.995 Y0.65
X39.954 Y0.713
X39.948 Y0.714
X38.912 Y0.791
X38.905 Y0.792
X37.874 Y0.883
X37.867 Y0.884
X36.842 Y0.991
X36.834 Y0.992
X35.815 Y1.115
X35.807 Y1.116
X34.794 Y1.255
X34.786 Y1.256
X33.78 Y1.413
X33.771 Y1.415
X32.773 Y1.59
X32.763 Y1.592
X31.773 Y1.785
X31.763 Y1.787
X30.781 Y2
X30.771 Y2.003
X29.797 Y2.235
X29.787 Y2.238
X28.822 Y2.491
X28.811 Y2.494
X27.856 Y2.768
X27.845 Y2.772
X26.899 Y3.067
X26.887 Y3.071
X25.952 Y3.388
X25.94 Y3.392
X25.016 Y3.731
X25.004 Y3.736
X24.09 Y4.098
X24.078 Y4.103
X23.175 Y4.488
X23.163 Y4.493
X22.273 Y4.902
X22.26 Y4.908
X21.382 Y5.34
X21.369 Y5.346
X20.503 Y5.803
X20.491 Y5.81
X19.638 Y6.291
X19.626 Y6.298
X18.786 Y6.804
X18.774 Y6.812
X17.948 Y7.344
X17.936 Y7.352
X17.124 Y7.909
X17.112 Y7.918
X16.315 Y8.501
X16.303 Y8.51
X15.52 Y9.119
X15.509 Y9.129
X14.742 Y9.765
X14.73 Y9.775
X13.979 Y10.437
X13.967 Y10.448
X13.232 Y11.138
X13.221 Y11.148
X12.502 Y11.866
X12.492 Y11.877
X11.789 Y12.622
X11.779 Y12.633
X11.094 Y13.406
X11.084 Y13.418
X10.416 Y14.219
X10.407 Y14.23
X9.757 Y15.06
X9.748 Y15.072
X9.116 Y15.93
X9.107 Y15.942
X8.494 Y16.828
X8.485 Y16.84
X7.89 Y17.756
X7.883 Y17.768
X7.307 Y18.712
X7.299 Y18.724
X6.742 Y19.698
X6.736 Y19.71
X6.198 Y20.713
X6.192 Y20.725
X5.674 Y21.757
X5.668 Y21.769
X5.171 Y22.831
X5.165 Y22.843
X4.688 Y23.935
X4.683 Y23.946
X4.226 Y25.068
X4.221 Y25.079
X3.784 Y26.23
X3.78 Y26.242
X3.365 Y27.423
X3.361 Y27.434
X2.966 Y28.645
X2.963 Y28.656
X2.589 Y29.897
X2.586 Y29.908
X2.233 Y31.18
X2.231 Y31.19
X1.9 Y32.492
X1.897 Y32.502
X1.588 Y33.834
X1.586 Y33.844
X1.298 Y35.206
X1.296 Y35.216
X1.03 Y36.609
X1.028 Y36.618
X0.783 Y38.041
X0.782 Y38.05
X0.56 Y39.501
G2 X9.293 Y41.58 I4.44 J0.73
G1 X9.307 Y41.523
X9.558 Y40.197
X9.817 Y38.907
X10.083 Y37.648
X10.359 Y36.422
X10.642 Y35.228
X10.934 Y34.066
X11.235 Y32.937
X11.544 Y31.839
X11.863 Y30.774
X12.191 Y29.739
X12.529 Y28.737
X12.877 Y27.765
X13.235 Y26.825
X13.604 Y25.915
X13.984 Y25.036
X14.375 Y24.187
X14.777 Y23.368
X15.192 Y22.578
X15.619 Y21.818
X16.059 Y21.086
X16.513 Y20.382
X16.98 Y19.706
X17.461 Y19.058
X17.956 Y18.436
X18.467 Y17.841
X18.993 Y17.271
X19.535 Y16.727
X20.093 Y16.207
X20.668 Y15.71
X21.26 Y15.238
X21.869 Y14.788
X22.496 Y14.361
X23.142 Y13.955
X23.807 Y13.57
X24.49 Y13.206
X25.193 Y12.862
X25.916 Y12.538
X26.658 Y12.233
X27.42 Y11.946
X28.203 Y11.677
X29.006 Y11.426
X29.829 Y11.192
X30.673 Y10.975
X31.537 Y10.773
X32.421 Y10.587
X33.326 Y10.416
X34.25 Y10.26
X35.194 Y10.117
X36.157 Y9.988
X37.138 Y9.871
X38.138 Y9.766
X39.155 Y9.673
X40.188 Y9.591
X41.237 Y9.518
X42.3 Y9.455
X43.16 Y9.412
Z-2.4 F20
X43.377 Y9.401 F300
X44.466 Y9.355
X45.566 Y9.317
X47.794 Y9.259
X50.049 Y9.222
X52.321 Y9.202
X54.596 Y9.193
X56.866 Y9.191
X59.118 Y9.193
X61.342 Y9.195
X62.44
X63.529 Y9.194
X64.607 Y9.193
X65.672 Y9.19
X66.725 Y9.186
X67.764 Y9.18
X68.79 Y9.174
X69.801 Y9.166
X70.797 Y9.156
X71.779 Y9.146
X72.746 Y9.135
X73.697 Y9.123
X74.634 Y9.11
X75.556 Y9.098
X76.463 Y9.085
X77.355 Y9.073
X78.233 Y9.062
X79.098 Y9.052
X79.948 Y9.043
X80.785 Y9.037
X81.61 Y9.033
X82.422 Y9.031
X83.221 Y9.033
X84.01 Y9.039
X84.786 Y9.049
X85.553 Y9.063
X86.309 Y9.083
X87.056 Y9.108
X87.794 Y9.14
X88.523 Y9.178
X89.244 Y9.223
X89.959 Y9.275
X90.667 Y9.336
X91.369 Y9.405
X92.066 Y9.483
X92.758 Y9.571
X93.447 Y9.669
X94.132 Y9.777
X94.816 Y9.897
X95.497 Y10.027
X96.178 Y10.17
X96.858 Y10.325
X97.538 Y10.493
X98.219 Y10.674
X98.902 Y10.869
X99.587 Y11.078
X100.274 Y11.301
X100.964 Y11.539
X101.658 Y11.791
X102.355 Y12.059
X103.057 Y12.343
X103.762 Y12.642
X104.473 Y12.957
X105.188 Y13.288
X105.908 Y13.635
X106.635 Y14
G2 X110.725 Y5.983 I2.045 J-4.009
G1 X110.72 Y5.98
X109.975 Y5.61
X109.965 Y5.605
X109.211 Y5.253
X109.2 Y5.248
X108.438 Y4.913
X108.428 Y4.908
X107.658 Y4.59
X107.648 Y4.586
X106.871 Y4.285
X106.86 Y4.281
X106.074 Y3.997
X106.064 Y3.993
X105.27 Y3.725
X105.26 Y3.722
X104.458 Y3.471
X104.448 Y3.468
X103.638 Y3.232
X103.628 Y3.229
X102.811 Y3.009
X102.801 Y3.007
X101.975 Y2.802
X101.966 Y2.8
X101.133 Y2.609
X101.124 Y2.607
X100.283 Y2.432
X100.275 Y2.43
X99.426 Y2.268
X99.418 Y2.266
X98.561 Y2.117
X98.553 Y2.116
X97.689 Y1.98
X97.682 Y1.979
X96.81 Y1.855
X96.803 Y1.854
X95.924 Y1.742
X95.917
X95.031 Y1.641
X95.025 Y1.64
X94.131 Y1.549
X94.125
X93.224 Y1.468
X93.219
X92.311 Y1.397
X92.306 Y1.396
X91.39 Y1.334
X91.386
X90.463 Y1.279
X90.457
X88.592 Y1.192
X88.585
X86.694 Y1.13
X86.688 Y1.129
X84.771 Y1.088
X84.766
X82.824 Y1.062
X82.821
X80.855 Y1.048
X80.853
X78.864 Y1.041
X76.853 Y1.037
X74.823 Y1.034
X72.775 Y1.027
X70.71 Y1.014
X68.63 Y0.992
X66.536 Y0.961
X64.429 Y0.92
X62.312 Y0.868
X58.051 Y0.743
X53.772 Y0.613
X53.77
X51.63 Y0.558
X51.627
X49.49 Y0.518
X49.485
X47.355 Y0.5
X47.348
X45.227 Y0.511
X45.221
X44.164 Y0.53
X44.159
X43.106 Y0.558
X43.101 Y0.559
X42.052 Y0.598
X42.046
X41.001 Y0.649
X40.995 Y0.65
X39.954 Y0.713
X39.948 Y0.714
X38.912 Y0.791
X38.905 Y0.792
X37.874 Y0.883
X37.867 Y0.884
X36.842 Y0.991
X36.834 Y0.992
X35.815 Y1.115
X35.807 Y1.116
X34.794 Y1.255
X34.786 Y1.256
X33.78 Y1.413
X33.771 Y1.415
X32.773 Y1.59
X32.763 Y1.592
X31.773 Y1.785
X31.763 Y1.787
X30.781 Y2
X30.771 Y2.003
X29.797 Y2.235
X29.787 Y2.238
X28.822 Y2.491
X28.811 Y2.494
X27.856 Y2.768
X27.845 Y2.772
X26.899 Y3.067
X26.887 Y3.071
X25.952 Y3.388
X25.94 Y3.392
X25.016 Y3.731
X25.004 Y3.736
X24.09 Y4.098
X24.078 Y4.103
X23.175 Y4.488
X23.163 Y4.493
X22.273 Y4.902
X22.26 Y4.908
X21.382 Y5.34
X21.369 Y5.346
X20.503 Y5.803
X20.491 Y5.81
X19.638 Y6.291
X19.626 Y6.298
X18.786 Y6.804
X18.774 Y6.812
X17.948 Y7.344
X17.936 Y7.352
X17.124 Y7.909
X17.112 Y7.918
X16.315 Y8.501
X16.303 Y8.51
X15.52 Y9.119
X15.509 Y9.129
X14.742 Y9.765
X14.73 Y9.775
X13.979 Y10.437
X13.967 Y10.448
X13.232 Y11.138
X13.221 Y11.148
X12.502 Y11.866
X12.492 Y11.877
X11.789 Y12.622
X11.779 Y12.633
X11.094 Y13.406
X11.084 Y13.418
X10.416 Y14.219
X10.407 Y14.23
X9.757 Y15.06
X9.748 Y15.072
X9.116 Y15.93
X9.107 Y15.942
X8.494 Y16.828
X8.485 Y16.84
X7.89 Y17.756
X7.883 Y17.768
X7.307 Y18.712
X7.299 Y18.724
X6.742 Y19.698
X6.736 Y19.71
X6.198 Y20.713
X6.192 Y20.725
X5.674 Y21.757
X5.668 Y21.769
X5.171 Y22.831
X5.165 Y22.843
X4.688 Y23.935
X4.683 Y23.946
X4.226 Y25.068
X4.221 Y25.079
X3.784 Y26.23
X3.78 Y26.242
X3.365 Y27.423
X3.361 Y27.434
X2.966 Y28.645
X2.963 Y28.656
X2.589 Y29.897
X2.586 Y29.908
X2.233 Y31.18
X2.231 Y31.19
X1.9 Y32.492
X1.897 Y32.502
X1.588 Y33.834
X1.586 Y33.844
X1.298 Y35.206
X1.296 Y35.216
X1.03 Y36.609
X1.028 Y36.618
X0.783 Y38.041
X0.782 Y38.05
X0.56 Y39.501
G2 X9.293 Y41.58 I4.44 J0.73
G1 X9.307 Y41.523
X9.558 Y40.197
X9.817 Y38.907
X10.083 Y37.648
X10.359 Y36.422
X10.642 Y35.228
X10.934 Y34.066
X11.235 Y32.937
X11.544 Y31.839
X11.863 Y30.774
X12.191 Y29.739
X12.529 Y28.737
X12.877 Y27.765
X13.235 Y26.825
X13.604 Y25.915
X13.984 Y25.036
X14.375 Y24.187
X14.777 Y23.368
X15.192 Y22.578
X15.619 Y21.818
X16.059 Y21.086
X16.513 Y20.382
X16.98 Y19.706
X17.461 Y19.058
X17.956 Y18.436
X18.467 Y17.841
X18.993 Y17.271
X19.535 Y16.727
X20.093 Y16.207
X20.668 Y15.71
X21.26 Y15.238
X21.869 Y14.788
X22.496 Y14.361
X23.142 Y13.955
X23.807 Y13.57
X24.49 Y13.206
X25.193 Y12.862
X25.916 Y12.538
X26.658 Y12.233
X27.42 Y11.946
X28.203 Y11.677
X29.006 Y11.426
X29.829 Y11.192
X30.673 Y10.975
X31.537 Y10.773
X32.421 Y10.587
X33.326 Y10.416
X34.25 Y10.26
X35.194 Y10.117
X36.157 Y9.988
X37.138 Y9.871
X38.138 Y9.766
X39.155 Y9.673
X40.188 Y9.591
X41.237 Y9.518
X42.3 Y9.455
X43.16 Y9.412
Z-3 F20
X43.377 Y9.401 F300
X44.466 Y9.355
X45.566 Y9.317
X47.794 Y9.259
X50.049 Y9.222
X52.321 Y9.202
X54.596 Y9.193
X56.866 Y9.191
X59.118 Y9.193
X61.342 Y9.195
X62.44
X63.529 Y9.194
X64.607 Y9.193
X65.672 Y9.19
X66.725 Y9.186
X67.764 Y9.18
X68.79 Y9.174
X69.801 Y9.166
X70.797 Y9.156
X71.779 Y9.146
X72.746 Y9.135
X73.697 Y9.123
X74.634 Y9.11
X75.556 Y9.098
X76.463 Y9.085
X77.355 Y9.073
X78.233 Y9.062
X79.098 Y9.052
X79.948 Y9.043
X80.785 Y9.037
X81.61 Y9.033
X82.422 Y9.031
X83.221 Y9.033
X84.01 Y9.039
X84.786 Y9.049
X85.553 Y9.063
X86.309 Y9.083
X87.056 Y9.108
X87.794 Y9.14
X88.523 Y9.178
X89.244 Y9.223
X89.959 Y9.275
X90.667 Y9.336
X91.369 Y9.405
X92.066 Y9.483
X92.758 Y9.571
X93.447 Y9.669
X94.132 Y9.777
X94.816 Y9.897
X95.497 Y10.027
X96.178 Y10.17
X96.858 Y10.325
X97.538 Y10.493
X98.219 Y10.674
X98.902 Y10.869
X99.587 Y11.078
X100.274 Y11.301
X100.964 Y11.539
X101.658 Y11.791
X102.355 Y12.059
X103.057 Y12.343
X103.762 Y12.642
X104.473 Y12.957
X105.188 Y13.288
X105.908 Y13.635
X106.635 Y14
G2 X110.725 Y5.983 I2.045 J-4.009
G1 X110.72 Y5.98
X109.975 Y5.61
X109.965 Y5.605
X109.211 Y5.253
X109.2 Y5.248
X108.438 Y4.913
X108.428 Y4.908
X107.658 Y4.59
X107.648 Y4.586
X106.871 Y4.285
X106.86 Y4.281
X106.074 Y3.997
X106.064 Y3.993
X105.27 Y3.725
X105.26 Y3.722
X104.458 Y3.471
X104.448 Y3.468
X103.638 Y3.232
X103.628 Y3.229
X102.811 Y3.009
X102.801 Y3.007
X101.975 Y2.802
X101.966 Y2.8
X101.133 Y2.609
X101.124 Y2.607
X100.283 Y2.432
X100.275 Y2.43
X99.426 Y2.268
X99.418 Y2.266
X98.561 Y2.117
X98.553 Y2.116
X97.689 Y1.98
X97.682 Y1.979
X96.81 Y1.855
X96.803 Y1.854
X95.924 Y1.742
X95.917
X95.031 Y1.641
X95.025 Y1.64
X94.131 Y1.549
X94.125
X93.224 Y1.468
X93.219
X92.311 Y1.397
X92.306 Y1.396
X91.39 Y1.334
X91.386
X90.463 Y1.279
X90.457
X88.592 Y1.192
X88.585
X86.694 Y1.13
X86.688 Y1.129
X84.771 Y1.088
X84.766
X82.824 Y1.062
X82.821
X80.855 Y1.048
X80.853
X78.864 Y1.041
X76.853 Y1.037
X74.823 Y1.034
X72.775 Y1.027
X70.71 Y1.014
X68.63 Y0.992
X66.536 Y0.961
X64.429 Y0.92
X62.312 Y0.868
X58.051 Y0.743
X53.772 Y0.613
X53.77
X51.63 Y0.558
X51.627
X49.49 Y0.518
X49.485
X47.355 Y0.5
X47.348
X45.227 Y0.511
X45.221
X44.164 Y0.53
X44.159
X43.106 Y0.558
X43.101 Y0.559
X42.052 Y0.598
X42.046
X41.001 Y0.649
X40.995 Y0.65
X39.954 Y0.713
X39.948 Y0.714
X38.912 Y0.791
X38.905 Y0.792
X37.874 Y0.883
X37.867 Y0.884
X36.842 Y0.991
X36.834 Y0.992
X35.815 Y1.115
X35.807 Y1.116
X34.794 Y1.255
X34.786 Y1.256
X33.78 Y1.413
X33.771 Y1.415
X32.773 Y1.59
X32.763 Y1.592
X31.773 Y1.785
X31.763 Y1.787
X30.781 Y2
X30.771 Y2.003
X29.797 Y2.235
X29.787 Y2.238
X28.822 Y2.491
X28.811 Y2.494
X27.856 Y2.768
X27.845 Y2.772
X26.899 Y3.067
X26.887 Y3.071
X25.952 Y3.388
X25.94 Y3.392
X25.016 Y3.731
X25.004 Y3.736
X24.09 Y4.098
X24.078 Y4.103
X23.175 Y4.488
X23.163 Y4.493
X22.273 Y4.902
X22.26 Y4.908
X21.382 Y5.34
X21.369 Y5.346
X20.503 Y5.803
X20.491 Y5.81
X19.638 Y6.291
X19.626 Y6.298
X18.786 Y6.804
X18.774 Y6.812
X17.948 Y7.344
X17.936 Y7.352
X17.124 Y7.909
X17.112 Y7.918
X16.315 Y8.501
X16.303 Y8.51
X15.52 Y9.119
X15.509 Y9.129
X14.742 Y9.765
X14.73 Y9.775
X13.979 Y10.437
X13.967 Y10.448
X13.232 Y11.138
X13.221 Y11.148
X12.502 Y11.866
X12.492 Y11.877
X11.789 Y12.622
X11.779 Y12.633
X11.094 Y13.406
X11.084 Y13.418
X10.416 Y14.219
X10.407 Y14.23
X9.757 Y15.06
X9.748 Y15.072
X9.116 Y15.93
X9.107 Y15.942
X8.494 Y16.828
X8.485 Y16.84
X7.89 Y17.756
X7.883 Y17.768
X7.307 Y18.712
X7.299 Y18.724
X6.742 Y19.698
X6.736 Y19.71
X6.198 Y20.713
X6.192 Y20.725
X5.674 Y21.757
X5.668 Y21.769
X5.171 Y22.831
X5.165 Y22.843
X4.688 Y23.935
X4.683 Y23.946
X4.226 Y25.068
X4.221 Y25.079
X3.784 Y26.23
X3.78 Y26.242
X3.365 Y27.423
X3.361 Y27.434
X2.966 Y28.645
X2.963 Y28.656
X2.589 Y29.897
X2.586 Y29.908
X2.233 Y31.18
X2.231 Y31.19
X1.9 Y32.492
X1.897 Y32.502
X1.588 Y33.834
X1.586 Y33.844
X1.298 Y35.206
X1.296 Y35.216
X1.03 Y36.609
X1.028 Y36.618
X0.783 Y38.041
X0.782 Y38.05
X0.56 Y39.501
G2 X9.293 Y41.58 I4.44 J0.73
G1 X9.307 Y41.523
X9.558 Y40.197
X9.817 Y38.907
X10.083 Y37.648
X10.359 Y36.422
X10.642 Y35.228
X10.934 Y34.066
X11.235 Y32.937
X11.544 Y31.839
X11.863 Y30.774
X12.191 Y29.739
X12.529 Y28.737
X12.877 Y27.765
X13.235 Y26.825
X13.604 Y25.915
X13.984 Y25.036
X14.375 Y24.187
X14.777 Y23.368
X15.192 Y22.578
X15.619 Y21.818
X16.059 Y21.086
X16.513 Y20.382
X16.98 Y19.706
X17.461 Y19.058
X17.956 Y18.436
X18.467 Y17.841
X18.993 Y17.271
X19.535 Y16.727
X20.093 Y16.207
X20.668 Y15.71
X21.26 Y15.238
X21.869 Y14.788
X22.496 Y14.361
X23.142 Y13.955
X23.807 Y13.57
X24.49 Y13.206
X25.193 Y12.862
X25.916 Y12.538
X26.658 Y12.233
X27.42 Y11.946
X28.203 Y11.677
X29.006 Y11.426
X29.829 Y11.192
X30.673 Y10.975
X31.537 Y10.773
X32.421 Y10.587
X33.326 Y10.416
X34.25 Y10.26
X35.194 Y10.117
X36.157 Y9.988
X37.138 Y9.871
X38.138 Y9.766
X39.155 Y9.673
X40.188 Y9.591
X41.237 Y9.518
X42.3 Y9.455
X43.16 Y9.412
Z-3.6 F20
X43.377 Y9.401 F300
X44.466 Y9.355
X45.566 Y9.317
X47.794 Y9.259
X50.049 Y9.222
X52.321 Y9.202
X54.596 Y9.193
X56.866 Y9.191
X59.118 Y9.193
X61.342 Y9.195
X62.44
X63.529 Y9.194
X64.607 Y9.193
X65.672 Y9.19
X66.725 Y9.186
X67.764 Y9.18
X68.79 Y9.174
X69.801 Y9.166
X70.797 Y9.156
X71.779 Y9.146
X72.746 Y9.135
X73.697 Y9.123
X74.634 Y9.11
X75.556 Y9.098
X76.463 Y9.085
X77.355 Y9.073
X78.233 Y9.062
X79.098 Y9.052
X79.948 Y9.043
X80.785 Y9.037
X81.61 Y9.033
X82.422 Y9.031
X83.221 Y9.033
X84.01 Y9.039
X84.786 Y9.049
X85.553 Y9.063
X86.309 Y9.083
X87.056 Y9.108
X87.794 Y9.14
X88.523 Y9.178
X89.244 Y9.223
X89.959 Y9.275
X90.667 Y9.336
X91.369 Y9.405
X92.066 Y9.483
X92.758 Y9.571
X93.447 Y9.669
X94.132 Y9.777
X94.816 Y9.897
X95.497 Y10.027
X96.178 Y10.17
X96.858 Y10.325
X97.538 Y10.493
X98.219 Y10.674
X98.902 Y10.869
X99.587 Y11.078
X100.274 Y11.301
X100.964 Y11.539
X101.658 Y11.791
X102.355 Y12.059
X103.057 Y12.343
X103.762 Y12.642
X104.473 Y12.957
X105.188 Y13.288
X105.908 Y13.635
X106.635 Y14
G2 X110.725 Y5.983 I2.045 J-4.009
G1 X110.72 Y5.98
X109.975 Y5.61
X109.965 Y5.605
X109.211 Y5.253
X109.2 Y5.248
X108.438 Y4.913
X108.428 Y4.908
X107.658 Y4.59
X107.648 Y4.586
X106.871 Y4.285
X106.86 Y4.281
X106.074 Y3.997
X106.064 Y3.993
X105.27 Y3.725
X105.26 Y3.722
X104.458 Y3.471
X104.448 Y3.468
X103.638 Y3.232
X103.628 Y3.229
X102.811 Y3.009
X102.801 Y3.007
X101.975 Y2.802
X101.966 Y2.8
X101.133 Y2.609
X101.124 Y2.607
X100.283 Y2.432
X100.275 Y2.43
X99.426 Y2.268
X99.418 Y2.266
X98.561 Y2.117
X98.553 Y2.116
X97.689 Y1.98
X97.682 Y1.979
X96.81 Y1.855
X96.803 Y1.854
X95.924 Y1.742
X95.917
X95.031 Y1.641
X95.025 Y1.64
X94.131 Y1.549
X94.125
X93.224 Y1.468
X93.219
X92.311 Y1.397
X92.306 Y1.396
X91.39 Y1.334
X91.386
X90.463 Y1.279
X90.457
X88.592 Y1.192
X88.585
X86.694 Y1.13
X86.688 Y1.129
X84.771 Y1.088
X84.766
X82.824 Y1.062
X82.821
X80.855 Y1.048
X80.853
X78.864 Y1.041
X76.853 Y1.037
X74.823 Y1.034
X72.775 Y1.027
X70.71 Y1.014
X68.63 Y0.992
X66.536 Y0.961
X64.429 Y0.92
X62.312 Y0.868
X58.051 Y0.743
X53.772 Y0.613
X53.77
X51.63 Y0.558
X51.627
X49.49 Y0.518
X49.485
X47.355 Y0.5
X47.348
X45.227 Y0.511
X45.221
X44.164 Y0.53
X44.159
X43.106 Y0.558
X43.101 Y0.559
X42.052 Y0.598
X42.046
X41.001 Y0.649
X40.995 Y0.65
X39.954 Y0.713
X39.948 Y0.714
X38.912 Y0.791
X38.905 Y0.792
X37.874 Y0.883
X37.867 Y0.884
X36.842 Y0.991
X36.834 Y0.992
X35.815 Y1.115
X35.807 Y1.116
X34.794 Y1.255
X34.786 Y1.256
X33.78 Y1.413
X33.771 Y1.415
X32.773 Y1.59
X32.763 Y1.592
X31.773 Y1.785
X31.763 Y1.787
X30.781 Y2
X30.771 Y2.003
X29.797 Y2.235
X29.787 Y2.238
X28.822 Y2.491
X28.811 Y2.494
X27.856 Y2.768
X27.845 Y2.772
X26.899 Y3.067
X26.887 Y3.071
X25.952 Y3.388
X25.94 Y3.392
X25.016 Y3.731
X25.004 Y3.736
X24.09 Y4.098
X24.078 Y4.103
X23.175 Y4.488
X23.163 Y4.493
X22.273 Y4.902
X22.26 Y4.908
X21.382 Y5.34
X21.369 Y5.346
X20.503 Y5.803
X20.491 Y5.81
X19.638 Y6.291
X19.626 Y6.298
X18.786 Y6.804
X18.774 Y6.812
X17.948 Y7.344
X17.936 Y7.352
X17.124 Y7.909
X17.112 Y7.918
X16.315 Y8.501
X16.303 Y8.51
X15.52 Y9.119
X15.509 Y9.129
X14.742 Y9.765
X14.73 Y9.775
X13.979 Y10.437
X13.967 Y10.448
X13.232 Y11.138
X13.221 Y11.148
X12.502 Y11.866
X12.492 Y11.877
X11.789 Y12.622
X11.779 Y12.633
X11.094 Y13.406
X11.084 Y13.418
X10.416 Y14.219
X10.407 Y14.23
X9.757 Y15.06
X9.748 Y15.072
X9.116 Y15.93
X9.107 Y15.942
X8.494 Y16.828
X8.485 Y16.84
X7.89 Y17.756
X7.883 Y17.768
X7.307 Y18.712
X7.299 Y18.724
X6.742 Y19.698
X6.736 Y19.71
X6.198 Y20.713
X6.192 Y20.725
X5.674 Y21.757
X5.668 Y21.769
X5.171 Y22.831
X5.165 Y22.843
X4.688 Y23.935
X4.683 Y23.946
X4.226 Y25.068
X4.221 Y25.079
X3.784 Y26.23
X3.78 Y26.242
X3.365 Y27.423
X3.361 Y27.434
X2.966 Y28.645
X2.963 Y28.656
X2.589 Y29.897
X2.586 Y29.908
X2.233 Y31.18
X2.231 Y31.19
X1.9 Y32.492
X1.897 Y32.502
X1.588 Y33.834
X1.586 Y33.844
X1.298 Y35.206
X1.296 Y35.216
X1.03 Y36.609
X1.028 Y36.618
X0.783 Y38.041
X0.782 Y38.05
X0.56 Y39.501
G2 X9.293 Y41.58 I4.44 J0.73
G1 X9.307 Y41.523
X9.558 Y40.197
X9.817 Y38.907
X10.083 Y37.648
X10.359 Y36.422
X10.642 Y35.228
X10.934 Y34.066
X11.235 Y32.937
X11.544 Y31.839
X11.863 Y30.774
X12.191 Y29.739
X12.529 Y28.737
X12.877 Y27.765
X13.235 Y26.825
X13.604 Y25.915
X13.984 Y25.036
X14.375 Y24.187
X14.777 Y23.368
X15.192 Y22.578
X15.619 Y21.818
X16.059 Y21.086
X16.513 Y20.382
X16.98 Y19.706
X17.461 Y19.058
X17.956 Y18.436
X18.467 Y17.841
X18.993 Y17.271
X19.535 Y16.727
X20.093 Y16.207
X20.668 Y15.71
X21.26 Y15.238
X21.869 Y14.788
X22.496 Y14.361
X23.142 Y13.955
X23.807 Y13.57
X24.49 Y13.206
X25.193 Y12.862
X25.916 Y12.538
X26.658 Y12.233
X27.42 Y11.946
X28.203 Y11.677
X29.006 Y11.426
X29.829 Y11.192
X30.673 Y10.975
X31.537 Y10.773
X32.421 Y10.587
X33.326 Y10.416
X34.25 Y10.26
X35.194 Y10.117
X36.157 Y9.988
X37.138 Y9.871
X38.138 Y9.766
X39.155 Y9.673
X40.188 Y9.591
X41.237 Y9.518
X42.3 Y9.455
X43.16 Y9.412
Z-4.2 F20
X43.377 Y9.401 F300
X44.466 Y9.355
X45.566 Y9.317
X47.794 Y9.259
X50.049 Y9.222
X52.321 Y9.202
X54.596 Y9.193
X56.866 Y9.191
X59.118 Y9.193
X61.342 Y9.195
X62.44
X63.529 Y9.194
X64.607 Y9.193
X65.672 Y9.19
X66.725 Y9.186
X67.764 Y9.18
X68.79 Y9.174
X69.801 Y9.166
X70.797 Y9.156
X71.779 Y9.146
X72.746 Y9.135
X73.697 Y9.123
X74.634 Y9.11
X75.556 Y9.098
X76.463 Y9.085
X77.355 Y9.073
X78.233 Y9.062
X79.098 Y9.052
X79.948 Y9.043
X80.785 Y9.037
X81.61 Y9.033
X82.422 Y9.031
X83.221 Y9.033
X84.01 Y9.039
X84.786 Y9.049
X85.553 Y9.063
X86.309 Y9.083
X87.056 Y9.108
X87.794 Y9.14
X88.523 Y9.178
X89.244 Y9.223
X89.959 Y9.275
X90.667 Y9.336
X91.369 Y9.405
X92.066 Y9.483
X92.758 Y9.571
X93.447 Y9.669
X94.132 Y9.777
X94.816 Y9.897
X95.497 Y10.027
X96.178 Y10.17
X96.858 Y10.325
X97.538 Y10.493
X98.219 Y10.674
X98.902 Y10.869
X99.587 Y11.078
X100.274 Y11.301
X100.964 Y11.539
X101.658 Y11.791
X102.355 Y12.059
X103.057 Y12.343
X103.762 Y12.642
X104.473 Y12.957
X105.188 Y13.288
X105.908 Y13.635
X106.635 Y14
G2 X110.725 Y5.983 I2.045 J-4.009
G1 X110.72 Y5.98
X109.975 Y5.61
X109.965 Y5.605
X109.211 Y5.253
X109.2 Y5.248
X108.438 Y4.913
X108.428 Y4.908
X107.658 Y4.59
X107.648 Y4.586
X106.871 Y4.285
X106.86 Y4.281
X106.074 Y3.997
X106.064 Y3.993
X105.27 Y3.725
X105.26 Y3.722
X104.458 Y3.471
X104.448 Y3.468
X103.638 Y3.232
X103.628 Y3.229
X102.811 Y3.009
X102.801 Y3.007
X101.975 Y2.802
X101.966 Y2.8
X101.133 Y2.609
X101.124 Y2.607
X100.283 Y2.432
X100.275 Y2.43
X99.426 Y2.268
X99.418 Y2.266
X98.561 Y2.117
X98.553 Y2.116
X97.689 Y1.98
X97.682 Y1.979
X96.81 Y1.855
X96.803 Y1.854
X95.924 Y1.742
X95.917
X95.031 Y1.641
X95.025 Y1.64
X94.131 Y1.549
X94.125
X93.224 Y1.468
X93.219
X92.311 Y1.397
X92.306 Y1.396
X91.39 Y1.334
X91.386
X90.463 Y1.279
X90.457
X88.592 Y1.192
X88.585
X86.694 Y1.13
X86.688 Y1.129
X84.771 Y1.088
X84.766
X82.824 Y1.062
X82.821
X80.855 Y1.048
X80.853
X78.864 Y1.041
X76.853 Y1.037
X74.823 Y1.034
X72.775 Y1.027
X70.71 Y1.014
X68.63 Y0.992
X66.536 Y0.961
X64.429 Y0.92
X62.312 Y0.868
X58.051 Y0.743
X53.772 Y0.613
X53.77
X51.63 Y0.558
X51.627
X49.49 Y0.518
X49.485
X47.355 Y0.5
X47.348
X45.227 Y0.511
X45.221
X44.164 Y0.53
X44.159
X43.106 Y0.558
X43.101 Y0.559
X42.052 Y0.598
X42.046
X41.001 Y0.649
X40.995 Y0.65
X39.954 Y0.713
X39.948 Y0.714
X38.912 Y0.791
X38.905 Y0.792
X37.874 Y0.883
X37.867 Y0.884
X36.842 Y0.991
X36.834 Y0.992
X35.815 Y1.115
X35.807 Y1.116
X34.794 Y1.255
X34.786 Y1.256
X33.78 Y1.413
X33.771 Y1.415
X32.773 Y1.59
X32.763 Y1.592
X31.773 Y1.785
X31.763 Y1.787
X30.781 Y2
X30.771 Y2.003
X29.797 Y2.235
X29.787 Y2.238
X28.822 Y2.491
X28.811 Y2.494
X27.856 Y2.768
X27.845 Y2.772
X26.899 Y3.067
X26.887 Y3.071
X25.952 Y3.388
X25.94 Y3.392
X25.016 Y3.731
X25.004 Y3.736
X24.09 Y4.098
X24.078 Y4.103
X23.175 Y4.488
X23.163 Y4.493
X22.273 Y4.902
X22.26 Y4.908
X21.382 Y5.34
X21.369 Y5.346
X20.503 Y5.803
X20.491 Y5.81
X19.638 Y6.291
X19.626 Y6.298
X18.786 Y6.804
X18.774 Y6.812
X17.948 Y7.344
X17.936 Y7.352
X17.124 Y7.909
X17.112 Y7.918
X16.315 Y8.501
X16.303 Y8.51
X15.52 Y9.119
X15.509 Y9.129
X14.742 Y9.765
X14.73 Y9.775
X13.979 Y10.437
X13.967 Y10.448
X13.232 Y11.138
X13.221 Y11.148
X12.502 Y11.866
X12.492 Y11.877
X11.789 Y12.622
X11.779 Y12.633
X11.094 Y13.406
X11.084 Y13.418
X10.416 Y14.219
X10.407 Y14.23
X9.757 Y15.06
X9.748 Y15.072
X9.116 Y15.93
X9.107 Y15.942
X8.494 Y16.828
X8.485 Y16.84
X7.89 Y17.756
X7.883 Y17.768
X7.307 Y18.712
X7.299 Y18.724
X6.742 Y19.698
X6.736 Y19.71
X6.198 Y20.713
X6.192 Y20.725
X5.674 Y21.757
X5.668 Y21.769
X5.171 Y22.831
X5.165 Y22.843
X4.688 Y23.935
X4.683 Y23.946
X4.226 Y25.068
X4.221 Y25.079
X3.784 Y26.23
X3.78 Y26.242
X3.365 Y27.423
X3.361 Y27.434
X2.966 Y28.645
X2.963 Y28.656
X2.589 Y29.897
X2.586 Y29.908
X2.233 Y31.18
X2.231 Y31.19
X1.9 Y32.492
X1.897 Y32.502
X1.588 Y33.834
X1.586 Y33.844
X1.298 Y35.206
X1.296 Y35.216
X1.03 Y36.609
X1.028 Y36.618
X0.783 Y38.041
X0.782 Y38.05
X0.56 Y39.501
G2 X9.293 Y41.58 I4.44 J0.73
G1 X9.307 Y41.523
X9.558 Y40.197
X9.817 Y38.907
X10.083 Y37.648
X10.359 Y36.422
X10.642 Y35.228
X10.934 Y34.066
X11.235 Y32.937
X11.544 Y31.839
X11.863 Y30.774
X12.191 Y29.739
X12.529 Y28.737
X12.877 Y27.765
X13.235 Y26.825
X13.604 Y25.915
X13.984 Y25.036
X14.375 Y24.187
X14.777 Y23.368
X15.192 Y22.578
X15.619 Y21.818
X16.059 Y21.086
X16.513 Y20.382
X16.98 Y19.706
X17.461 Y19.058
X17.956 Y18.436
X18.467 Y17.841
X18.993 Y17.271
X19.535 Y16.727
X20.093 Y16.207
X20.668 Y15.71
X21.26 Y15.238
X21.869 Y14.788
X22.496 Y14.361
X23.142 Y13.955
X23.807 Y13.57
X24.49 Y13.206
X25.193 Y12.862
X25.916 Y12.538
X26.658 Y12.233
X27.42 Y11.946
X28.203 Y11.677
X29.006 Y11.426
X29.829 Y11.192
X30.673 Y10.975
X31.537 Y10.773
X32.421 Y10.587
X33.326 Y10.416
X34.25 Y10.26
X35.194 Y10.117
X36.157 Y9.988
X37.138 Y9.871
X38.138 Y9.766
X39.155 Y9.673
X40.188 Y9.591
X41.237 Y9.518
X42.3 Y9.455
X43.16 Y9.412
Z-4.4 F20
X43.377 Y9.401 F300
X44.466 Y9.355
X45.566 Y9.317
X47.794 Y9.259
X50.049 Y9.222
X52.321 Y9.202
X54.596 Y9.193
X56.866 Y9.191
X59.118 Y9.193
X61.342 Y9.195
X62.44
X63.529 Y9.194
X64.607 Y9.193
X65.672 Y9.19
X66.725 Y9.186
X67.764 Y9.18
X68.79 Y9.174
X69.801 Y9.166
X70.797 Y9.156
X71.779 Y9.146
X72.746 Y9.135
X73.697 Y9.123
X74.634 Y9.11
X75.556 Y9.098
X76.463 Y9.085
X77.355 Y9.073
X78.233 Y9.062
X79.098 Y9.052
X79.948 Y9.043
X80.785 Y9.037
X81.61 Y9.033
X82.422 Y9.031
X83.221 Y9.033
X84.01 Y9.039
X84.786 Y9.049
X85.553 Y9.063
X86.309 Y9.083
X87.056 Y9.108
X87.794 Y9.14
X88.523 Y9.178
X89.244 Y9.223
X89.959 Y9.275
X90.667 Y9.336
X91.369 Y9.405
X92.066 Y9.483
X92.758 Y9.571
X93.447 Y9.669
X94.132 Y9.777
X94.816 Y9.897
X95.497 Y10.027
X96.178 Y10.17
X96.858 Y10.325
X97.538 Y10.493
X98.219 Y10.674
X98.902 Y10.869
X99.587 Y11.078
X100.274 Y11.301
X100.964 Y11.539
X101.658 Y11.791
X102.355 Y12.059
X103.057 Y12.343
X103.762 Y12.642
X104.473 Y12.957
X105.188 Y13.288
X105.908 Y13.635
X106.635 Y14
G2 X110.725 Y5.983 I2.045 J-4.009
G1 X110.72 Y5.98
X109.975 Y5.61
X109.965 Y5.605
X109.211 Y5.253
X109.2 Y5.248
X108.438 Y4.913
X108.428 Y4.908
X107.658 Y4.59
X107.648 Y4.586
X106.871 Y4.285
X106.86 Y4.281
X106.074 Y3.997
X106.064 Y3.993
X105.27 Y3.725
X105.26 Y3.722
X104.458 Y3.471
X104.448 Y3.468
X103.638 Y3.232
X103.628 Y3.229
X102.811 Y3.009
X102.801 Y3.007
X101.975 Y2.802
X101.966 Y2.8
X101.133 Y2.609
X101.124 Y2.607
X100.283 Y2.432
X100.275 Y2.43
X99.426 Y2.268
X99.418 Y2.266
X98.561 Y2.117
X98.553 Y2.116
X97.689 Y1.98
X97.682 Y1.979
X96.81 Y1.855
X96.803 Y1.854
X95.924 Y1.742
X95.917
X95.031 Y1.641
X95.025 Y1.64
X94.131 Y1.549
X94.125
X93.224 Y1.468
X93.219
X92.311 Y1.397
X92.306 Y1.396
X91.39 Y1.334
X91.386
X90.463 Y1.279
X90.457
X88.592 Y1.192
X88.585
X86.694 Y1.13
X86.688 Y1.129
X84.771 Y1.088
X84.766
X82.824 Y1.062
X82.821
X80.855 Y1.048
X80.853
X78.864 Y1.041
X76.853 Y1.037
X74.823 Y1.034
X72.775 Y1.027
X70.71 Y1.014
X68.63 Y0.992
X66.536 Y0.961
X64.429 Y0.92
X62.312 Y0.868
X58.051 Y0.743
X53.772 Y0.613
X53.77
X51.63 Y0.558
X51.627
X49.49 Y0.518
X49.485
X47.355 Y0.5
X47.348
X45.227 Y0.511
X45.221
X44.164 Y0.53
X44.159
X43.106 Y0.558
X43.101 Y0.559
X42.052 Y0.598
X42.046
X41.001 Y0.649
X40.995 Y0.65
X39.954 Y0.713
X39.948 Y0.714
X38.912 Y0.791
X38.905 Y0.792
X37.874 Y0.883
X37.867 Y0.884
X36.842 Y0.991
X36.834 Y0.992
X35.815 Y1.115
X35.807 Y1.116
X34.794 Y1.255
X34.786 Y1.256
X33.78 Y1.413
X33.771 Y1.415
X32.773 Y1.59
X32.763 Y1.592
X31.773 Y1.785
X31.763 Y1.787
X30.781 Y2
X30.771 Y2.003
X29.797 Y2.235
X29.787 Y2.238
X28.822 Y2.491
X28.811 Y2.494
X27.856 Y2.768
X27.845 Y2.772
X26.899 Y3.067
X26.887 Y3.071
X25.952 Y3.388
X25.94 Y3.392
X25.016 Y3.731
X25.004 Y3.736
X24.09 Y4.098
X24.078 Y4.103
X23.175 Y4.488
X23.163 Y4.493
X22.273 Y4.902
X22.26 Y4.908
X21.382 Y5.34
X21.369 Y5.346
X20.503 Y5.803
X20.491 Y5.81
X19.638 Y6.291
X19.626 Y6.298
X18.786 Y6.804
X18.774 Y6.812
X17.948 Y7.344
X17.936 Y7.352
X17.124 Y7.909
X17.112 Y7.918
X16.315 Y8.501
X16.303 Y8.51
X15.52 Y9.119
X15.509 Y9.129
X14.742 Y9.765
X14.73 Y9.775
X13.979 Y10.437
X13.967 Y10.448
X13.232 Y11.138
X13.221 Y11.148
X12.502 Y11.866
X12.492 Y11.877
X11.789 Y12.622
X11.779 Y12.633
X11.094 Y13.406
X11.084 Y13.418
X10.416 Y14.219
X10.407 Y14.23
X9.757 Y15.06
X9.748 Y15.072
X9.116 Y15.93
X9.107 Y15.942
X8.494 Y16.828
X8.485 Y16.84
X7.89 Y17.756
X7.883 Y17.768
X7.307 Y18.712
X7.299 Y18.724
X6.742 Y19.698
X6.736 Y19.71
X6.198 Y20.713
X6.192 Y20.725
X5.674 Y21.757
X5.668 Y21.769
X5.171 Y22.831
X5.165 Y22.843
X4.688 Y23.935
X4.683 Y23.946
X4.226 Y25.068
X4.221 Y25.079
X3.784 Y26.23
X3.78 Y26.242
X3.365 Y27.423
X3.361 Y27.434
X2.966 Y28.645
X2.963 Y28.656
X2.589 Y29.897
X2.586 Y29.908
X2.233 Y31.18
X2.231 Y31.19
X1.9 Y32.492
X1.897 Y32.502
X1.588 Y33.834
X1.586 Y33.844
X1.298 Y35.206
X1.296 Y35.216
X1.03 Y36.609
X1.028 Y36.618
X0.783 Y38.041
X0.782 Y38.05
X0.56 Y39.501
G2 X9.293 Y41.58 I4.44 J0.73
G1 X9.307 Y41.523
X9.558 Y40.197
X9.817 Y38.907
X10.083 Y37.648
X10.359 Y36.422
X10.642 Y35.228
X10.934 Y34.066
X11.235 Y32.937
X11.544 Y31.839
X11.863 Y30.774
X12.191 Y29.739
X12.529 Y28.737
X12.877 Y27.765
X13.235 Y26.825
X13.604 Y25.915
X13.984 Y25.036
X14.375 Y24.187
X14.777 Y23.368
X15.192 Y22.578
X15.619 Y21.818
X16.059 Y21.086
X16.513 Y20.382
X16.98 Y19.706
X17.461 Y19.058
X17.956 Y18.436
X18.467 Y17.841
X18.993 Y17.271
X19.535 Y16.727
X20.093 Y16.207
X20.668 Y15.71
X21.26 Y15.238
X21.869 Y14.788
X22.496 Y14.361
X23.142 Y13.955
X23.807 Y13.57
X24.49 Y13.206
X25.193 Y12.862
X25.916 Y12.538
X26.658 Y12.233
X27.42 Y11.946
X28.203 Y11.677
X29.006 Y11.426
X29.829 Y11.192
X30.673 Y10.975
X31.537 Y10.773
X32.421 Y10.587
X33.326 Y10.416
X34.25 Y10.26
X35.194 Y10.117
X36.157 Y9.988
X37.138 Y9.871
X38.138 Y9.766
X39.155 Y9.673
X40.188 Y9.591
X41.237 Y9.518
X42.3 Y9.455
X43.16 Y9.412
Z3
M5
M30
