(1DOF)
(T1  D=2 CR=0 - ZMIN=-3.25 - flat end mill)
G90 G94
G17
G21
G28 G91 Z0
G90

(Circular3)
S20000 M3
G54
M8
G0 X150.786 Y63.1
Z4.05
Z1.55
G1 Z-0.25 F100
Y63.093 Z-0.302
Y63.073 Z-0.35
Y63.041 Z-0.391
Y63 Z-0.423
Y62.952 Z-0.443
Y62.9 Z-0.45
Y62.8
G3 X150.986 Y62.6 I0.2 J0
X150.986 Y63.4 I0 J0.4
X150.986 Y62.6 I0 J-0.4
X151.186 Y62.8 I0 J0.2
G1 Y62.9
Y62.952 Z-0.443
Y63 Z-0.423
Y63.041 Z-0.391
Y63.073 Z-0.35
Y63.093 Z-0.302
Y63.1 Z-0.25
G0 Z2.05
X150.786
Z1.05
G1 Z-0.75 F100
Y63.093 Z-0.802
Y63.073 Z-0.85
Y63.041 Z-0.891
Y63 Z-0.923
Y62.952 Z-0.943
Y62.9 Z-0.95
Y62.8
G3 X150.986 Y62.6 I0.2 J0
X150.986 Y63.4 I0 J0.4
X150.986 Y62.6 I0 J-0.4
X151.186 Y62.8 I0 J0.2
G1 Y62.9
Y62.952 Z-0.943
Y63 Z-0.923
Y63.041 Z-0.891
Y63.073 Z-0.85
Y63.093 Z-0.802
Y63.1 Z-0.75
G0 Z2.05
X150.786
Z0.55
G1 Z-1.25 F100
Y63.093 Z-1.302
Y63.073 Z-1.35
Y63.041 Z-1.391
Y63 Z-1.423
Y62.952 Z-1.443
Y62.9 Z-1.45
Y62.8
G3 X150.986 Y62.6 I0.2 J0
X150.986 Y63.4 I0 J0.4
X150.986 Y62.6 I0 J-0.4
X151.186 Y62.8 I0 J0.2
G1 Y62.9
Y62.952 Z-1.443
Y63 Z-1.423
Y63.041 Z-1.391
Y63.073 Z-1.35
Y63.093 Z-1.302
Y63.1 Z-1.25
G0 Z2.05
X150.786
Z0.05
G1 Z-1.75 F100
Y63.093 Z-1.802
Y63.073 Z-1.85
Y63.041 Z-1.891
Y63 Z-1.923
Y62.952 Z-1.943
Y62.9 Z-1.95
Y62.8
G3 X150.986 Y62.6 I0.2 J0
X150.986 Y63.4 I0 J0.4
X150.986 Y62.6 I0 J-0.4
X151.186 Y62.8 I0 J0.2
G1 Y62.9
Y62.952 Z-1.943
Y63 Z-1.923
Y63.041 Z-1.891
Y63.073 Z-1.85
Y63.093 Z-1.802
Y63.1 Z-1.75
G0 Z2.05
X150.786
Z-0.45
G1 Z-2.25 F100
Y63.093 Z-2.302
Y63.073 Z-2.35
Y63.041 Z-2.391
Y63 Z-2.423
Y62.952 Z-2.443
Y62.9 Z-2.45
Y62.8
G3 X150.986 Y62.6 I0.2 J0
X150.986 Y63.4 I0 J0.4
X150.986 Y62.6 I0 J-0.4
X151.186 Y62.8 I0 J0.2
G1 Y62.9
Y62.952 Z-2.443
Y63 Z-2.423
Y63.041 Z-2.391
Y63.073 Z-2.35
Y63.093 Z-2.302
Y63.1 Z-2.25
G0 Z2.05
X150.786
Z-0.85
G1 Z-2.65 F100
Y63.093 Z-2.702
Y63.073 Z-2.75
Y63.041 Z-2.791
Y63 Z-2.823
Y62.952 Z-2.843
Y62.9 Z-2.85
Y62.8
G3 X150.986 Y62.6 I0.2 J0
X150.986 Y63.4 I0 J0.4
X150.986 Y62.6 I0 J-0.4
X151.186 Y62.8 I0 J0.2
G1 Y62.9
Y62.952 Z-2.843
Y63 Z-2.823
Y63.041 Z-2.791
Y63.073 Z-2.75
Y63.093 Z-2.702
Y63.1 Z-2.65
G0 Z2.05
X150.786
Z-1.25
G1 Z-3.05 F100
Y63.093 Z-3.102
Y63.073 Z-3.15
Y63.041 Z-3.191
Y63 Z-3.223
Y62.952 Z-3.243
Y62.9 Z-3.25
Y62.8
G3 X150.986 Y62.6 I0.2 J0
X150.986 Y63.4 I0 J0.4
X150.986 Y62.6 I0 J-0.4
X151.186 Y62.8 I0 J0.2
G1 Y62.9
Y62.952 Z-3.243
Y63 Z-3.223
Y63.041 Z-3.191
Y63.073 Z-3.15
Y63.093 Z-3.102
Y63.1 Z-3.05
G0 Z2.05
X170.796 Y43.11
Z1.55
G1 Z-0.25 F100
Y43.103 Z-0.302
Y43.083 Z-0.35
Y43.052 Z-0.391
Y43.01 Z-0.423
Y42.962 Z-0.443
X170.797 Y42.91 Z-0.45
Y42.81
G3 X170.997 Y42.61 I0.2 J0
X170.996 Y43.41 I0 J0.4
X170.997 Y42.61 I0 J-0.4
X171.197 Y42.81 I0 J0.2
G1 Y42.91
X171.196 Y42.962 Z-0.443
Y43.01 Z-0.423
Y43.052 Z-0.391
Y43.084 Z-0.35
Y43.104 Z-0.302
Y43.11 Z-0.25
G0 Z2.05
X170.796
Z1.05
G1 Z-0.75 F100
Y43.103 Z-0.802
Y43.083 Z-0.85
Y43.052 Z-0.891
Y43.01 Z-0.923
Y42.962 Z-0.943
X170.797 Y42.91 Z-0.95
Y42.81
G3 X170.997 Y42.61 I0.2 J0
X170.996 Y43.41 I0 J0.4
X170.997 Y42.61 I0 J-0.4
X171.197 Y42.81 I0 J0.2
G1 Y42.91
X171.196 Y42.962 Z-0.943
Y43.01 Z-0.923
Y43.052 Z-0.891
Y43.084 Z-0.85
Y43.104 Z-0.802
Y43.11 Z-0.75
G0 Z2.05
X170.796
Z0.55
G1 Z-1.25 F100
Y43.103 Z-1.302
Y43.083 Z-1.35
Y43.052 Z-1.391
Y43.01 Z-1.423
Y42.962 Z-1.443
X170.797 Y42.91 Z-1.45
Y42.81
G3 X170.997 Y42.61 I0.2 J0
X170.996 Y43.41 I0 J0.4
X170.997 Y42.61 I0 J-0.4
X171.197 Y42.81 I0 J0.2
G1 Y42.91
X171.196 Y42.962 Z-1.443
Y43.01 Z-1.423
Y43.052 Z-1.391
Y43.084 Z-1.35
Y43.104 Z-1.302
Y43.11 Z-1.25
G0 Z2.05
X170.796
Z0.05
G1 Z-1.75 F100
Y43.103 Z-1.802
Y43.083 Z-1.85
Y43.052 Z-1.891
Y43.01 Z-1.923
Y42.962 Z-1.943
X170.797 Y42.91 Z-1.95
Y42.81
G3 X170.997 Y42.61 I0.2 J0
X170.996 Y43.41 I0 J0.4
X170.997 Y42.61 I0 J-0.4
X171.197 Y42.81 I0 J0.2
G1 Y42.91
X171.196 Y42.962 Z-1.943
Y43.01 Z-1.923
Y43.052 Z-1.891
Y43.084 Z-1.85
Y43.104 Z-1.802
Y43.11 Z-1.75
G0 Z2.05
X170.796
Z-0.45
G1 Z-2.25 F100
Y43.103 Z-2.302
Y43.083 Z-2.35
Y43.052 Z-2.391
Y43.01 Z-2.423
Y42.962 Z-2.443
X170.797 Y42.91 Z-2.45
Y42.81
G3 X170.997 Y42.61 I0.2 J0
X170.996 Y43.41 I0 J0.4
X170.997 Y42.61 I0 J-0.4
X171.197 Y42.81 I0 J0.2
G1 Y42.91
X171.196 Y42.962 Z-2.443
Y43.01 Z-2.423
Y43.052 Z-2.391
Y43.084 Z-2.35
Y43.104 Z-2.302
Y43.11 Z-2.25
G0 Z2.05
X170.796
Z-0.85
G1 Z-2.65 F100
Y43.103 Z-2.702
Y43.083 Z-2.75
Y43.052 Z-2.791
Y43.01 Z-2.823
Y42.962 Z-2.843
X170.797 Y42.91 Z-2.85
Y42.81
G3 X170.997 Y42.61 I0.2 J0
X170.996 Y43.41 I0 J0.4
X170.997 Y42.61 I0 J-0.4
X171.197 Y42.81 I0 J0.2
G1 Y42.91
X171.196 Y42.962 Z-2.843
Y43.01 Z-2.823
Y43.052 Z-2.791
Y43.084 Z-2.75
Y43.104 Z-2.702
Y43.11 Z-2.65
G0 Z2.05
X170.796
Z-1.25
G1 Z-3.05 F100
Y43.103 Z-3.102
Y43.083 Z-3.15
Y43.052 Z-3.191
Y43.01 Z-3.223
Y42.962 Z-3.243
X170.797 Y42.91 Z-3.25
Y42.81
G3 X170.997 Y42.61 I0.2 J0
X170.996 Y43.41 I0 J0.4
X170.997 Y42.61 I0 J-0.4
X171.197 Y42.81 I0 J0.2
G1 Y42.91
X171.196 Y42.962 Z-3.243
Y43.01 Z-3.223
Y43.052 Z-3.191
Y43.084 Z-3.15
Y43.104 Z-3.102
Y43.11 Z-3.05
G0 Z2.05
X150.812 Y13.1
Z1.55
G1 Z-0.25 F100
Y13.093 Z-0.302
Y13.073 Z-0.35
Y13.041 Z-0.391
Y13 Z-0.423
Y12.952 Z-0.443
Y12.9 Z-0.45
Y12.8
G3 X151.012 Y12.6 I0.2 J0
X151.012 Y13.4 I0 J0.4
X151.012 Y12.6 I0 J-0.4
X151.212 Y12.8 I0 J0.2
G1 Y12.9
Y12.952 Z-0.443
Y13 Z-0.423
Y13.041 Z-0.391
Y13.073 Z-0.35
Y13.093 Z-0.302
Y13.1 Z-0.25
G0 Z2.05
X150.812
Z1.05
G1 Z-0.75 F100
Y13.093 Z-0.802
Y13.073 Z-0.85
Y13.041 Z-0.891
Y13 Z-0.923
Y12.952 Z-0.943
Y12.9 Z-0.95
Y12.8
G3 X151.012 Y12.6 I0.2 J0
X151.012 Y13.4 I0 J0.4
X151.012 Y12.6 I0 J-0.4
X151.212 Y12.8 I0 J0.2
G1 Y12.9
Y12.952 Z-0.943
Y13 Z-0.923
Y13.041 Z-0.891
Y13.073 Z-0.85
Y13.093 Z-0.802
Y13.1 Z-0.75
G0 Z2.05
X150.812
Z0.55
G1 Z-1.25 F100
Y13.093 Z-1.302
Y13.073 Z-1.35
Y13.041 Z-1.391
Y13 Z-1.423
Y12.952 Z-1.443
Y12.9 Z-1.45
Y12.8
G3 X151.012 Y12.6 I0.2 J0
X151.012 Y13.4 I0 J0.4
X151.012 Y12.6 I0 J-0.4
X151.212 Y12.8 I0 J0.2
G1 Y12.9
Y12.952 Z-1.443
Y13 Z-1.423
Y13.041 Z-1.391
Y13.073 Z-1.35
Y13.093 Z-1.302
Y13.1 Z-1.25
G0 Z2.05
X150.812
Z0.05
G1 Z-1.75 F100
Y13.093 Z-1.802
Y13.073 Z-1.85
Y13.041 Z-1.891
Y13 Z-1.923
Y12.952 Z-1.943
Y12.9 Z-1.95
Y12.8
G3 X151.012 Y12.6 I0.2 J0
X151.012 Y13.4 I0 J0.4
X151.012 Y12.6 I0 J-0.4
X151.212 Y12.8 I0 J0.2
G1 Y12.9
Y12.952 Z-1.943
Y13 Z-1.923
Y13.041 Z-1.891
Y13.073 Z-1.85
Y13.093 Z-1.802
Y13.1 Z-1.75
G0 Z2.05
X150.812
Z-0.45
G1 Z-2.25 F100
Y13.093 Z-2.302
Y13.073 Z-2.35
Y13.041 Z-2.391
Y13 Z-2.423
Y12.952 Z-2.443
Y12.9 Z-2.45
Y12.8
G3 X151.012 Y12.6 I0.2 J0
X151.012 Y13.4 I0 J0.4
X151.012 Y12.6 I0 J-0.4
X151.212 Y12.8 I0 J0.2
G1 Y12.9
Y12.952 Z-2.443
Y13 Z-2.423
Y13.041 Z-2.391
Y13.073 Z-2.35
Y13.093 Z-2.302
Y13.1 Z-2.25
G0 Z2.05
X150.812
Z-0.85
G1 Z-2.65 F100
Y13.093 Z-2.702
Y13.073 Z-2.75
Y13.041 Z-2.791
Y13 Z-2.823
Y12.952 Z-2.843
Y12.9 Z-2.85
Y12.8
G3 X151.012 Y12.6 I0.2 J0
X151.012 Y13.4 I0 J0.4
X151.012 Y12.6 I0 J-0.4
X151.212 Y12.8 I0 J0.2
G1 Y12.9
Y12.952 Z-2.843
Y13 Z-2.823
Y13.041 Z-2.791
Y13.073 Z-2.75
Y13.093 Z-2.702
Y13.1 Z-2.65
G0 Z2.05
X150.812
Z-1.25
G1 Z-3.05 F100
Y13.093 Z-3.102
Y13.073 Z-3.15
Y13.041 Z-3.191
Y13 Z-3.223
Y12.952 Z-3.243
Y12.9 Z-3.25
Y12.8
G3 X151.012 Y12.6 I0.2 J0
X151.012 Y13.4 I0 J0.4
X151.012 Y12.6 I0 J-0.4
X151.212 Y12.8 I0 J0.2
G1 Y12.9
Y12.952 Z-3.243
Y13 Z-3.223
Y13.041 Z-3.191
Y13.073 Z-3.15
Y13.093 Z-3.102
Y13.1 Z-3.05
G0 Z2.05
X160.05 Y0.227
Z1.55
G1 Z-0.25 F100
G18 G3 X159.85 Z-0.45 I-0.2 K0
G1 X159.75
G17 G3 X159.55 Y0.027 I0 J-0.2
X160.45 Y0.027 I0.45 J0
X159.55 Y0.027 I-0.45 J0
X159.75 Y-0.173 I0.2 J0
G1 X159.85
G18 G2 X160.05 Z-0.25 I0 K0.2
G0 Z2.05
Y0.227
Z1.05
G1 Z-0.75 F100
G3 X159.85 Z-0.95 I-0.2 K0
G1 X159.75
G17 G3 X159.55 Y0.027 I0 J-0.2
X160.45 Y0.027 I0.45 J0
X159.55 Y0.027 I-0.45 J0
X159.75 Y-0.173 I0.2 J0
G1 X159.85
G18 G2 X160.05 Z-0.75 I0 K0.2
G0 Z2.05
Y0.227
Z0.55
G1 Z-1.25 F100
G3 X159.85 Z-1.45 I-0.2 K0
G1 X159.75
G17 G3 X159.55 Y0.027 I0 J-0.2
X160.45 Y0.027 I0.45 J0
X159.55 Y0.027 I-0.45 J0
X159.75 Y-0.173 I0.2 J0
G1 X159.85
G18 G2 X160.05 Z-1.25 I0 K0.2
G0 Z2.05
Y0.227
Z0.05
G1 Z-1.75 F100
G3 X159.85 Z-1.95 I-0.2 K0
G1 X159.75
G17 G3 X159.55 Y0.027 I0 J-0.2
X160.45 Y0.027 I0.45 J0
X159.55 Y0.027 I-0.45 J0
X159.75 Y-0.173 I0.2 J0
G1 X159.85
G18 G2 X160.05 Z-1.75 I0 K0.2
G0 Z2.05
Y0.227
Z-0.45
G1 Z-2.25 F100
G3 X159.85 Z-2.45 I-0.2 K0
G1 X159.75
G17 G3 X159.55 Y0.027 I0 J-0.2
X160.45 Y0.027 I0.45 J0
X159.55 Y0.027 I-0.45 J0
X159.75 Y-0.173 I0.2 J0
G1 X159.85
G18 G2 X160.05 Z-2.25 I0 K0.2
G0 Z2.05
Y0.227
Z-0.85
G1 Z-2.65 F100
G3 X159.85 Z-2.85 I-0.2 K0
G1 X159.75
G17 G3 X159.55 Y0.027 I0 J-0.2
X160.45 Y0.027 I0.45 J0
X159.55 Y0.027 I-0.45 J0
X159.75 Y-0.173 I0.2 J0
G1 X159.85
G18 G2 X160.05 Z-2.65 I0 K0.2
G0 Z2.05
Y0.227
Z-1.25
G1 Z-3.05 F100
G3 X159.85 Z-3.25 I-0.2 K0
G1 X159.75
G17 G3 X159.55 Y0.027 I0 J-0.2
X160.45 Y0.027 I0.45 J0
X159.55 Y0.027 I-0.45 J0
X159.75 Y-0.173 I0.2 J0
G1 X159.85
G18 G2 X160.05 Z-3.05 I0 K0.2
G0 Z2.05
X145.202 Y-12.098
Z1.55
G1 Z-0.25 F100
Y-12.091 Z-0.302
Y-12.071 Z-0.35
Y-12.04 Z-0.391
Y-11.998 Z-0.423
Y-11.95 Z-0.443
Y-11.898 Z-0.45
Y-11.798
G17 G3 X145.002 Y-11.598 I-0.2 J0
X145.003 Y-12.398 I0 J-0.4
X145.002 Y-11.598 I0 J0.4
X144.802 Y-11.798 I0 J-0.2
G1 Y-11.898
Y-11.95 Z-0.443
Y-11.998 Z-0.423
Y-12.04 Z-0.391
Y-12.072 Z-0.35
Y-12.092 Z-0.302
Y-12.098 Z-0.25
G0 Z2.05
X145.202
Z1.05
G1 Z-0.75 F100
Y-12.091 Z-0.802
Y-12.071 Z-0.85
Y-12.04 Z-0.891
Y-11.998 Z-0.923
Y-11.95 Z-0.943
Y-11.898 Z-0.95
Y-11.798
G3 X145.002 Y-11.598 I-0.2 J0
X145.003 Y-12.398 I0 J-0.4
X145.002 Y-11.598 I0 J0.4
X144.802 Y-11.798 I0 J-0.2
G1 Y-11.898
Y-11.95 Z-0.943
Y-11.998 Z-0.923
Y-12.04 Z-0.891
Y-12.072 Z-0.85
Y-12.092 Z-0.802
Y-12.098 Z-0.75
G0 Z2.05
X145.202
Z0.55
G1 Z-1.25 F100
Y-12.091 Z-1.302
Y-12.071 Z-1.35
Y-12.04 Z-1.391
Y-11.998 Z-1.423
Y-11.95 Z-1.443
Y-11.898 Z-1.45
Y-11.798
G3 X145.002 Y-11.598 I-0.2 J0
X145.003 Y-12.398 I0 J-0.4
X145.002 Y-11.598 I0 J0.4
X144.802 Y-11.798 I0 J-0.2
G1 Y-11.898
Y-11.95 Z-1.443
Y-11.998 Z-1.423
Y-12.04 Z-1.391
Y-12.072 Z-1.35
Y-12.092 Z-1.302
Y-12.098 Z-1.25
G0 Z2.05
X145.202
Z0.05
G1 Z-1.75 F100
Y-12.091 Z-1.802
Y-12.071 Z-1.85
Y-12.04 Z-1.891
Y-11.998 Z-1.923
Y-11.95 Z-1.943
Y-11.898 Z-1.95
Y-11.798
G3 X145.002 Y-11.598 I-0.2 J0
X145.003 Y-12.398 I0 J-0.4
X145.002 Y-11.598 I0 J0.4
X144.802 Y-11.798 I0 J-0.2
G1 Y-11.898
Y-11.95 Z-1.943
Y-11.998 Z-1.923
Y-12.04 Z-1.891
Y-12.072 Z-1.85
Y-12.092 Z-1.802
Y-12.098 Z-1.75
G0 Z2.05
X145.202
Z-0.45
G1 Z-2.25 F100
Y-12.091 Z-2.302
Y-12.071 Z-2.35
Y-12.04 Z-2.391
Y-11.998 Z-2.423
Y-11.95 Z-2.443
Y-11.898 Z-2.45
Y-11.798
G3 X145.002 Y-11.598 I-0.2 J0
X145.003 Y-12.398 I0 J-0.4
X145.002 Y-11.598 I0 J0.4
X144.802 Y-11.798 I0 J-0.2
G1 Y-11.898
Y-11.95 Z-2.443
Y-11.998 Z-2.423
Y-12.04 Z-2.391
Y-12.072 Z-2.35
Y-12.092 Z-2.302
Y-12.098 Z-2.25
G0 Z2.05
X145.202
Z-0.85
G1 Z-2.65 F100
Y-12.091 Z-2.702
Y-12.071 Z-2.75
Y-12.04 Z-2.791
Y-11.998 Z-2.823
Y-11.95 Z-2.843
Y-11.898 Z-2.85
Y-11.798
G3 X145.002 Y-11.598 I-0.2 J0
X145.003 Y-12.398 I0 J-0.4
X145.002 Y-11.598 I0 J0.4
X144.802 Y-11.798 I0 J-0.2
G1 Y-11.898
Y-11.95 Z-2.843
Y-11.998 Z-2.823
Y-12.04 Z-2.791
Y-12.072 Z-2.75
Y-12.092 Z-2.702
Y-12.098 Z-2.65
G0 Z2.05
X145.202
Z-1.25
G1 Z-3.05 F100
Y-12.091 Z-3.102
Y-12.071 Z-3.15
Y-12.04 Z-3.191
Y-11.998 Z-3.223
Y-11.95 Z-3.243
Y-11.898 Z-3.25
Y-11.798
G3 X145.002 Y-11.598 I-0.2 J0
X145.003 Y-12.398 I0 J-0.4
X145.002 Y-11.598 I0 J0.4
X144.802 Y-11.798 I0 J-0.2
G1 Y-11.898
Y-11.95 Z-3.243
Y-11.998 Z-3.223
Y-12.04 Z-3.191
Y-12.072 Z-3.15
Y-12.092 Z-3.102
Y-12.098 Z-3.05
G0 Z2.05
X165.218 Y-42.088
Z1.55
G1 Z-0.25 F100
Y-42.081 Z-0.302
Y-42.061 Z-0.35
Y-42.029 Z-0.391
Y-41.988 Z-0.423
Y-41.94 Z-0.443
Y-41.888 Z-0.45
Y-41.788
G3 X165.018 Y-41.588 I-0.2 J0
X165.018 Y-42.388 I0 J-0.4
X165.018 Y-41.588 I0 J0.4
X164.818 Y-41.788 I0 J-0.2
G1 Y-41.888
Y-41.94 Z-0.443
Y-41.988 Z-0.423
Y-42.03 Z-0.391
Y-42.061 Z-0.35
Y-42.081 Z-0.302
Y-42.088 Z-0.25
G0 Z2.05
X165.218
Z1.05
G1 Z-0.75 F100
Y-42.081 Z-0.802
Y-42.061 Z-0.85
Y-42.029 Z-0.891
Y-41.988 Z-0.923
Y-41.94 Z-0.943
Y-41.888 Z-0.95
Y-41.788
G3 X165.018 Y-41.588 I-0.2 J0
X165.018 Y-42.388 I0 J-0.4
X165.018 Y-41.588 I0 J0.4
X164.818 Y-41.788 I0 J-0.2
G1 Y-41.888
Y-41.94 Z-0.943
Y-41.988 Z-0.923
Y-42.03 Z-0.891
Y-42.061 Z-0.85
Y-42.081 Z-0.802
Y-42.088 Z-0.75
G0 Z2.05
X165.218
Z0.55
G1 Z-1.25 F100
Y-42.081 Z-1.302
Y-42.061 Z-1.35
Y-42.029 Z-1.391
Y-41.988 Z-1.423
Y-41.94 Z-1.443
Y-41.888 Z-1.45
Y-41.788
G3 X165.018 Y-41.588 I-0.2 J0
X165.018 Y-42.388 I0 J-0.4
X165.018 Y-41.588 I0 J0.4
X164.818 Y-41.788 I0 J-0.2
G1 Y-41.888
Y-41.94 Z-1.443
Y-41.988 Z-1.423
Y-42.03 Z-1.391
Y-42.061 Z-1.35
Y-42.081 Z-1.302
Y-42.088 Z-1.25
G0 Z2.05
X165.218
Z0.05
G1 Z-1.75 F100
Y-42.081 Z-1.802
Y-42.061 Z-1.85
Y-42.029 Z-1.891
Y-41.988 Z-1.923
Y-41.94 Z-1.943
Y-41.888 Z-1.95
Y-41.788
G3 X165.018 Y-41.588 I-0.2 J0
X165.018 Y-42.388 I0 J-0.4
X165.018 Y-41.588 I0 J0.4
X164.818 Y-41.788 I0 J-0.2
G1 Y-41.888
Y-41.94 Z-1.943
Y-41.988 Z-1.923
Y-42.03 Z-1.891
Y-42.061 Z-1.85
Y-42.081 Z-1.802
Y-42.088 Z-1.75
G0 Z2.05
X165.218
Z-0.45
G1 Z-2.25 F100
Y-42.081 Z-2.302
Y-42.061 Z-2.35
Y-42.029 Z-2.391
Y-41.988 Z-2.423
Y-41.94 Z-2.443
Y-41.888 Z-2.45
Y-41.788
G3 X165.018 Y-41.588 I-0.2 J0
X165.018 Y-42.388 I0 J-0.4
X165.018 Y-41.588 I0 J0.4
X164.818 Y-41.788 I0 J-0.2
G1 Y-41.888
Y-41.94 Z-2.443
Y-41.988 Z-2.423
Y-42.03 Z-2.391
Y-42.061 Z-2.35
Y-42.081 Z-2.302
Y-42.088 Z-2.25
G0 Z2.05
X165.218
Z-0.85
G1 Z-2.65 F100
Y-42.081 Z-2.702
Y-42.061 Z-2.75
Y-42.029 Z-2.791
Y-41.988 Z-2.823
Y-41.94 Z-2.843
Y-41.888 Z-2.85
Y-41.788
G3 X165.018 Y-41.588 I-0.2 J0
X165.018 Y-42.388 I0 J-0.4
X165.018 Y-41.588 I0 J0.4
X164.818 Y-41.788 I0 J-0.2
G1 Y-41.888
Y-41.94 Z-2.843
Y-41.988 Z-2.823
Y-42.03 Z-2.791
Y-42.061 Z-2.75
Y-42.081 Z-2.702
Y-42.088 Z-2.65
G0 Z2.05
X165.218
Z-1.25
G1 Z-3.05 F100
Y-42.081 Z-3.102
Y-42.061 Z-3.15
Y-42.029 Z-3.191
Y-41.988 Z-3.223
Y-41.94 Z-3.243
Y-41.888 Z-3.25
Y-41.788
G3 X165.018 Y-41.588 I-0.2 J0
X165.018 Y-42.388 I0 J-0.4
X165.018 Y-41.588 I0 J0.4
X164.818 Y-41.788 I0 J-0.2
G1 Y-41.888
Y-41.94 Z-3.243
Y-41.988 Z-3.223
Y-42.03 Z-3.191
Y-42.061 Z-3.15
Y-42.081 Z-3.102
Y-42.088 Z-3.05
G0 Z2.05
X145.228 Y-62.098
Z1.55
G1 Z-0.25 F100
Y-62.091 Z-0.302
Y-62.071 Z-0.35
Y-62.04 Z-0.391
Y-61.998 Z-0.423
Y-61.95 Z-0.443
Y-61.898 Z-0.45
Y-61.798
G3 X145.028 Y-61.598 I-0.2 J0
X145.028 Y-62.398 I0 J-0.4
X145.028 Y-61.598 I0 J0.4
X144.828 Y-61.798 I0 J-0.2
G1 Y-61.898
Y-61.95 Z-0.443
Y-61.998 Z-0.423
Y-62.04 Z-0.391
Y-62.072 Z-0.35
Y-62.092 Z-0.302
Y-62.098 Z-0.25
G0 Z2.05
X145.228
Z1.05
G1 Z-0.75 F100
Y-62.091 Z-0.802
Y-62.071 Z-0.85
Y-62.04 Z-0.891
Y-61.998 Z-0.923
Y-61.95 Z-0.943
Y-61.898 Z-0.95
Y-61.798
G3 X145.028 Y-61.598 I-0.2 J0
X145.028 Y-62.398 I0 J-0.4
X145.028 Y-61.598 I0 J0.4
X144.828 Y-61.798 I0 J-0.2
G1 Y-61.898
Y-61.95 Z-0.943
Y-61.998 Z-0.923
Y-62.04 Z-0.891
Y-62.072 Z-0.85
Y-62.092 Z-0.802
Y-62.098 Z-0.75
G0 Z2.05
X145.228
Z0.55
G1 Z-1.25 F100
Y-62.091 Z-1.302
Y-62.071 Z-1.35
Y-62.04 Z-1.391
Y-61.998 Z-1.423
Y-61.95 Z-1.443
Y-61.898 Z-1.45
Y-61.798
G3 X145.028 Y-61.598 I-0.2 J0
X145.028 Y-62.398 I0 J-0.4
X145.028 Y-61.598 I0 J0.4
X144.828 Y-61.798 I0 J-0.2
G1 Y-61.898
Y-61.95 Z-1.443
Y-61.998 Z-1.423
Y-62.04 Z-1.391
Y-62.072 Z-1.35
Y-62.092 Z-1.302
Y-62.098 Z-1.25
G0 Z2.05
X145.228
Z0.05
G1 Z-1.75 F100
Y-62.091 Z-1.802
Y-62.071 Z-1.85
Y-62.04 Z-1.891
Y-61.998 Z-1.923
Y-61.95 Z-1.943
Y-61.898 Z-1.95
Y-61.798
G3 X145.028 Y-61.598 I-0.2 J0
X145.028 Y-62.398 I0 J-0.4
X145.028 Y-61.598 I0 J0.4
X144.828 Y-61.798 I0 J-0.2
G1 Y-61.898
Y-61.95 Z-1.943
Y-61.998 Z-1.923
Y-62.04 Z-1.891
Y-62.072 Z-1.85
Y-62.092 Z-1.802
Y-62.098 Z-1.75
G0 Z2.05
X145.228
Z-0.45
G1 Z-2.25 F100
Y-62.091 Z-2.302
Y-62.071 Z-2.35
Y-62.04 Z-2.391
Y-61.998 Z-2.423
Y-61.95 Z-2.443
Y-61.898 Z-2.45
Y-61.798
G3 X145.028 Y-61.598 I-0.2 J0
X145.028 Y-62.398 I0 J-0.4
X145.028 Y-61.598 I0 J0.4
X144.828 Y-61.798 I0 J-0.2
G1 Y-61.898
Y-61.95 Z-2.443
Y-61.998 Z-2.423
Y-62.04 Z-2.391
Y-62.072 Z-2.35
Y-62.092 Z-2.302
Y-62.098 Z-2.25
G0 Z2.05
X145.228
Z-0.85
G1 Z-2.65 F100
Y-62.091 Z-2.702
Y-62.071 Z-2.75
Y-62.04 Z-2.791
Y-61.998 Z-2.823
Y-61.95 Z-2.843
Y-61.898 Z-2.85
Y-61.798
G3 X145.028 Y-61.598 I-0.2 J0
X145.028 Y-62.398 I0 J-0.4
X145.028 Y-61.598 I0 J0.4
X144.828 Y-61.798 I0 J-0.2
G1 Y-61.898
Y-61.95 Z-2.843
Y-61.998 Z-2.823
Y-62.04 Z-2.791
Y-62.072 Z-2.75
Y-62.092 Z-2.702
Y-62.098 Z-2.65
G0 Z2.05
X145.228
Z-1.25
G1 Z-3.05 F100
Y-62.091 Z-3.102
Y-62.071 Z-3.15
Y-62.04 Z-3.191
Y-61.998 Z-3.223
Y-61.95 Z-3.243
Y-61.898 Z-3.25
Y-61.798
G3 X145.028 Y-61.598 I-0.2 J0
X145.028 Y-62.398 I0 J-0.4
X145.028 Y-61.598 I0 J0.4
X144.828 Y-61.798 I0 J-0.2
G1 Y-61.898
Y-61.95 Z-3.243
Y-61.998 Z-3.223
Y-62.04 Z-3.191
Y-62.072 Z-3.15
Y-62.092 Z-3.102
Y-62.098 Z-3.05
G0 Z2.05
X125.218 Y-42.109
Z1.55
G1 Z-0.25 F100
Y-42.102 Z-0.302
Y-42.082 Z-0.35
Y-42.05 Z-0.391
Y-42.009 Z-0.423
Y-41.96 Z-0.443
Y-41.909 Z-0.45
Y-41.809
G3 X125.018 Y-41.609 I-0.2 J0
X125.018 Y-42.409 I0 J-0.4
X125.018 Y-41.609 I0 J0.4
X124.818 Y-41.809 I0 J-0.2
G1 Y-41.909
Y-41.961 Z-0.443
Y-42.009 Z-0.423
Y-42.05 Z-0.391
Y-42.082 Z-0.35
Y-42.102 Z-0.302
Y-42.109 Z-0.25
G0 Z2.05
X125.218
Z1.05
G1 Z-0.75 F100
Y-42.102 Z-0.802
Y-42.082 Z-0.85
Y-42.05 Z-0.891
Y-42.009 Z-0.923
Y-41.96 Z-0.943
Y-41.909 Z-0.95
Y-41.809
G3 X125.018 Y-41.609 I-0.2 J0
X125.018 Y-42.409 I0 J-0.4
X125.018 Y-41.609 I0 J0.4
X124.818 Y-41.809 I0 J-0.2
G1 Y-41.909
Y-41.961 Z-0.943
Y-42.009 Z-0.923
Y-42.05 Z-0.891
Y-42.082 Z-0.85
Y-42.102 Z-0.802
Y-42.109 Z-0.75
G0 Z2.05
X125.218
Z0.55
G1 Z-1.25 F100
Y-42.102 Z-1.302
Y-42.082 Z-1.35
Y-42.05 Z-1.391
Y-42.009 Z-1.423
Y-41.96 Z-1.443
Y-41.909 Z-1.45
Y-41.809
G3 X125.018 Y-41.609 I-0.2 J0
X125.018 Y-42.409 I0 J-0.4
X125.018 Y-41.609 I0 J0.4
X124.818 Y-41.809 I0 J-0.2
G1 Y-41.909
Y-41.961 Z-1.443
Y-42.009 Z-1.423
Y-42.05 Z-1.391
Y-42.082 Z-1.35
Y-42.102 Z-1.302
Y-42.109 Z-1.25
G0 Z2.05
X125.218
Z0.05
G1 Z-1.75 F100
Y-42.102 Z-1.802
Y-42.082 Z-1.85
Y-42.05 Z-1.891
Y-42.009 Z-1.923
Y-41.96 Z-1.943
Y-41.909 Z-1.95
Y-41.809
G3 X125.018 Y-41.609 I-0.2 J0
X125.018 Y-42.409 I0 J-0.4
X125.018 Y-41.609 I0 J0.4
X124.818 Y-41.809 I0 J-0.2
G1 Y-41.909
Y-41.961 Z-1.943
Y-42.009 Z-1.923
Y-42.05 Z-1.891
Y-42.082 Z-1.85
Y-42.102 Z-1.802
Y-42.109 Z-1.75
G0 Z2.05
X125.218
Z-0.45
G1 Z-2.25 F100
Y-42.102 Z-2.302
Y-42.082 Z-2.35
Y-42.05 Z-2.391
Y-42.009 Z-2.423
Y-41.96 Z-2.443
Y-41.909 Z-2.45
Y-41.809
G3 X125.018 Y-41.609 I-0.2 J0
X125.018 Y-42.409 I0 J-0.4
X125.018 Y-41.609 I0 J0.4
X124.818 Y-41.809 I0 J-0.2
G1 Y-41.909
Y-41.961 Z-2.443
Y-42.009 Z-2.423
Y-42.05 Z-2.391
Y-42.082 Z-2.35
Y-42.102 Z-2.302
Y-42.109 Z-2.25
G0 Z2.05
X125.218
Z-0.85
G1 Z-2.65 F100
Y-42.102 Z-2.702
Y-42.082 Z-2.75
Y-42.05 Z-2.791
Y-42.009 Z-2.823
Y-41.96 Z-2.843
Y-41.909 Z-2.85
Y-41.809
G3 X125.018 Y-41.609 I-0.2 J0
X125.018 Y-42.409 I0 J-0.4
X125.018 Y-41.609 I0 J0.4
X124.818 Y-41.809 I0 J-0.2
G1 Y-41.909
Y-41.961 Z-2.843
Y-42.009 Z-2.823
Y-42.05 Z-2.791
Y-42.082 Z-2.75
Y-42.102 Z-2.702
Y-42.109 Z-2.65
G0 Z2.05
X125.218
Z-1.25
G1 Z-3.05 F100
Y-42.102 Z-3.102
Y-42.082 Z-3.15
Y-42.05 Z-3.191
Y-42.009 Z-3.223
Y-41.96 Z-3.243
Y-41.909 Z-3.25
Y-41.809
G3 X125.018 Y-41.609 I-0.2 J0
X125.018 Y-42.409 I0 J-0.4
X125.018 Y-41.609 I0 J0.4
X124.818 Y-41.809 I0 J-0.2
G1 Y-41.909
Y-41.961 Z-3.243
Y-42.009 Z-3.223
Y-42.05 Z-3.191
Y-42.082 Z-3.15
Y-42.102 Z-3.102
Y-42.109 Z-3.05
G0 Z2.05
X106.598 Y-49.819
Z1.55
G1 Z-0.25 F100
G18 G3 X106.398 Z-0.45 I-0.2 K0
G1 X106.298
G17 G3 X106.098 Y-50.019 I0 J-0.2
X106.998 Y-50.019 I0.45 J0
X106.098 Y-50.019 I-0.45 J0
X106.298 Y-50.219 I0.2 J0
G1 X106.398
G18 G2 X106.598 Z-0.25 I0 K0.2
G0 Z2.05
Y-49.819
Z1.05
G1 Z-0.75 F100
G3 X106.398 Z-0.95 I-0.2 K0
G1 X106.298
G17 G3 X106.098 Y-50.019 I0 J-0.2
X106.998 Y-50.019 I0.45 J0
X106.098 Y-50.019 I-0.45 J0
X106.298 Y-50.219 I0.2 J0
G1 X106.398
G18 G2 X106.598 Z-0.75 I0 K0.2
G0 Z2.05
Y-49.819
Z0.55
G1 Z-1.25 F100
G3 X106.398 Z-1.45 I-0.2 K0
G1 X106.298
G17 G3 X106.098 Y-50.019 I0 J-0.2
X106.998 Y-50.019 I0.45 J0
X106.098 Y-50.019 I-0.45 J0
X106.298 Y-50.219 I0.2 J0
G1 X106.398
G18 G2 X106.598 Z-1.25 I0 K0.2
G0 Z2.05
Y-49.819
Z0.05
G1 Z-1.75 F100
G3 X106.398 Z-1.95 I-0.2 K0
G1 X106.298
G17 G3 X106.098 Y-50.019 I0 J-0.2
X106.998 Y-50.019 I0.45 J0
X106.098 Y-50.019 I-0.45 J0
X106.298 Y-50.219 I0.2 J0
G1 X106.398
G18 G2 X106.598 Z-1.75 I0 K0.2
G0 Z2.05
Y-49.819
Z-0.45
G1 Z-2.25 F100
G3 X106.398 Z-2.45 I-0.2 K0
G1 X106.298
G17 G3 X106.098 Y-50.019 I0 J-0.2
X106.998 Y-50.019 I0.45 J0
X106.098 Y-50.019 I-0.45 J0
X106.298 Y-50.219 I0.2 J0
G1 X106.398
G18 G2 X106.598 Z-2.25 I0 K0.2
G0 Z2.05
Y-49.819
Z-0.85
G1 Z-2.65 F100
G3 X106.398 Z-2.85 I-0.2 K0
G1 X106.298
G17 G3 X106.098 Y-50.019 I0 J-0.2
X106.998 Y-50.019 I0.45 J0
X106.098 Y-50.019 I-0.45 J0
X106.298 Y-50.219 I0.2 J0
G1 X106.398
G18 G2 X106.598 Z-2.65 I0 K0.2
G0 Z2.05
Y-49.819
Z-1.25
G1 Z-3.05 F100
G3 X106.398 Z-3.25 I-0.2 K0
G1 X106.298
G17 G3 X106.098 Y-50.019 I0 J-0.2
X106.998 Y-50.019 I0.45 J0
X106.098 Y-50.019 I-0.45 J0
X106.298 Y-50.219 I0.2 J0
G1 X106.398
G18 G2 X106.598 Z-3.05 I0 K0.2
G0 Z2.05
X106.602 Y-62.819
Z1.55
G1 Z-0.25 F100
G3 X106.402 Z-0.45 I-0.2 K0
G1 X106.302
G17 G3 X106.102 Y-63.019 I0 J-0.2
X107.002 Y-63.019 I0.45 J0
X106.102 Y-63.019 I-0.45 J0
X106.302 Y-63.219 I0.2 J0
G1 X106.402
G18 G2 X106.602 Z-0.25 I0 K0.2
G0 Z2.05
Y-62.819
Z1.05
G1 Z-0.75 F100
G3 X106.402 Z-0.95 I-0.2 K0
G1 X106.302
G17 G3 X106.102 Y-63.019 I0 J-0.2
X107.002 Y-63.019 I0.45 J0
X106.102 Y-63.019 I-0.45 J0
X106.302 Y-63.219 I0.2 J0
G1 X106.402
G18 G2 X106.602 Z-0.75 I0 K0.2
G0 Z2.05
Y-62.819
Z0.55
G1 Z-1.25 F100
G3 X106.402 Z-1.45 I-0.2 K0
G1 X106.302
G17 G3 X106.102 Y-63.019 I0 J-0.2
X107.002 Y-63.019 I0.45 J0
X106.102 Y-63.019 I-0.45 J0
X106.302 Y-63.219 I0.2 J0
G1 X106.402
G18 G2 X106.602 Z-1.25 I0 K0.2
G0 Z2.05
Y-62.819
Z0.05
G1 Z-1.75 F100
G3 X106.402 Z-1.95 I-0.2 K0
G1 X106.302
G17 G3 X106.102 Y-63.019 I0 J-0.2
X107.002 Y-63.019 I0.45 J0
X106.102 Y-63.019 I-0.45 J0
X106.302 Y-63.219 I0.2 J0
G1 X106.402
G18 G2 X106.602 Z-1.75 I0 K0.2
G0 Z2.05
Y-62.819
Z-0.45
G1 Z-2.25 F100
G3 X106.402 Z-2.45 I-0.2 K0
G1 X106.302
G17 G3 X106.102 Y-63.019 I0 J-0.2
X107.002 Y-63.019 I0.45 J0
X106.102 Y-63.019 I-0.45 J0
X106.302 Y-63.219 I0.2 J0
G1 X106.402
G18 G2 X106.602 Z-2.25 I0 K0.2
G0 Z2.05
Y-62.819
Z-0.85
G1 Z-2.65 F100
G3 X106.402 Z-2.85 I-0.2 K0
G1 X106.302
G17 G3 X106.102 Y-63.019 I0 J-0.2
X107.002 Y-63.019 I0.45 J0
X106.102 Y-63.019 I-0.45 J0
X106.302 Y-63.219 I0.2 J0
G1 X106.402
G18 G2 X106.602 Z-2.65 I0 K0.2
G0 Z2.05
Y-62.819
Z-1.25
G1 Z-3.05 F100
G3 X106.402 Z-3.25 I-0.2 K0
G1 X106.302
G17 G3 X106.102 Y-63.019 I0 J-0.2
X107.002 Y-63.019 I0.45 J0
X106.102 Y-63.019 I-0.45 J0
X106.302 Y-63.219 I0.2 J0
G1 X106.402
G18 G2 X106.602 Z-3.05 I0 K0.2
G0 Z2.05
X26.602 Y-62.819
Z1.55
G1 Z-0.25 F100
G3 X26.402 Z-0.45 I-0.2 K0
G1 X26.302
G17 G3 X26.102 Y-63.019 I0 J-0.2
X27.002 Y-63.019 I0.45 J0
X26.102 Y-63.019 I-0.45 J0
X26.302 Y-63.219 I0.2 J0
G1 X26.402
G18 G2 X26.602 Z-0.25 I0 K0.2
G0 Z2.05
Y-62.819
Z1.05
G1 Z-0.75 F100
G3 X26.402 Z-0.95 I-0.2 K0
G1 X26.302
G17 G3 X26.102 Y-63.019 I0 J-0.2
X27.002 Y-63.019 I0.45 J0
X26.102 Y-63.019 I-0.45 J0
X26.302 Y-63.219 I0.2 J0
G1 X26.402
G18 G2 X26.602 Z-0.75 I0 K0.2
G0 Z2.05
Y-62.819
Z0.55
G1 Z-1.25 F100
G3 X26.402 Z-1.45 I-0.2 K0
G1 X26.302
G17 G3 X26.102 Y-63.019 I0 J-0.2
X27.002 Y-63.019 I0.45 J0
X26.102 Y-63.019 I-0.45 J0
X26.302 Y-63.219 I0.2 J0
G1 X26.402
G18 G2 X26.602 Z-1.25 I0 K0.2
G0 Z2.05
Y-62.819
Z0.05
G1 Z-1.75 F100
G3 X26.402 Z-1.95 I-0.2 K0
G1 X26.302
G17 G3 X26.102 Y-63.019 I0 J-0.2
X27.002 Y-63.019 I0.45 J0
X26.102 Y-63.019 I-0.45 J0
X26.302 Y-63.219 I0.2 J0
G1 X26.402
G18 G2 X26.602 Z-1.75 I0 K0.2
G0 Z2.05
Y-62.819
Z-0.45
G1 Z-2.25 F100
G3 X26.402 Z-2.45 I-0.2 K0
G1 X26.302
G17 G3 X26.102 Y-63.019 I0 J-0.2
X27.002 Y-63.019 I0.45 J0
X26.102 Y-63.019 I-0.45 J0
X26.302 Y-63.219 I0.2 J0
G1 X26.402
G18 G2 X26.602 Z-2.25 I0 K0.2
G0 Z2.05
Y-62.819
Z-0.85
G1 Z-2.65 F100
G3 X26.402 Z-2.85 I-0.2 K0
G1 X26.302
G17 G3 X26.102 Y-63.019 I0 J-0.2
X27.002 Y-63.019 I0.45 J0
X26.102 Y-63.019 I-0.45 J0
X26.302 Y-63.219 I0.2 J0
G1 X26.402
G18 G2 X26.602 Z-2.65 I0 K0.2
G0 Z2.05
Y-62.819
Z-1.25
G1 Z-3.05 F100
G3 X26.402 Z-3.25 I-0.2 K0
G1 X26.302
G17 G3 X26.102 Y-63.019 I0 J-0.2
X27.002 Y-63.019 I0.45 J0
X26.102 Y-63.019 I-0.45 J0
X26.302 Y-63.219 I0.2 J0
G1 X26.402
G18 G2 X26.602 Z-3.05 I0 K0.2
G0 Z2.05
X26.598 Y-49.819
Z1.55
G1 Z-0.25 F100
G3 X26.398 Z-0.45 I-0.2 K0
G1 X26.298
G17 G3 X26.098 Y-50.019 I0 J-0.2
X26.998 Y-50.019 I0.45 J0
X26.098 Y-50.019 I-0.45 J0
X26.298 Y-50.219 I0.2 J0
G1 X26.398
G18 G2 X26.598 Z-0.25 I0 K0.2
G0 Z2.05
Y-49.819
Z1.05
G1 Z-0.75 F100
G3 X26.398 Z-0.95 I-0.2 K0
G1 X26.298
G17 G3 X26.098 Y-50.019 I0 J-0.2
X26.998 Y-50.019 I0.45 J0
X26.098 Y-50.019 I-0.45 J0
X26.298 Y-50.219 I0.2 J0
G1 X26.398
G18 G2 X26.598 Z-0.75 I0 K0.2
G0 Z2.05
Y-49.819
Z0.55
G1 Z-1.25 F100
G3 X26.398 Z-1.45 I-0.2 K0
G1 X26.298
G17 G3 X26.098 Y-50.019 I0 J-0.2
X26.998 Y-50.019 I0.45 J0
X26.098 Y-50.019 I-0.45 J0
X26.298 Y-50.219 I0.2 J0
G1 X26.398
G18 G2 X26.598 Z-1.25 I0 K0.2
G0 Z2.05
Y-49.819
Z0.05
G1 Z-1.75 F100
G3 X26.398 Z-1.95 I-0.2 K0
G1 X26.298
G17 G3 X26.098 Y-50.019 I0 J-0.2
X26.998 Y-50.019 I0.45 J0
X26.098 Y-50.019 I-0.45 J0
X26.298 Y-50.219 I0.2 J0
G1 X26.398
G18 G2 X26.598 Z-1.75 I0 K0.2
G0 Z2.05
Y-49.819
Z-0.45
G1 Z-2.25 F100
G3 X26.398 Z-2.45 I-0.2 K0
G1 X26.298
G17 G3 X26.098 Y-50.019 I0 J-0.2
X26.998 Y-50.019 I0.45 J0
X26.098 Y-50.019 I-0.45 J0
X26.298 Y-50.219 I0.2 J0
G1 X26.398
G18 G2 X26.598 Z-2.25 I0 K0.2
G0 Z2.05
Y-49.819
Z-0.85
G1 Z-2.65 F100
G3 X26.398 Z-2.85 I-0.2 K0
G1 X26.298
G17 G3 X26.098 Y-50.019 I0 J-0.2
X26.998 Y-50.019 I0.45 J0
X26.098 Y-50.019 I-0.45 J0
X26.298 Y-50.219 I0.2 J0
G1 X26.398
G18 G2 X26.598 Z-2.65 I0 K0.2
G0 Z2.05
Y-49.819
Z-1.25
G1 Z-3.05 F100
G3 X26.398 Z-3.25 I-0.2 K0
G1 X26.298
G17 G3 X26.098 Y-50.019 I0 J-0.2
X26.998 Y-50.019 I0.45 J0
X26.098 Y-50.019 I-0.45 J0
X26.298 Y-50.219 I0.2 J0
G1 X26.398
G18 G2 X26.598 Z-3.05 I0 K0.2
G0 Z2.05
X29.149 Y-36.785
Z1.55
G1 Z-0.25 F100
G3 X28.949 Z-0.45 I-0.2 K0
G1 X28.849
G17 G3 X28.649 Y-36.985 I0 J-0.2
X29.449 Y-36.985 I0.4 J0
X28.649 Y-36.985 I-0.4 J0
X28.849 Y-37.185 I0.2 J0
G1 X28.949
G18 G2 X29.149 Z-0.25 I0 K0.2
G0 Z2.05
Y-36.785
Z1.05
G1 Z-0.75 F100
G3 X28.949 Z-0.95 I-0.2 K0
G1 X28.849
G17 G3 X28.649 Y-36.985 I0 J-0.2
X29.449 Y-36.985 I0.4 J0
X28.649 Y-36.985 I-0.4 J0
X28.849 Y-37.185 I0.2 J0
G1 X28.949
G18 G2 X29.149 Z-0.75 I0 K0.2
G0 Z2.05
Y-36.785
Z0.55
G1 Z-1.25 F100
G3 X28.949 Z-1.45 I-0.2 K0
G1 X28.849
G17 G3 X28.649 Y-36.985 I0 J-0.2
X29.449 Y-36.985 I0.4 J0
X28.649 Y-36.985 I-0.4 J0
X28.849 Y-37.185 I0.2 J0
G1 X28.949
G18 G2 X29.149 Z-1.25 I0 K0.2
G0 Z2.05
Y-36.785
Z0.05
G1 Z-1.75 F100
G3 X28.949 Z-1.95 I-0.2 K0
G1 X28.849
G17 G3 X28.649 Y-36.985 I0 J-0.2
X29.449 Y-36.985 I0.4 J0
X28.649 Y-36.985 I-0.4 J0
X28.849 Y-37.185 I0.2 J0
G1 X28.949
G18 G2 X29.149 Z-1.75 I0 K0.2
G0 Z2.05
Y-36.785
Z-0.45
G1 Z-2.25 F100
G3 X28.949 Z-2.45 I-0.2 K0
G1 X28.849
G17 G3 X28.649 Y-36.985 I0 J-0.2
X29.449 Y-36.985 I0.4 J0
X28.649 Y-36.985 I-0.4 J0
X28.849 Y-37.185 I0.2 J0
G1 X28.949
G18 G2 X29.149 Z-2.25 I0 K0.2
G0 Z2.05
Y-36.785
Z-0.85
G1 Z-2.65 F100
G3 X28.949 Z-2.85 I-0.2 K0
G1 X28.849
G17 G3 X28.649 Y-36.985 I0 J-0.2
X29.449 Y-36.985 I0.4 J0
X28.649 Y-36.985 I-0.4 J0
X28.849 Y-37.185 I0.2 J0
G1 X28.949
G18 G2 X29.149 Z-2.65 I0 K0.2
G0 Z2.05
Y-36.785
Z-1.25
G1 Z-3.05 F100
G3 X28.949 Z-3.25 I-0.2 K0
G1 X28.849
G17 G3 X28.649 Y-36.985 I0 J-0.2
X29.449 Y-36.985 I0.4 J0
X28.649 Y-36.985 I-0.4 J0
X28.849 Y-37.185 I0.2 J0
G1 X28.949
G18 G2 X29.149 Z-3.05 I0 K0.2
G0 Z2.05
X19.149 Y-36.785
Z1.55
G1 Z-0.25 F100
G3 X18.949 Z-0.45 I-0.2 K0
G1 X18.849
G17 G3 X18.649 Y-36.985 I0 J-0.2
X19.449 Y-36.985 I0.4 J0
X18.649 Y-36.985 I-0.4 J0
X18.849 Y-37.185 I0.2 J0
G1 X18.949
G18 G2 X19.149 Z-0.25 I0 K0.2
G0 Z2.05
Y-36.785
Z1.05
G1 Z-0.75 F100
G3 X18.949 Z-0.95 I-0.2 K0
G1 X18.849
G17 G3 X18.649 Y-36.985 I0 J-0.2
X19.449 Y-36.985 I0.4 J0
X18.649 Y-36.985 I-0.4 J0
X18.849 Y-37.185 I0.2 J0
G1 X18.949
G18 G2 X19.149 Z-0.75 I0 K0.2
G0 Z2.05
Y-36.785
Z0.55
G1 Z-1.25 F100
G3 X18.949 Z-1.45 I-0.2 K0
G1 X18.849
G17 G3 X18.649 Y-36.985 I0 J-0.2
X19.449 Y-36.985 I0.4 J0
X18.649 Y-36.985 I-0.4 J0
X18.849 Y-37.185 I0.2 J0
G1 X18.949
G18 G2 X19.149 Z-1.25 I0 K0.2
G0 Z2.05
Y-36.785
Z0.05
G1 Z-1.75 F100
G3 X18.949 Z-1.95 I-0.2 K0
G1 X18.849
G17 G3 X18.649 Y-36.985 I0 J-0.2
X19.449 Y-36.985 I0.4 J0
X18.649 Y-36.985 I-0.4 J0
X18.849 Y-37.185 I0.2 J0
G1 X18.949
G18 G2 X19.149 Z-1.75 I0 K0.2
G0 Z2.05
Y-36.785
Z-0.45
G1 Z-2.25 F100
G3 X18.949 Z-2.45 I-0.2 K0
G1 X18.849
G17 G3 X18.649 Y-36.985 I0 J-0.2
X19.449 Y-36.985 I0.4 J0
X18.649 Y-36.985 I-0.4 J0
X18.849 Y-37.185 I0.2 J0
G1 X18.949
G18 G2 X19.149 Z-2.25 I0 K0.2
G0 Z2.05
Y-36.785
Z-0.85
G1 Z-2.65 F100
G3 X18.949 Z-2.85 I-0.2 K0
G1 X18.849
G17 G3 X18.649 Y-36.985 I0 J-0.2
X19.449 Y-36.985 I0.4 J0
X18.649 Y-36.985 I-0.4 J0
X18.849 Y-37.185 I0.2 J0
G1 X18.949
G18 G2 X19.149 Z-2.65 I0 K0.2
G0 Z2.05
Y-36.785
Z-1.25
G1 Z-3.05 F100
G3 X18.949 Z-3.25 I-0.2 K0
G1 X18.849
G17 G3 X18.649 Y-36.985 I0 J-0.2
X19.449 Y-36.985 I0.4 J0
X18.649 Y-36.985 I-0.4 J0
X18.849 Y-37.185 I0.2 J0
G1 X18.949
G18 G2 X19.149 Z-3.05 I0 K0.2
G0 Z2.05
X19.145 Y-21.785
Z1.55
G1 Z-0.25 F100
G3 X18.945 Z-0.45 I-0.2 K0
G1 X18.845
G17 G3 X18.645 Y-21.985 I0 J-0.2
X19.445 Y-21.985 I0.4 J0
X18.645 Y-21.985 I-0.4 J0
X18.845 Y-22.185 I0.2 J0
G1 X18.945
G18 G2 X19.145 Z-0.25 I0 K0.2
G0 Z2.05
Y-21.785
Z1.05
G1 Z-0.75 F100
G3 X18.945 Z-0.95 I-0.2 K0
G1 X18.845
G17 G3 X18.645 Y-21.985 I0 J-0.2
X19.445 Y-21.985 I0.4 J0
X18.645 Y-21.985 I-0.4 J0
X18.845 Y-22.185 I0.2 J0
G1 X18.945
G18 G2 X19.145 Z-0.75 I0 K0.2
G0 Z2.05
Y-21.785
Z0.55
G1 Z-1.25 F100
G3 X18.945 Z-1.45 I-0.2 K0
G1 X18.845
G17 G3 X18.645 Y-21.985 I0 J-0.2
X19.445 Y-21.985 I0.4 J0
X18.645 Y-21.985 I-0.4 J0
X18.845 Y-22.185 I0.2 J0
G1 X18.945
G18 G2 X19.145 Z-1.25 I0 K0.2
G0 Z2.05
Y-21.785
Z0.05
G1 Z-1.75 F100
G3 X18.945 Z-1.95 I-0.2 K0
G1 X18.845
G17 G3 X18.645 Y-21.985 I0 J-0.2
X19.445 Y-21.985 I0.4 J0
X18.645 Y-21.985 I-0.4 J0
X18.845 Y-22.185 I0.2 J0
G1 X18.945
G18 G2 X19.145 Z-1.75 I0 K0.2
G0 Z2.05
Y-21.785
Z-0.45
G1 Z-2.25 F100
G3 X18.945 Z-2.45 I-0.2 K0
G1 X18.845
G17 G3 X18.645 Y-21.985 I0 J-0.2
X19.445 Y-21.985 I0.4 J0
X18.645 Y-21.985 I-0.4 J0
X18.845 Y-22.185 I0.2 J0
G1 X18.945
G18 G2 X19.145 Z-2.25 I0 K0.2
G0 Z2.05
Y-21.785
Z-0.85
G1 Z-2.65 F100
G3 X18.945 Z-2.85 I-0.2 K0
G1 X18.845
G17 G3 X18.645 Y-21.985 I0 J-0.2
X19.445 Y-21.985 I0.4 J0
X18.645 Y-21.985 I-0.4 J0
X18.845 Y-22.185 I0.2 J0
G1 X18.945
G18 G2 X19.145 Z-2.65 I0 K0.2
G0 Z2.05
Y-21.785
Z-1.25
G1 Z-3.05 F100
G3 X18.945 Z-3.25 I-0.2 K0
G1 X18.845
G17 G3 X18.645 Y-21.985 I0 J-0.2
X19.445 Y-21.985 I0.4 J0
X18.645 Y-21.985 I-0.4 J0
X18.845 Y-22.185 I0.2 J0
G1 X18.945
G18 G2 X19.145 Z-3.05 I0 K0.2
G0 Z2.05
X29.145 Y-21.785
Z1.55
G1 Z-0.25 F100
G3 X28.945 Z-0.45 I-0.2 K0
G1 X28.845
G17 G3 X28.645 Y-21.985 I0 J-0.2
X29.445 Y-21.985 I0.4 J0
X28.645 Y-21.985 I-0.4 J0
X28.845 Y-22.185 I0.2 J0
G1 X28.945
G18 G2 X29.145 Z-0.25 I0 K0.2
G0 Z2.05
Y-21.785
Z1.05
G1 Z-0.75 F100
G3 X28.945 Z-0.95 I-0.2 K0
G1 X28.845
G17 G3 X28.645 Y-21.985 I0 J-0.2
X29.445 Y-21.985 I0.4 J0
X28.645 Y-21.985 I-0.4 J0
X28.845 Y-22.185 I0.2 J0
G1 X28.945
G18 G2 X29.145 Z-0.75 I0 K0.2
G0 Z2.05
Y-21.785
Z0.55
G1 Z-1.25 F100
G3 X28.945 Z-1.45 I-0.2 K0
G1 X28.845
G17 G3 X28.645 Y-21.985 I0 J-0.2
X29.445 Y-21.985 I0.4 J0
X28.645 Y-21.985 I-0.4 J0
X28.845 Y-22.185 I0.2 J0
G1 X28.945
G18 G2 X29.145 Z-1.25 I0 K0.2
G0 Z2.05
Y-21.785
Z0.05
G1 Z-1.75 F100
G3 X28.945 Z-1.95 I-0.2 K0
G1 X28.845
G17 G3 X28.645 Y-21.985 I0 J-0.2
X29.445 Y-21.985 I0.4 J0
X28.645 Y-21.985 I-0.4 J0
X28.845 Y-22.185 I0.2 J0
G1 X28.945
G18 G2 X29.145 Z-1.75 I0 K0.2
G0 Z2.05
Y-21.785
Z-0.45
G1 Z-2.25 F100
G3 X28.945 Z-2.45 I-0.2 K0
G1 X28.845
G17 G3 X28.645 Y-21.985 I0 J-0.2
X29.445 Y-21.985 I0.4 J0
X28.645 Y-21.985 I-0.4 J0
X28.845 Y-22.185 I0.2 J0
G1 X28.945
G18 G2 X29.145 Z-2.25 I0 K0.2
G0 Z2.05
Y-21.785
Z-0.85
G1 Z-2.65 F100
G3 X28.945 Z-2.85 I-0.2 K0
G1 X28.845
G17 G3 X28.645 Y-21.985 I0 J-0.2
X29.445 Y-21.985 I0.4 J0
X28.645 Y-21.985 I-0.4 J0
X28.845 Y-22.185 I0.2 J0
G1 X28.945
G18 G2 X29.145 Z-2.65 I0 K0.2
G0 Z2.05
Y-21.785
Z-1.25
G1 Z-3.05 F100
G3 X28.945 Z-3.25 I-0.2 K0
G1 X28.845
G17 G3 X28.645 Y-21.985 I0 J-0.2
X29.445 Y-21.985 I0.4 J0
X28.645 Y-21.985 I-0.4 J0
X28.845 Y-22.185 I0.2 J0
G1 X28.945
G18 G2 X29.145 Z-3.05 I0 K0.2
G0 Z2.05
X54.145 Y-21.785
Z1.55
G1 Z-0.25 F100
G3 X53.945 Z-0.45 I-0.2 K0
G1 X53.845
G17 G3 X53.645 Y-21.985 I0 J-0.2
X54.445 Y-21.985 I0.4 J0
X53.645 Y-21.985 I-0.4 J0
X53.845 Y-22.185 I0.2 J0
G1 X53.945
G18 G2 X54.145 Z-0.25 I0 K0.2
G0 Z2.05
Y-21.785
Z1.05
G1 Z-0.75 F100
G3 X53.945 Z-0.95 I-0.2 K0
G1 X53.845
G17 G3 X53.645 Y-21.985 I0 J-0.2
X54.445 Y-21.985 I0.4 J0
X53.645 Y-21.985 I-0.4 J0
X53.845 Y-22.185 I0.2 J0
G1 X53.945
G18 G2 X54.145 Z-0.75 I0 K0.2
G0 Z2.05
Y-21.785
Z0.55
G1 Z-1.25 F100
G3 X53.945 Z-1.45 I-0.2 K0
G1 X53.845
G17 G3 X53.645 Y-21.985 I0 J-0.2
X54.445 Y-21.985 I0.4 J0
X53.645 Y-21.985 I-0.4 J0
X53.845 Y-22.185 I0.2 J0
G1 X53.945
G18 G2 X54.145 Z-1.25 I0 K0.2
G0 Z2.05
Y-21.785
Z0.05
G1 Z-1.75 F100
G3 X53.945 Z-1.95 I-0.2 K0
G1 X53.845
G17 G3 X53.645 Y-21.985 I0 J-0.2
X54.445 Y-21.985 I0.4 J0
X53.645 Y-21.985 I-0.4 J0
X53.845 Y-22.185 I0.2 J0
G1 X53.945
G18 G2 X54.145 Z-1.75 I0 K0.2
G0 Z2.05
Y-21.785
Z-0.45
G1 Z-2.25 F100
G3 X53.945 Z-2.45 I-0.2 K0
G1 X53.845
G17 G3 X53.645 Y-21.985 I0 J-0.2
X54.445 Y-21.985 I0.4 J0
X53.645 Y-21.985 I-0.4 J0
X53.845 Y-22.185 I0.2 J0
G1 X53.945
G18 G2 X54.145 Z-2.25 I0 K0.2
G0 Z2.05
Y-21.785
Z-0.85
G1 Z-2.65 F100
G3 X53.945 Z-2.85 I-0.2 K0
G1 X53.845
G17 G3 X53.645 Y-21.985 I0 J-0.2
X54.445 Y-21.985 I0.4 J0
X53.645 Y-21.985 I-0.4 J0
X53.845 Y-22.185 I0.2 J0
G1 X53.945
G18 G2 X54.145 Z-2.65 I0 K0.2
G0 Z2.05
Y-21.785
Z-1.25
G1 Z-3.05 F100
G3 X53.945 Z-3.25 I-0.2 K0
G1 X53.845
G17 G3 X53.645 Y-21.985 I0 J-0.2
X54.445 Y-21.985 I0.4 J0
X53.645 Y-21.985 I-0.4 J0
X53.845 Y-22.185 I0.2 J0
G1 X53.945
G18 G2 X54.145 Z-3.05 I0 K0.2
G0 Z2.05
X64.145 Y-21.785
Z1.55
G1 Z-0.25 F100
G3 X63.945 Z-0.45 I-0.2 K0
G1 X63.845
G17 G3 X63.645 Y-21.985 I0 J-0.2
X64.445 Y-21.985 I0.4 J0
X63.645 Y-21.985 I-0.4 J0
X63.845 Y-22.185 I0.2 J0
G1 X63.945
G18 G2 X64.145 Z-0.25 I0 K0.2
G0 Z2.05
Y-21.785
Z1.05
G1 Z-0.75 F100
G3 X63.945 Z-0.95 I-0.2 K0
G1 X63.845
G17 G3 X63.645 Y-21.985 I0 J-0.2
X64.445 Y-21.985 I0.4 J0
X63.645 Y-21.985 I-0.4 J0
X63.845 Y-22.185 I0.2 J0
G1 X63.945
G18 G2 X64.145 Z-0.75 I0 K0.2
G0 Z2.05
Y-21.785
Z0.55
G1 Z-1.25 F100
G3 X63.945 Z-1.45 I-0.2 K0
G1 X63.845
G17 G3 X63.645 Y-21.985 I0 J-0.2
X64.445 Y-21.985 I0.4 J0
X63.645 Y-21.985 I-0.4 J0
X63.845 Y-22.185 I0.2 J0
G1 X63.945
G18 G2 X64.145 Z-1.25 I0 K0.2
G0 Z2.05
Y-21.785
Z0.05
G1 Z-1.75 F100
G3 X63.945 Z-1.95 I-0.2 K0
G1 X63.845
G17 G3 X63.645 Y-21.985 I0 J-0.2
X64.445 Y-21.985 I0.4 J0
X63.645 Y-21.985 I-0.4 J0
X63.845 Y-22.185 I0.2 J0
G1 X63.945
G18 G2 X64.145 Z-1.75 I0 K0.2
G0 Z2.05
Y-21.785
Z-0.45
G1 Z-2.25 F100
G3 X63.945 Z-2.45 I-0.2 K0
G1 X63.845
G17 G3 X63.645 Y-21.985 I0 J-0.2
X64.445 Y-21.985 I0.4 J0
X63.645 Y-21.985 I-0.4 J0
X63.845 Y-22.185 I0.2 J0
G1 X63.945
G18 G2 X64.145 Z-2.25 I0 K0.2
G0 Z2.05
Y-21.785
Z-0.85
G1 Z-2.65 F100
G3 X63.945 Z-2.85 I-0.2 K0
G1 X63.845
G17 G3 X63.645 Y-21.985 I0 J-0.2
X64.445 Y-21.985 I0.4 J0
X63.645 Y-21.985 I-0.4 J0
X63.845 Y-22.185 I0.2 J0
G1 X63.945
G18 G2 X64.145 Z-2.65 I0 K0.2
G0 Z2.05
Y-21.785
Z-1.25
G1 Z-3.05 F100
G3 X63.945 Z-3.25 I-0.2 K0
G1 X63.845
G17 G3 X63.645 Y-21.985 I0 J-0.2
X64.445 Y-21.985 I0.4 J0
X63.645 Y-21.985 I-0.4 J0
X63.845 Y-22.185 I0.2 J0
G1 X63.945
G18 G2 X64.145 Z-3.05 I0 K0.2
G0 Z2.05
X64.149 Y-36.785
Z1.55
G1 Z-0.25 F100
G3 X63.949 Z-0.45 I-0.2 K0
G1 X63.849
G17 G3 X63.649 Y-36.985 I0 J-0.2
X64.449 Y-36.985 I0.4 J0
X63.649 Y-36.985 I-0.4 J0
X63.849 Y-37.185 I0.2 J0
G1 X63.949
G18 G2 X64.149 Z-0.25 I0 K0.2
G0 Z2.05
Y-36.785
Z1.05
G1 Z-0.75 F100
G3 X63.949 Z-0.95 I-0.2 K0
G1 X63.849
G17 G3 X63.649 Y-36.985 I0 J-0.2
X64.449 Y-36.985 I0.4 J0
X63.649 Y-36.985 I-0.4 J0
X63.849 Y-37.185 I0.2 J0
G1 X63.949
G18 G2 X64.149 Z-0.75 I0 K0.2
G0 Z2.05
Y-36.785
Z0.55
G1 Z-1.25 F100
G3 X63.949 Z-1.45 I-0.2 K0
G1 X63.849
G17 G3 X63.649 Y-36.985 I0 J-0.2
X64.449 Y-36.985 I0.4 J0
X63.649 Y-36.985 I-0.4 J0
X63.849 Y-37.185 I0.2 J0
G1 X63.949
G18 G2 X64.149 Z-1.25 I0 K0.2
G0 Z2.05
Y-36.785
Z0.05
G1 Z-1.75 F100
G3 X63.949 Z-1.95 I-0.2 K0
G1 X63.849
G17 G3 X63.649 Y-36.985 I0 J-0.2
X64.449 Y-36.985 I0.4 J0
X63.649 Y-36.985 I-0.4 J0
X63.849 Y-37.185 I0.2 J0
G1 X63.949
G18 G2 X64.149 Z-1.75 I0 K0.2
G0 Z2.05
Y-36.785
Z-0.45
G1 Z-2.25 F100
G3 X63.949 Z-2.45 I-0.2 K0
G1 X63.849
G17 G3 X63.649 Y-36.985 I0 J-0.2
X64.449 Y-36.985 I0.4 J0
X63.649 Y-36.985 I-0.4 J0
X63.849 Y-37.185 I0.2 J0
G1 X63.949
G18 G2 X64.149 Z-2.25 I0 K0.2
G0 Z2.05
Y-36.785
Z-0.85
G1 Z-2.65 F100
G3 X63.949 Z-2.85 I-0.2 K0
G1 X63.849
G17 G3 X63.649 Y-36.985 I0 J-0.2
X64.449 Y-36.985 I0.4 J0
X63.649 Y-36.985 I-0.4 J0
X63.849 Y-37.185 I0.2 J0
G1 X63.949
G18 G2 X64.149 Z-2.65 I0 K0.2
G0 Z2.05
Y-36.785
Z-1.25
G1 Z-3.05 F100
G3 X63.949 Z-3.25 I-0.2 K0
G1 X63.849
G17 G3 X63.649 Y-36.985 I0 J-0.2
X64.449 Y-36.985 I0.4 J0
X63.649 Y-36.985 I-0.4 J0
X63.849 Y-37.185 I0.2 J0
G1 X63.949
G18 G2 X64.149 Z-3.05 I0 K0.2
G0 Z2.05
X54.149 Y-36.785
Z1.55
G1 Z-0.25 F100
G3 X53.949 Z-0.45 I-0.2 K0
G1 X53.849
G17 G3 X53.649 Y-36.985 I0 J-0.2
X54.449 Y-36.985 I0.4 J0
X53.649 Y-36.985 I-0.4 J0
X53.849 Y-37.185 I0.2 J0
G1 X53.949
G18 G2 X54.149 Z-0.25 I0 K0.2
G0 Z2.05
Y-36.785
Z1.05
G1 Z-0.75 F100
G3 X53.949 Z-0.95 I-0.2 K0
G1 X53.849
G17 G3 X53.649 Y-36.985 I0 J-0.2
X54.449 Y-36.985 I0.4 J0
X53.649 Y-36.985 I-0.4 J0
X53.849 Y-37.185 I0.2 J0
G1 X53.949
G18 G2 X54.149 Z-0.75 I0 K0.2
G0 Z2.05
Y-36.785
Z0.55
G1 Z-1.25 F100
G3 X53.949 Z-1.45 I-0.2 K0
G1 X53.849
G17 G3 X53.649 Y-36.985 I0 J-0.2
X54.449 Y-36.985 I0.4 J0
X53.649 Y-36.985 I-0.4 J0
X53.849 Y-37.185 I0.2 J0
G1 X53.949
G18 G2 X54.149 Z-1.25 I0 K0.2
G0 Z2.05
Y-36.785
Z0.05
G1 Z-1.75 F100
G3 X53.949 Z-1.95 I-0.2 K0
G1 X53.849
G17 G3 X53.649 Y-36.985 I0 J-0.2
X54.449 Y-36.985 I0.4 J0
X53.649 Y-36.985 I-0.4 J0
X53.849 Y-37.185 I0.2 J0
G1 X53.949
G18 G2 X54.149 Z-1.75 I0 K0.2
G0 Z2.05
Y-36.785
Z-0.45
G1 Z-2.25 F100
G3 X53.949 Z-2.45 I-0.2 K0
G1 X53.849
G17 G3 X53.649 Y-36.985 I0 J-0.2
X54.449 Y-36.985 I0.4 J0
X53.649 Y-36.985 I-0.4 J0
X53.849 Y-37.185 I0.2 J0
G1 X53.949
G18 G2 X54.149 Z-2.25 I0 K0.2
G0 Z2.05
Y-36.785
Z-0.85
G1 Z-2.65 F100
G3 X53.949 Z-2.85 I-0.2 K0
G1 X53.849
G17 G3 X53.649 Y-36.985 I0 J-0.2
X54.449 Y-36.985 I0.4 J0
X53.649 Y-36.985 I-0.4 J0
X53.849 Y-37.185 I0.2 J0
G1 X53.949
G18 G2 X54.149 Z-2.65 I0 K0.2
G0 Z2.05
Y-36.785
Z-1.25
G1 Z-3.05 F100
G3 X53.949 Z-3.25 I-0.2 K0
G1 X53.849
G17 G3 X53.649 Y-36.985 I0 J-0.2
X54.449 Y-36.985 I0.4 J0
X53.649 Y-36.985 I-0.4 J0
X53.849 Y-37.185 I0.2 J0
G1 X53.949
G18 G2 X54.149 Z-3.05 I0 K0.2
G0 Z2.05
X80.05 Y5.727
Z1.55
G1 Z-0.25 F100
G3 X79.85 Z-0.45 I-0.2 K0
G1 X79.75
G17 G3 X79.55 Y5.527 I0 J-0.2
X80.45 Y5.527 I0.45 J0
X79.55 Y5.527 I-0.45 J0
X79.75 Y5.327 I0.2 J0
G1 X79.85
G18 G2 X80.05 Z-0.25 I0 K0.2
G0 Z2.05
Y5.727
Z1.05
G1 Z-0.75 F100
G3 X79.85 Z-0.95 I-0.2 K0
G1 X79.75
G17 G3 X79.55 Y5.527 I0 J-0.2
X80.45 Y5.527 I0.45 J0
X79.55 Y5.527 I-0.45 J0
X79.75 Y5.327 I0.2 J0
G1 X79.85
G18 G2 X80.05 Z-0.75 I0 K0.2
G0 Z2.05
Y5.727
Z0.55
G1 Z-1.25 F100
G3 X79.85 Z-1.45 I-0.2 K0
G1 X79.75
G17 G3 X79.55 Y5.527 I0 J-0.2
X80.45 Y5.527 I0.45 J0
X79.55 Y5.527 I-0.45 J0
X79.75 Y5.327 I0.2 J0
G1 X79.85
G18 G2 X80.05 Z-1.25 I0 K0.2
G0 Z2.05
Y5.727
Z0.05
G1 Z-1.75 F100
G3 X79.85 Z-1.95 I-0.2 K0
G1 X79.75
G17 G3 X79.55 Y5.527 I0 J-0.2
X80.45 Y5.527 I0.45 J0
X79.55 Y5.527 I-0.45 J0
X79.75 Y5.327 I0.2 J0
G1 X79.85
G18 G2 X80.05 Z-1.75 I0 K0.2
G0 Z2.05
Y5.727
Z-0.45
G1 Z-2.25 F100
G3 X79.85 Z-2.45 I-0.2 K0
G1 X79.75
G17 G3 X79.55 Y5.527 I0 J-0.2
X80.45 Y5.527 I0.45 J0
X79.55 Y5.527 I-0.45 J0
X79.75 Y5.327 I0.2 J0
G1 X79.85
G18 G2 X80.05 Z-2.25 I0 K0.2
G0 Z2.05
Y5.727
Z-0.85
G1 Z-2.65 F100
G3 X79.85 Z-2.85 I-0.2 K0
G1 X79.75
G17 G3 X79.55 Y5.527 I0 J-0.2
X80.45 Y5.527 I0.45 J0
X79.55 Y5.527 I-0.45 J0
X79.75 Y5.327 I0.2 J0
G1 X79.85
G18 G2 X80.05 Z-2.65 I0 K0.2
G0 Z2.05
Y5.727
Z-1.25
G1 Z-3.05 F100
G3 X79.85 Z-3.25 I-0.2 K0
G1 X79.75
G17 G3 X79.55 Y5.527 I0 J-0.2
X80.45 Y5.527 I0.45 J0
X79.55 Y5.527 I-0.45 J0
X79.75 Y5.327 I0.2 J0
G1 X79.85
G18 G2 X80.05 Z-3.05 I0 K0.2
G0 Z2.05
Y-5.273
Z1.55
G1 Z-0.25 F100
G3 X79.85 Z-0.45 I-0.2 K0
G1 X79.75
G17 G3 X79.55 Y-5.473 I0 J-0.2
X80.45 Y-5.473 I0.45 J0
X79.55 Y-5.473 I-0.45 J0
X79.75 Y-5.673 I0.2 J0
G1 X79.85
G18 G2 X80.05 Z-0.25 I0 K0.2
G0 Z2.05
Y-5.273
Z1.05
G1 Z-0.75 F100
G3 X79.85 Z-0.95 I-0.2 K0
G1 X79.75
G17 G3 X79.55 Y-5.473 I0 J-0.2
X80.45 Y-5.473 I0.45 J0
X79.55 Y-5.473 I-0.45 J0
X79.75 Y-5.673 I0.2 J0
G1 X79.85
G18 G2 X80.05 Z-0.75 I0 K0.2
G0 Z2.05
Y-5.273
Z0.55
G1 Z-1.25 F100
G3 X79.85 Z-1.45 I-0.2 K0
G1 X79.75
G17 G3 X79.55 Y-5.473 I0 J-0.2
X80.45 Y-5.473 I0.45 J0
X79.55 Y-5.473 I-0.45 J0
X79.75 Y-5.673 I0.2 J0
G1 X79.85
G18 G2 X80.05 Z-1.25 I0 K0.2
G0 Z2.05
Y-5.273
Z0.05
G1 Z-1.75 F100
G3 X79.85 Z-1.95 I-0.2 K0
G1 X79.75
G17 G3 X79.55 Y-5.473 I0 J-0.2
X80.45 Y-5.473 I0.45 J0
X79.55 Y-5.473 I-0.45 J0
X79.75 Y-5.673 I0.2 J0
G1 X79.85
G18 G2 X80.05 Z-1.75 I0 K0.2
G0 Z2.05
Y-5.273
Z-0.45
G1 Z-2.25 F100
G3 X79.85 Z-2.45 I-0.2 K0
G1 X79.75
G17 G3 X79.55 Y-5.473 I0 J-0.2
X80.45 Y-5.473 I0.45 J0
X79.55 Y-5.473 I-0.45 J0
X79.75 Y-5.673 I0.2 J0
G1 X79.85
G18 G2 X80.05 Z-2.25 I0 K0.2
G0 Z2.05
Y-5.273
Z-0.85
G1 Z-2.65 F100
G3 X79.85 Z-2.85 I-0.2 K0
G1 X79.75
G17 G3 X79.55 Y-5.473 I0 J-0.2
X80.45 Y-5.473 I0.45 J0
X79.55 Y-5.473 I-0.45 J0
X79.75 Y-5.673 I0.2 J0
G1 X79.85
G18 G2 X80.05 Z-2.65 I0 K0.2
G0 Z2.05
Y-5.273
Z-1.25
G1 Z-3.05 F100
G3 X79.85 Z-3.25 I-0.2 K0
G1 X79.75
G17 G3 X79.55 Y-5.473 I0 J-0.2
X80.45 Y-5.473 I0.45 J0
X79.55 Y-5.473 I-0.45 J0
X79.75 Y-5.673 I0.2 J0
G1 X79.85
G18 G2 X80.05 Z-3.05 I0 K0.2
G0 Z2.05
X81.37 Y-19.781
Z1.55
G1 Z-0.25 F100
G3 X81.17 Z-0.45 I-0.2 K0
G1 X81.07
G17 G3 X80.87 Y-19.981 I0 J-0.2
X81.67 Y-19.981 I0.4 J0
X80.87 Y-19.981 I-0.4 J0
X81.07 Y-20.181 I0.2 J0
G1 X81.17
G18 G2 X81.37 Z-0.25 I0 K0.2
G0 Z2.05
Y-19.781
Z1.05
G1 Z-0.75 F100
G3 X81.17 Z-0.95 I-0.2 K0
G1 X81.07
G17 G3 X80.87 Y-19.981 I0 J-0.2
X81.67 Y-19.981 I0.4 J0
X80.87 Y-19.981 I-0.4 J0
X81.07 Y-20.181 I0.2 J0
G1 X81.17
G18 G2 X81.37 Z-0.75 I0 K0.2
G0 Z2.05
Y-19.781
Z0.55
G1 Z-1.25 F100
G3 X81.17 Z-1.45 I-0.2 K0
G1 X81.07
G17 G3 X80.87 Y-19.981 I0 J-0.2
X81.67 Y-19.981 I0.4 J0
X80.87 Y-19.981 I-0.4 J0
X81.07 Y-20.181 I0.2 J0
G1 X81.17
G18 G2 X81.37 Z-1.25 I0 K0.2
G0 Z2.05
Y-19.781
Z0.05
G1 Z-1.75 F100
G3 X81.17 Z-1.95 I-0.2 K0
G1 X81.07
G17 G3 X80.87 Y-19.981 I0 J-0.2
X81.67 Y-19.981 I0.4 J0
X80.87 Y-19.981 I-0.4 J0
X81.07 Y-20.181 I0.2 J0
G1 X81.17
G18 G2 X81.37 Z-1.75 I0 K0.2
G0 Z2.05
Y-19.781
Z-0.45
G1 Z-2.25 F100
G3 X81.17 Z-2.45 I-0.2 K0
G1 X81.07
G17 G3 X80.87 Y-19.981 I0 J-0.2
X81.67 Y-19.981 I0.4 J0
X80.87 Y-19.981 I-0.4 J0
X81.07 Y-20.181 I0.2 J0
G1 X81.17
G18 G2 X81.37 Z-2.25 I0 K0.2
G0 Z2.05
Y-19.781
Z-0.85
G1 Z-2.65 F100
G3 X81.17 Z-2.85 I-0.2 K0
G1 X81.07
G17 G3 X80.87 Y-19.981 I0 J-0.2
X81.67 Y-19.981 I0.4 J0
X80.87 Y-19.981 I-0.4 J0
X81.07 Y-20.181 I0.2 J0
G1 X81.17
G18 G2 X81.37 Z-2.65 I0 K0.2
G0 Z2.05
Y-19.781
Z-1.25
G1 Z-3.05 F100
G3 X81.17 Z-3.25 I-0.2 K0
G1 X81.07
G17 G3 X80.87 Y-19.981 I0 J-0.2
X81.67 Y-19.981 I0.4 J0
X80.87 Y-19.981 I-0.4 J0
X81.07 Y-20.181 I0.2 J0
G1 X81.17
G18 G2 X81.37 Z-3.05 I0 K0.2
G0 Z2.05
X94.37 Y-19.781
Z1.55
G1 Z-0.25 F100
G3 X94.17 Z-0.45 I-0.2 K0
G1 X94.07
G17 G3 X93.87 Y-19.981 I0 J-0.2
X94.67 Y-19.981 I0.4 J0
X93.87 Y-19.981 I-0.4 J0
X94.07 Y-20.181 I0.2 J0
G1 X94.17
G18 G2 X94.37 Z-0.25 I0 K0.2
G0 Z2.05
Y-19.781
Z1.05
G1 Z-0.75 F100
G3 X94.17 Z-0.95 I-0.2 K0
G1 X94.07
G17 G3 X93.87 Y-19.981 I0 J-0.2
X94.67 Y-19.981 I0.4 J0
X93.87 Y-19.981 I-0.4 J0
X94.07 Y-20.181 I0.2 J0
G1 X94.17
G18 G2 X94.37 Z-0.75 I0 K0.2
G0 Z2.05
Y-19.781
Z0.55
G1 Z-1.25 F100
G3 X94.17 Z-1.45 I-0.2 K0
G1 X94.07
G17 G3 X93.87 Y-19.981 I0 J-0.2
X94.67 Y-19.981 I0.4 J0
X93.87 Y-19.981 I-0.4 J0
X94.07 Y-20.181 I0.2 J0
G1 X94.17
G18 G2 X94.37 Z-1.25 I0 K0.2
G0 Z2.05
Y-19.781
Z0.05
G1 Z-1.75 F100
G3 X94.17 Z-1.95 I-0.2 K0
G1 X94.07
G17 G3 X93.87 Y-19.981 I0 J-0.2
X94.67 Y-19.981 I0.4 J0
X93.87 Y-19.981 I-0.4 J0
X94.07 Y-20.181 I0.2 J0
G1 X94.17
G18 G2 X94.37 Z-1.75 I0 K0.2
G0 Z2.05
Y-19.781
Z-0.45
G1 Z-2.25 F100
G3 X94.17 Z-2.45 I-0.2 K0
G1 X94.07
G17 G3 X93.87 Y-19.981 I0 J-0.2
X94.67 Y-19.981 I0.4 J0
X93.87 Y-19.981 I-0.4 J0
X94.07 Y-20.181 I0.2 J0
G1 X94.17
G18 G2 X94.37 Z-2.25 I0 K0.2
G0 Z2.05
Y-19.781
Z-0.85
G1 Z-2.65 F100
G3 X94.17 Z-2.85 I-0.2 K0
G1 X94.07
G17 G3 X93.87 Y-19.981 I0 J-0.2
X94.67 Y-19.981 I0.4 J0
X93.87 Y-19.981 I-0.4 J0
X94.07 Y-20.181 I0.2 J0
G1 X94.17
G18 G2 X94.37 Z-2.65 I0 K0.2
G0 Z2.05
Y-19.781
Z-1.25
G1 Z-3.05 F100
G3 X94.17 Z-3.25 I-0.2 K0
G1 X94.07
G17 G3 X93.87 Y-19.981 I0 J-0.2
X94.67 Y-19.981 I0.4 J0
X93.87 Y-19.981 I-0.4 J0
X94.07 Y-20.181 I0.2 J0
G1 X94.17
G18 G2 X94.37 Z-3.05 I0 K0.2
G0 Z2.05
X113.37 Y-19.781
Z1.55
G1 Z-0.25 F100
G3 X113.17 Z-0.45 I-0.2 K0
G1 X113.07
G17 G3 X112.87 Y-19.981 I0 J-0.2
X113.67 Y-19.981 I0.4 J0
X112.87 Y-19.981 I-0.4 J0
X113.07 Y-20.181 I0.2 J0
G1 X113.17
G18 G2 X113.37 Z-0.25 I0 K0.2
G0 Z2.05
Y-19.781
Z1.05
G1 Z-0.75 F100
G3 X113.17 Z-0.95 I-0.2 K0
G1 X113.07
G17 G3 X112.87 Y-19.981 I0 J-0.2
X113.67 Y-19.981 I0.4 J0
X112.87 Y-19.981 I-0.4 J0
X113.07 Y-20.181 I0.2 J0
G1 X113.17
G18 G2 X113.37 Z-0.75 I0 K0.2
G0 Z2.05
Y-19.781
Z0.55
G1 Z-1.25 F100
G3 X113.17 Z-1.45 I-0.2 K0
G1 X113.07
G17 G3 X112.87 Y-19.981 I0 J-0.2
X113.67 Y-19.981 I0.4 J0
X112.87 Y-19.981 I-0.4 J0
X113.07 Y-20.181 I0.2 J0
G1 X113.17
G18 G2 X113.37 Z-1.25 I0 K0.2
G0 Z2.05
Y-19.781
Z0.05
G1 Z-1.75 F100
G3 X113.17 Z-1.95 I-0.2 K0
G1 X113.07
G17 G3 X112.87 Y-19.981 I0 J-0.2
X113.67 Y-19.981 I0.4 J0
X112.87 Y-19.981 I-0.4 J0
X113.07 Y-20.181 I0.2 J0
G1 X113.17
G18 G2 X113.37 Z-1.75 I0 K0.2
G0 Z2.05
Y-19.781
Z-0.45
G1 Z-2.25 F100
G3 X113.17 Z-2.45 I-0.2 K0
G1 X113.07
G17 G3 X112.87 Y-19.981 I0 J-0.2
X113.67 Y-19.981 I0.4 J0
X112.87 Y-19.981 I-0.4 J0
X113.07 Y-20.181 I0.2 J0
G1 X113.17
G18 G2 X113.37 Z-2.25 I0 K0.2
G0 Z2.05
Y-19.781
Z-0.85
G1 Z-2.65 F100
G3 X113.17 Z-2.85 I-0.2 K0
G1 X113.07
G17 G3 X112.87 Y-19.981 I0 J-0.2
X113.67 Y-19.981 I0.4 J0
X112.87 Y-19.981 I-0.4 J0
X113.07 Y-20.181 I0.2 J0
G1 X113.17
G18 G2 X113.37 Z-2.65 I0 K0.2
G0 Z2.05
Y-19.781
Z-1.25
G1 Z-3.05 F100
G3 X113.17 Z-3.25 I-0.2 K0
G1 X113.07
G17 G3 X112.87 Y-19.981 I0 J-0.2
X113.67 Y-19.981 I0.4 J0
X112.87 Y-19.981 I-0.4 J0
X113.07 Y-20.181 I0.2 J0
G1 X113.17
G18 G2 X113.37 Z-3.05 I0 K0.2
G0 Z2.05
X126.37 Y-19.781
Z1.55
G1 Z-0.25 F100
G3 X126.17 Z-0.45 I-0.2 K0
G1 X126.07
G17 G3 X125.87 Y-19.981 I0 J-0.2
X126.67 Y-19.981 I0.4 J0
X125.87 Y-19.981 I-0.4 J0
X126.07 Y-20.181 I0.2 J0
G1 X126.17
G18 G2 X126.37 Z-0.25 I0 K0.2
G0 Z2.05
Y-19.781
Z1.05
G1 Z-0.75 F100
G3 X126.17 Z-0.95 I-0.2 K0
G1 X126.07
G17 G3 X125.87 Y-19.981 I0 J-0.2
X126.67 Y-19.981 I0.4 J0
X125.87 Y-19.981 I-0.4 J0
X126.07 Y-20.181 I0.2 J0
G1 X126.17
G18 G2 X126.37 Z-0.75 I0 K0.2
G0 Z2.05
Y-19.781
Z0.55
G1 Z-1.25 F100
G3 X126.17 Z-1.45 I-0.2 K0
G1 X126.07
G17 G3 X125.87 Y-19.981 I0 J-0.2
X126.67 Y-19.981 I0.4 J0
X125.87 Y-19.981 I-0.4 J0
X126.07 Y-20.181 I0.2 J0
G1 X126.17
G18 G2 X126.37 Z-1.25 I0 K0.2
G0 Z2.05
Y-19.781
Z0.05
G1 Z-1.75 F100
G3 X126.17 Z-1.95 I-0.2 K0
G1 X126.07
G17 G3 X125.87 Y-19.981 I0 J-0.2
X126.67 Y-19.981 I0.4 J0
X125.87 Y-19.981 I-0.4 J0
X126.07 Y-20.181 I0.2 J0
G1 X126.17
G18 G2 X126.37 Z-1.75 I0 K0.2
G0 Z2.05
Y-19.781
Z-0.45
G1 Z-2.25 F100
G3 X126.17 Z-2.45 I-0.2 K0
G1 X126.07
G17 G3 X125.87 Y-19.981 I0 J-0.2
X126.67 Y-19.981 I0.4 J0
X125.87 Y-19.981 I-0.4 J0
X126.07 Y-20.181 I0.2 J0
G1 X126.17
G18 G2 X126.37 Z-2.25 I0 K0.2
G0 Z2.05
Y-19.781
Z-0.85
G1 Z-2.65 F100
G3 X126.17 Z-2.85 I-0.2 K0
G1 X126.07
G17 G3 X125.87 Y-19.981 I0 J-0.2
X126.67 Y-19.981 I0.4 J0
X125.87 Y-19.981 I-0.4 J0
X126.07 Y-20.181 I0.2 J0
G1 X126.17
G18 G2 X126.37 Z-2.65 I0 K0.2
G0 Z2.05
Y-19.781
Z-1.25
G1 Z-3.05 F100
G3 X126.17 Z-3.25 I-0.2 K0
G1 X126.07
G17 G3 X125.87 Y-19.981 I0 J-0.2
X126.67 Y-19.981 I0.4 J0
X125.87 Y-19.981 I-0.4 J0
X126.07 Y-20.181 I0.2 J0
G1 X126.17
G18 G2 X126.37 Z-3.05 I0 K0.2
G0 Z2.05
X130.05 Y-5.273
Z1.55
G1 Z-0.25 F100
G3 X129.85 Z-0.45 I-0.2 K0
G1 X129.75
G17 G3 X129.55 Y-5.473 I0 J-0.2
X130.45 Y-5.473 I0.45 J0
X129.55 Y-5.473 I-0.45 J0
X129.75 Y-5.673 I0.2 J0
G1 X129.85
G18 G2 X130.05 Z-0.25 I0 K0.2
G0 Z2.05
Y-5.273
Z1.05
G1 Z-0.75 F100
G3 X129.85 Z-0.95 I-0.2 K0
G1 X129.75
G17 G3 X129.55 Y-5.473 I0 J-0.2
X130.45 Y-5.473 I0.45 J0
X129.55 Y-5.473 I-0.45 J0
X129.75 Y-5.673 I0.2 J0
G1 X129.85
G18 G2 X130.05 Z-0.75 I0 K0.2
G0 Z2.05
Y-5.273
Z0.55
G1 Z-1.25 F100
G3 X129.85 Z-1.45 I-0.2 K0
G1 X129.75
G17 G3 X129.55 Y-5.473 I0 J-0.2
X130.45 Y-5.473 I0.45 J0
X129.55 Y-5.473 I-0.45 J0
X129.75 Y-5.673 I0.2 J0
G1 X129.85
G18 G2 X130.05 Z-1.25 I0 K0.2
G0 Z2.05
Y-5.273
Z0.05
G1 Z-1.75 F100
G3 X129.85 Z-1.95 I-0.2 K0
G1 X129.75
G17 G3 X129.55 Y-5.473 I0 J-0.2
X130.45 Y-5.473 I0.45 J0
X129.55 Y-5.473 I-0.45 J0
X129.75 Y-5.673 I0.2 J0
G1 X129.85
G18 G2 X130.05 Z-1.75 I0 K0.2
G0 Z2.05
Y-5.273
Z-0.45
G1 Z-2.25 F100
G3 X129.85 Z-2.45 I-0.2 K0
G1 X129.75
G17 G3 X129.55 Y-5.473 I0 J-0.2
X130.45 Y-5.473 I0.45 J0
X129.55 Y-5.473 I-0.45 J0
X129.75 Y-5.673 I0.2 J0
G1 X129.85
G18 G2 X130.05 Z-2.25 I0 K0.2
G0 Z2.05
Y-5.273
Z-0.85
G1 Z-2.65 F100
G3 X129.85 Z-2.85 I-0.2 K0
G1 X129.75
G17 G3 X129.55 Y-5.473 I0 J-0.2
X130.45 Y-5.473 I0.45 J0
X129.55 Y-5.473 I-0.45 J0
X129.75 Y-5.673 I0.2 J0
G1 X129.85
G18 G2 X130.05 Z-2.65 I0 K0.2
G0 Z2.05
Y-5.273
Z-1.25
G1 Z-3.05 F100
G3 X129.85 Z-3.25 I-0.2 K0
G1 X129.75
G17 G3 X129.55 Y-5.473 I0 J-0.2
X130.45 Y-5.473 I0.45 J0
X129.55 Y-5.473 I-0.45 J0
X129.75 Y-5.673 I0.2 J0
G1 X129.85
G18 G2 X130.05 Z-3.05 I0 K0.2
G0 Z2.05
Y5.727
Z1.55
G1 Z-0.25 F100
G3 X129.85 Z-0.45 I-0.2 K0
G1 X129.75
G17 G3 X129.55 Y5.527 I0 J-0.2
X130.45 Y5.527 I0.45 J0
X129.55 Y5.527 I-0.45 J0
X129.75 Y5.327 I0.2 J0
G1 X129.85
G18 G2 X130.05 Z-0.25 I0 K0.2
G0 Z2.05
Y5.727
Z1.05
G1 Z-0.75 F100
G3 X129.85 Z-0.95 I-0.2 K0
G1 X129.75
G17 G3 X129.55 Y5.527 I0 J-0.2
X130.45 Y5.527 I0.45 J0
X129.55 Y5.527 I-0.45 J0
X129.75 Y5.327 I0.2 J0
G1 X129.85
G18 G2 X130.05 Z-0.75 I0 K0.2
G0 Z2.05
Y5.727
Z0.55
G1 Z-1.25 F100
G3 X129.85 Z-1.45 I-0.2 K0
G1 X129.75
G17 G3 X129.55 Y5.527 I0 J-0.2
X130.45 Y5.527 I0.45 J0
X129.55 Y5.527 I-0.45 J0
X129.75 Y5.327 I0.2 J0
G1 X129.85
G18 G2 X130.05 Z-1.25 I0 K0.2
G0 Z2.05
Y5.727
Z0.05
G1 Z-1.75 F100
G3 X129.85 Z-1.95 I-0.2 K0
G1 X129.75
G17 G3 X129.55 Y5.527 I0 J-0.2
X130.45 Y5.527 I0.45 J0
X129.55 Y5.527 I-0.45 J0
X129.75 Y5.327 I0.2 J0
G1 X129.85
G18 G2 X130.05 Z-1.75 I0 K0.2
G0 Z2.05
Y5.727
Z-0.45
G1 Z-2.25 F100
G3 X129.85 Z-2.45 I-0.2 K0
G1 X129.75
G17 G3 X129.55 Y5.527 I0 J-0.2
X130.45 Y5.527 I0.45 J0
X129.55 Y5.527 I-0.45 J0
X129.75 Y5.327 I0.2 J0
G1 X129.85
G18 G2 X130.05 Z-2.25 I0 K0.2
G0 Z2.05
Y5.727
Z-0.85
G1 Z-2.65 F100
G3 X129.85 Z-2.85 I-0.2 K0
G1 X129.75
G17 G3 X129.55 Y5.527 I0 J-0.2
X130.45 Y5.527 I0.45 J0
X129.55 Y5.527 I-0.45 J0
X129.75 Y5.327 I0.2 J0
G1 X129.85
G18 G2 X130.05 Z-2.65 I0 K0.2
G0 Z2.05
Y5.727
Z-1.25
G1 Z-3.05 F100
G3 X129.85 Z-3.25 I-0.2 K0
G1 X129.75
G17 G3 X129.55 Y5.527 I0 J-0.2
X130.45 Y5.527 I0.45 J0
X129.55 Y5.527 I-0.45 J0
X129.75 Y5.327 I0.2 J0
G1 X129.85
G18 G2 X130.05 Z-3.05 I0 K0.2
G0 Z2.05
X121.358 Y20.219
Z1.55
G1 Z-0.25 F100
G3 X121.158 Z-0.45 I-0.2 K0
G1 X121.058
G17 G3 X120.858 Y20.019 I0 J-0.2
X121.658 Y20.019 I0.4 J0
X120.858 Y20.019 I-0.4 J0
X121.058 Y19.819 I0.2 J0
G1 X121.158
G18 G2 X121.358 Z-0.25 I0 K0.2
G0 Z2.05
Y20.219
Z1.05
G1 Z-0.75 F100
G3 X121.158 Z-0.95 I-0.2 K0
G1 X121.058
G17 G3 X120.858 Y20.019 I0 J-0.2
X121.658 Y20.019 I0.4 J0
X120.858 Y20.019 I-0.4 J0
X121.058 Y19.819 I0.2 J0
G1 X121.158
G18 G2 X121.358 Z-0.75 I0 K0.2
G0 Z2.05
Y20.219
Z0.55
G1 Z-1.25 F100
G3 X121.158 Z-1.45 I-0.2 K0
G1 X121.058
G17 G3 X120.858 Y20.019 I0 J-0.2
X121.658 Y20.019 I0.4 J0
X120.858 Y20.019 I-0.4 J0
X121.058 Y19.819 I0.2 J0
G1 X121.158
G18 G2 X121.358 Z-1.25 I0 K0.2
G0 Z2.05
Y20.219
Z0.05
G1 Z-1.75 F100
G3 X121.158 Z-1.95 I-0.2 K0
G1 X121.058
G17 G3 X120.858 Y20.019 I0 J-0.2
X121.658 Y20.019 I0.4 J0
X120.858 Y20.019 I-0.4 J0
X121.058 Y19.819 I0.2 J0
G1 X121.158
G18 G2 X121.358 Z-1.75 I0 K0.2
G0 Z2.05
Y20.219
Z-0.45
G1 Z-2.25 F100
G3 X121.158 Z-2.45 I-0.2 K0
G1 X121.058
G17 G3 X120.858 Y20.019 I0 J-0.2
X121.658 Y20.019 I0.4 J0
X120.858 Y20.019 I-0.4 J0
X121.058 Y19.819 I0.2 J0
G1 X121.158
G18 G2 X121.358 Z-2.25 I0 K0.2
G0 Z2.05
Y20.219
Z-0.85
G1 Z-2.65 F100
G3 X121.158 Z-2.85 I-0.2 K0
G1 X121.058
G17 G3 X120.858 Y20.019 I0 J-0.2
X121.658 Y20.019 I0.4 J0
X120.858 Y20.019 I-0.4 J0
X121.058 Y19.819 I0.2 J0
G1 X121.158
G18 G2 X121.358 Z-2.65 I0 K0.2
G0 Z2.05
Y20.219
Z-1.25
G1 Z-3.05 F100
G3 X121.158 Z-3.25 I-0.2 K0
G1 X121.058
G17 G3 X120.858 Y20.019 I0 J-0.2
X121.658 Y20.019 I0.4 J0
X120.858 Y20.019 I-0.4 J0
X121.058 Y19.819 I0.2 J0
G1 X121.158
G18 G2 X121.358 Z-3.05 I0 K0.2
G0 Z2.05
X108.358 Y20.219
Z1.55
G1 Z-0.25 F100
G3 X108.158 Z-0.45 I-0.2 K0
G1 X108.058
G17 G3 X107.858 Y20.019 I0 J-0.2
X108.658 Y20.019 I0.4 J0
X107.858 Y20.019 I-0.4 J0
X108.058 Y19.819 I0.2 J0
G1 X108.158
G18 G2 X108.358 Z-0.25 I0 K0.2
G0 Z2.05
Y20.219
Z1.05
G1 Z-0.75 F100
G3 X108.158 Z-0.95 I-0.2 K0
G1 X108.058
G17 G3 X107.858 Y20.019 I0 J-0.2
X108.658 Y20.019 I0.4 J0
X107.858 Y20.019 I-0.4 J0
X108.058 Y19.819 I0.2 J0
G1 X108.158
G18 G2 X108.358 Z-0.75 I0 K0.2
G0 Z2.05
Y20.219
Z0.55
G1 Z-1.25 F100
G3 X108.158 Z-1.45 I-0.2 K0
G1 X108.058
G17 G3 X107.858 Y20.019 I0 J-0.2
X108.658 Y20.019 I0.4 J0
X107.858 Y20.019 I-0.4 J0
X108.058 Y19.819 I0.2 J0
G1 X108.158
G18 G2 X108.358 Z-1.25 I0 K0.2
G0 Z2.05
Y20.219
Z0.05
G1 Z-1.75 F100
G3 X108.158 Z-1.95 I-0.2 K0
G1 X108.058
G17 G3 X107.858 Y20.019 I0 J-0.2
X108.658 Y20.019 I0.4 J0
X107.858 Y20.019 I-0.4 J0
X108.058 Y19.819 I0.2 J0
G1 X108.158
G18 G2 X108.358 Z-1.75 I0 K0.2
G0 Z2.05
Y20.219
Z-0.45
G1 Z-2.25 F100
G3 X108.158 Z-2.45 I-0.2 K0
G1 X108.058
G17 G3 X107.858 Y20.019 I0 J-0.2
X108.658 Y20.019 I0.4 J0
X107.858 Y20.019 I-0.4 J0
X108.058 Y19.819 I0.2 J0
G1 X108.158
G18 G2 X108.358 Z-2.25 I0 K0.2
G0 Z2.05
Y20.219
Z-0.85
G1 Z-2.65 F100
G3 X108.158 Z-2.85 I-0.2 K0
G1 X108.058
G17 G3 X107.858 Y20.019 I0 J-0.2
X108.658 Y20.019 I0.4 J0
X107.858 Y20.019 I-0.4 J0
X108.058 Y19.819 I0.2 J0
G1 X108.158
G18 G2 X108.358 Z-2.65 I0 K0.2
G0 Z2.05
Y20.219
Z-1.25
G1 Z-3.05 F100
G3 X108.158 Z-3.25 I-0.2 K0
G1 X108.058
G17 G3 X107.858 Y20.019 I0 J-0.2
X108.658 Y20.019 I0.4 J0
X107.858 Y20.019 I-0.4 J0
X108.058 Y19.819 I0.2 J0
G1 X108.158
G18 G2 X108.358 Z-3.05 I0 K0.2
G0 Z2.05
X108.354 Y35.219
Z1.55
G1 Z-0.25 F100
G3 X108.154 Z-0.45 I-0.2 K0
G1 X108.054
G17 G3 X107.854 Y35.019 I0 J-0.2
X108.654 Y35.019 I0.4 J0
X107.854 Y35.019 I-0.4 J0
X108.054 Y34.819 I0.2 J0
G1 X108.154
G18 G2 X108.354 Z-0.25 I0 K0.2
G0 Z2.05
Y35.219
Z1.05
G1 Z-0.75 F100
G3 X108.154 Z-0.95 I-0.2 K0
G1 X108.054
G17 G3 X107.854 Y35.019 I0 J-0.2
X108.654 Y35.019 I0.4 J0
X107.854 Y35.019 I-0.4 J0
X108.054 Y34.819 I0.2 J0
G1 X108.154
G18 G2 X108.354 Z-0.75 I0 K0.2
G0 Z2.05
Y35.219
Z0.55
G1 Z-1.25 F100
G3 X108.154 Z-1.45 I-0.2 K0
G1 X108.054
G17 G3 X107.854 Y35.019 I0 J-0.2
X108.654 Y35.019 I0.4 J0
X107.854 Y35.019 I-0.4 J0
X108.054 Y34.819 I0.2 J0
G1 X108.154
G18 G2 X108.354 Z-1.25 I0 K0.2
G0 Z2.05
Y35.219
Z0.05
G1 Z-1.75 F100
G3 X108.154 Z-1.95 I-0.2 K0
G1 X108.054
G17 G3 X107.854 Y35.019 I0 J-0.2
X108.654 Y35.019 I0.4 J0
X107.854 Y35.019 I-0.4 J0
X108.054 Y34.819 I0.2 J0
G1 X108.154
G18 G2 X108.354 Z-1.75 I0 K0.2
G0 Z2.05
Y35.219
Z-0.45
G1 Z-2.25 F100
G3 X108.154 Z-2.45 I-0.2 K0
G1 X108.054
G17 G3 X107.854 Y35.019 I0 J-0.2
X108.654 Y35.019 I0.4 J0
X107.854 Y35.019 I-0.4 J0
X108.054 Y34.819 I0.2 J0
G1 X108.154
G18 G2 X108.354 Z-2.25 I0 K0.2
G0 Z2.05
Y35.219
Z-0.85
G1 Z-2.65 F100
G3 X108.154 Z-2.85 I-0.2 K0
G1 X108.054
G17 G3 X107.854 Y35.019 I0 J-0.2
X108.654 Y35.019 I0.4 J0
X107.854 Y35.019 I-0.4 J0
X108.054 Y34.819 I0.2 J0
G1 X108.154
G18 G2 X108.354 Z-2.65 I0 K0.2
G0 Z2.05
Y35.219
Z-1.25
G1 Z-3.05 F100
G3 X108.154 Z-3.25 I-0.2 K0
G1 X108.054
G17 G3 X107.854 Y35.019 I0 J-0.2
X108.654 Y35.019 I0.4 J0
X107.854 Y35.019 I-0.4 J0
X108.054 Y34.819 I0.2 J0
G1 X108.154
G18 G2 X108.354 Z-3.05 I0 K0.2
G0 Z2.05
X121.354 Y35.219
Z1.55
G1 Z-0.25 F100
G3 X121.154 Z-0.45 I-0.2 K0
G1 X121.054
G17 G3 X120.854 Y35.019 I0 J-0.2
X121.654 Y35.019 I0.4 J0
X120.854 Y35.019 I-0.4 J0
X121.054 Y34.819 I0.2 J0
G1 X121.154
G18 G2 X121.354 Z-0.25 I0 K0.2
G0 Z2.05
Y35.219
Z1.05
G1 Z-0.75 F100
G3 X121.154 Z-0.95 I-0.2 K0
G1 X121.054
G17 G3 X120.854 Y35.019 I0 J-0.2
X121.654 Y35.019 I0.4 J0
X120.854 Y35.019 I-0.4 J0
X121.054 Y34.819 I0.2 J0
G1 X121.154
G18 G2 X121.354 Z-0.75 I0 K0.2
G0 Z2.05
Y35.219
Z0.55
G1 Z-1.25 F100
G3 X121.154 Z-1.45 I-0.2 K0
G1 X121.054
G17 G3 X120.854 Y35.019 I0 J-0.2
X121.654 Y35.019 I0.4 J0
X120.854 Y35.019 I-0.4 J0
X121.054 Y34.819 I0.2 J0
G1 X121.154
G18 G2 X121.354 Z-1.25 I0 K0.2
G0 Z2.05
Y35.219
Z0.05
G1 Z-1.75 F100
G3 X121.154 Z-1.95 I-0.2 K0
G1 X121.054
G17 G3 X120.854 Y35.019 I0 J-0.2
X121.654 Y35.019 I0.4 J0
X120.854 Y35.019 I-0.4 J0
X121.054 Y34.819 I0.2 J0
G1 X121.154
G18 G2 X121.354 Z-1.75 I0 K0.2
G0 Z2.05
Y35.219
Z-0.45
G1 Z-2.25 F100
G3 X121.154 Z-2.45 I-0.2 K0
G1 X121.054
G17 G3 X120.854 Y35.019 I0 J-0.2
X121.654 Y35.019 I0.4 J0
X120.854 Y35.019 I-0.4 J0
X121.054 Y34.819 I0.2 J0
G1 X121.154
G18 G2 X121.354 Z-2.25 I0 K0.2
G0 Z2.05
Y35.219
Z-0.85
G1 Z-2.65 F100
G3 X121.154 Z-2.85 I-0.2 K0
G1 X121.054
G17 G3 X120.854 Y35.019 I0 J-0.2
X121.654 Y35.019 I0.4 J0
X120.854 Y35.019 I-0.4 J0
X121.054 Y34.819 I0.2 J0
G1 X121.154
G18 G2 X121.354 Z-2.65 I0 K0.2
G0 Z2.05
Y35.219
Z-1.25
G1 Z-3.05 F100
G3 X121.154 Z-3.25 I-0.2 K0
G1 X121.054
G17 G3 X120.854 Y35.019 I0 J-0.2
X121.654 Y35.019 I0.4 J0
X120.854 Y35.019 I-0.4 J0
X121.054 Y34.819 I0.2 J0
G1 X121.154
G18 G2 X121.354 Z-3.05 I0 K0.2
G0 Z2.05
X130.796 Y43.089
Z1.55
G1 Z-0.25 F100
Y43.083 Z-0.302
Y43.063 Z-0.35
Y43.031 Z-0.391
Y42.989 Z-0.423
Y42.941 Z-0.443
X130.797 Y42.889 Z-0.45
Y42.789
G17 G3 X130.997 Y42.59 I0.2 J0
X130.996 Y43.39 I0 J0.4
X130.997 Y42.59 I0 J-0.4
X131.197 Y42.79 I0 J0.2
G1 Y42.89
Y42.941 Z-0.443
X131.196 Y42.99 Z-0.423
Y43.031 Z-0.391
Y43.063 Z-0.35
Y43.083 Z-0.302
Y43.09 Z-0.25
G0 Z2.05
X130.796 Y43.089
Z1.05
G1 Z-0.75 F100
Y43.083 Z-0.802
Y43.063 Z-0.85
Y43.031 Z-0.891
Y42.989 Z-0.923
Y42.941 Z-0.943
X130.797 Y42.889 Z-0.95
Y42.789
G3 X130.997 Y42.59 I0.2 J0
X130.996 Y43.39 I0 J0.4
X130.997 Y42.59 I0 J-0.4
X131.197 Y42.79 I0 J0.2
G1 Y42.89
Y42.941 Z-0.943
X131.196 Y42.99 Z-0.923
Y43.031 Z-0.891
Y43.063 Z-0.85
Y43.083 Z-0.802
Y43.09 Z-0.75
G0 Z2.05
X130.796 Y43.089
Z0.55
G1 Z-1.25 F100
Y43.083 Z-1.302
Y43.063 Z-1.35
Y43.031 Z-1.391
Y42.989 Z-1.423
Y42.941 Z-1.443
X130.797 Y42.889 Z-1.45
Y42.789
G3 X130.997 Y42.59 I0.2 J0
X130.996 Y43.39 I0 J0.4
X130.997 Y42.59 I0 J-0.4
X131.197 Y42.79 I0 J0.2
G1 Y42.89
Y42.941 Z-1.443
X131.196 Y42.99 Z-1.423
Y43.031 Z-1.391
Y43.063 Z-1.35
Y43.083 Z-1.302
Y43.09 Z-1.25
G0 Z2.05
X130.796 Y43.089
Z0.05
G1 Z-1.75 F100
Y43.083 Z-1.802
Y43.063 Z-1.85
Y43.031 Z-1.891
Y42.989 Z-1.923
Y42.941 Z-1.943
X130.797 Y42.889 Z-1.95
Y42.789
G3 X130.997 Y42.59 I0.2 J0
X130.996 Y43.39 I0 J0.4
X130.997 Y42.59 I0 J-0.4
X131.197 Y42.79 I0 J0.2
G1 Y42.89
Y42.941 Z-1.943
X131.196 Y42.99 Z-1.923
Y43.031 Z-1.891
Y43.063 Z-1.85
Y43.083 Z-1.802
Y43.09 Z-1.75
G0 Z2.05
X130.796 Y43.089
Z-0.45
G1 Z-2.25 F100
Y43.083 Z-2.302
Y43.063 Z-2.35
Y43.031 Z-2.391
Y42.989 Z-2.423
Y42.941 Z-2.443
X130.797 Y42.889 Z-2.45
Y42.789
G3 X130.997 Y42.59 I0.2 J0
X130.996 Y43.39 I0 J0.4
X130.997 Y42.59 I0 J-0.4
X131.197 Y42.79 I0 J0.2
G1 Y42.89
Y42.941 Z-2.443
X131.196 Y42.99 Z-2.423
Y43.031 Z-2.391
Y43.063 Z-2.35
Y43.083 Z-2.302
Y43.09 Z-2.25
G0 Z2.05
X130.796 Y43.089
Z-0.85
G1 Z-2.65 F100
Y43.083 Z-2.702
Y43.063 Z-2.75
Y43.031 Z-2.791
Y42.989 Z-2.823
Y42.941 Z-2.843
X130.797 Y42.889 Z-2.85
Y42.789
G3 X130.997 Y42.59 I0.2 J0
X130.996 Y43.39 I0 J0.4
X130.997 Y42.59 I0 J-0.4
X131.197 Y42.79 I0 J0.2
G1 Y42.89
Y42.941 Z-2.843
X131.196 Y42.99 Z-2.823
Y43.031 Z-2.791
Y43.063 Z-2.75
Y43.083 Z-2.702
Y43.09 Z-2.65
G0 Z2.05
X130.796 Y43.089
Z-1.25
G1 Z-3.05 F100
Y43.083 Z-3.102
Y43.063 Z-3.15
Y43.031 Z-3.191
Y42.989 Z-3.223
Y42.941 Z-3.243
X130.797 Y42.889 Z-3.25
Y42.789
G3 X130.997 Y42.59 I0.2 J0
X130.996 Y43.39 I0 J0.4
X130.997 Y42.59 I0 J-0.4
X131.197 Y42.79 I0 J0.2
G1 Y42.89
Y42.941 Z-3.243
X131.196 Y42.99 Z-3.223
Y43.031 Z-3.191
Y43.063 Z-3.15
Y43.083 Z-3.102
Y43.09 Z-3.05
G0 Z2.05
X126.374 Y63.219
Z1.55
G1 Z-0.25 F100
G18 G3 X126.174 Z-0.45 I-0.2 K0
G1 X126.074
G17 G3 X125.874 Y63.019 I0 J-0.2
X126.674 Y63.019 I0.4 J0
X125.874 Y63.019 I-0.4 J0
X126.074 Y62.819 I0.2 J0
G1 X126.174
G18 G2 X126.374 Z-0.25 I0 K0.2
G0 Z2.05
Y63.219
Z1.05
G1 Z-0.75 F100
G3 X126.174 Z-0.95 I-0.2 K0
G1 X126.074
G17 G3 X125.874 Y63.019 I0 J-0.2
X126.674 Y63.019 I0.4 J0
X125.874 Y63.019 I-0.4 J0
X126.074 Y62.819 I0.2 J0
G1 X126.174
G18 G2 X126.374 Z-0.75 I0 K0.2
G0 Z2.05
Y63.219
Z0.55
G1 Z-1.25 F100
G3 X126.174 Z-1.45 I-0.2 K0
G1 X126.074
G17 G3 X125.874 Y63.019 I0 J-0.2
X126.674 Y63.019 I0.4 J0
X125.874 Y63.019 I-0.4 J0
X126.074 Y62.819 I0.2 J0
G1 X126.174
G18 G2 X126.374 Z-1.25 I0 K0.2
G0 Z2.05
Y63.219
Z0.05
G1 Z-1.75 F100
G3 X126.174 Z-1.95 I-0.2 K0
G1 X126.074
G17 G3 X125.874 Y63.019 I0 J-0.2
X126.674 Y63.019 I0.4 J0
X125.874 Y63.019 I-0.4 J0
X126.074 Y62.819 I0.2 J0
G1 X126.174
G18 G2 X126.374 Z-1.75 I0 K0.2
G0 Z2.05
Y63.219
Z-0.45
G1 Z-2.25 F100
G3 X126.174 Z-2.45 I-0.2 K0
G1 X126.074
G17 G3 X125.874 Y63.019 I0 J-0.2
X126.674 Y63.019 I0.4 J0
X125.874 Y63.019 I-0.4 J0
X126.074 Y62.819 I0.2 J0
G1 X126.174
G18 G2 X126.374 Z-2.25 I0 K0.2
G0 Z2.05
Y63.219
Z-0.85
G1 Z-2.65 F100
G3 X126.174 Z-2.85 I-0.2 K0
G1 X126.074
G17 G3 X125.874 Y63.019 I0 J-0.2
X126.674 Y63.019 I0.4 J0
X125.874 Y63.019 I-0.4 J0
X126.074 Y62.819 I0.2 J0
G1 X126.174
G18 G2 X126.374 Z-2.65 I0 K0.2
G0 Z2.05
Y63.219
Z-1.25
G1 Z-3.05 F100
G3 X126.174 Z-3.25 I-0.2 K0
G1 X126.074
G17 G3 X125.874 Y63.019 I0 J-0.2
X126.674 Y63.019 I0.4 J0
X125.874 Y63.019 I-0.4 J0
X126.074 Y62.819 I0.2 J0
G1 X126.174
G18 G2 X126.374 Z-3.05 I0 K0.2
G0 Z2.05
X113.374 Y63.219
Z1.55
G1 Z-0.25 F100
G3 X113.174 Z-0.45 I-0.2 K0
G1 X113.074
G17 G3 X112.874 Y63.019 I0 J-0.2
X113.674 Y63.019 I0.4 J0
X112.874 Y63.019 I-0.4 J0
X113.074 Y62.819 I0.2 J0
G1 X113.174
G18 G2 X113.374 Z-0.25 I0 K0.2
G0 Z2.05
Y63.219
Z1.05
G1 Z-0.75 F100
G3 X113.174 Z-0.95 I-0.2 K0
G1 X113.074
G17 G3 X112.874 Y63.019 I0 J-0.2
X113.674 Y63.019 I0.4 J0
X112.874 Y63.019 I-0.4 J0
X113.074 Y62.819 I0.2 J0
G1 X113.174
G18 G2 X113.374 Z-0.75 I0 K0.2
G0 Z2.05
Y63.219
Z0.55
G1 Z-1.25 F100
G3 X113.174 Z-1.45 I-0.2 K0
G1 X113.074
G17 G3 X112.874 Y63.019 I0 J-0.2
X113.674 Y63.019 I0.4 J0
X112.874 Y63.019 I-0.4 J0
X113.074 Y62.819 I0.2 J0
G1 X113.174
G18 G2 X113.374 Z-1.25 I0 K0.2
G0 Z2.05
Y63.219
Z0.05
G1 Z-1.75 F100
G3 X113.174 Z-1.95 I-0.2 K0
G1 X113.074
G17 G3 X112.874 Y63.019 I0 J-0.2
X113.674 Y63.019 I0.4 J0
X112.874 Y63.019 I-0.4 J0
X113.074 Y62.819 I0.2 J0
G1 X113.174
G18 G2 X113.374 Z-1.75 I0 K0.2
G0 Z2.05
Y63.219
Z-0.45
G1 Z-2.25 F100
G3 X113.174 Z-2.45 I-0.2 K0
G1 X113.074
G17 G3 X112.874 Y63.019 I0 J-0.2
X113.674 Y63.019 I0.4 J0
X112.874 Y63.019 I-0.4 J0
X113.074 Y62.819 I0.2 J0
G1 X113.174
G18 G2 X113.374 Z-2.25 I0 K0.2
G0 Z2.05
Y63.219
Z-0.85
G1 Z-2.65 F100
G3 X113.174 Z-2.85 I-0.2 K0
G1 X113.074
G17 G3 X112.874 Y63.019 I0 J-0.2
X113.674 Y63.019 I0.4 J0
X112.874 Y63.019 I-0.4 J0
X113.074 Y62.819 I0.2 J0
G1 X113.174
G18 G2 X113.374 Z-2.65 I0 K0.2
G0 Z2.05
Y63.219
Z-1.25
G1 Z-3.05 F100
G3 X113.174 Z-3.25 I-0.2 K0
G1 X113.074
G17 G3 X112.874 Y63.019 I0 J-0.2
X113.674 Y63.019 I0.4 J0
X112.874 Y63.019 I-0.4 J0
X113.074 Y62.819 I0.2 J0
G1 X113.174
G18 G2 X113.374 Z-3.05 I0 K0.2
G0 Z2.05
X114.125 Y50.231
Z1.55
G1 Z-0.25 F100
G3 X113.925 Z-0.45 I-0.2 K0
G1 X113.825
G17 G3 X113.625 Y50.031 I0 J-0.2
X114.425 Y50.031 I0.4 J0
X113.625 Y50.031 I-0.4 J0
X113.825 Y49.831 I0.2 J0
G1 X113.925
G18 G2 X114.125 Z-0.25 I0 K0.2
G0 Z2.05
Y50.231
Z1.05
G1 Z-0.75 F100
G3 X113.925 Z-0.95 I-0.2 K0
G1 X113.825
G17 G3 X113.625 Y50.031 I0 J-0.2
X114.425 Y50.031 I0.4 J0
X113.625 Y50.031 I-0.4 J0
X113.825 Y49.831 I0.2 J0
G1 X113.925
G18 G2 X114.125 Z-0.75 I0 K0.2
G0 Z2.05
Y50.231
Z0.55
G1 Z-1.25 F100
G3 X113.925 Z-1.45 I-0.2 K0
G1 X113.825
G17 G3 X113.625 Y50.031 I0 J-0.2
X114.425 Y50.031 I0.4 J0
X113.625 Y50.031 I-0.4 J0
X113.825 Y49.831 I0.2 J0
G1 X113.925
G18 G2 X114.125 Z-1.25 I0 K0.2
G0 Z2.05
Y50.231
Z0.05
G1 Z-1.75 F100
G3 X113.925 Z-1.95 I-0.2 K0
G1 X113.825
G17 G3 X113.625 Y50.031 I0 J-0.2
X114.425 Y50.031 I0.4 J0
X113.625 Y50.031 I-0.4 J0
X113.825 Y49.831 I0.2 J0
G1 X113.925
G18 G2 X114.125 Z-1.75 I0 K0.2
G0 Z2.05
Y50.231
Z-0.45
G1 Z-2.25 F100
G3 X113.925 Z-2.45 I-0.2 K0
G1 X113.825
G17 G3 X113.625 Y50.031 I0 J-0.2
X114.425 Y50.031 I0.4 J0
X113.625 Y50.031 I-0.4 J0
X113.825 Y49.831 I0.2 J0
G1 X113.925
G18 G2 X114.125 Z-2.25 I0 K0.2
G0 Z2.05
Y50.231
Z-0.85
G1 Z-2.65 F100
G3 X113.925 Z-2.85 I-0.2 K0
G1 X113.825
G17 G3 X113.625 Y50.031 I0 J-0.2
X114.425 Y50.031 I0.4 J0
X113.625 Y50.031 I-0.4 J0
X113.825 Y49.831 I0.2 J0
G1 X113.925
G18 G2 X114.125 Z-2.65 I0 K0.2
G0 Z2.05
Y50.231
Z-1.25
G1 Z-3.05 F100
G3 X113.925 Z-3.25 I-0.2 K0
G1 X113.825
G17 G3 X113.625 Y50.031 I0 J-0.2
X114.425 Y50.031 I0.4 J0
X113.625 Y50.031 I-0.4 J0
X113.825 Y49.831 I0.2 J0
G1 X113.925
G18 G2 X114.125 Z-3.05 I0 K0.2
G0 Z2.05
X104.125 Y50.231
Z1.55
G1 Z-0.25 F100
G3 X103.925 Z-0.45 I-0.2 K0
G1 X103.825
G17 G3 X103.625 Y50.031 I0 J-0.2
X104.425 Y50.031 I0.4 J0
X103.625 Y50.031 I-0.4 J0
X103.825 Y49.831 I0.2 J0
G1 X103.925
G18 G2 X104.125 Z-0.25 I0 K0.2
G0 Z2.05
Y50.231
Z1.05
G1 Z-0.75 F100
G3 X103.925 Z-0.95 I-0.2 K0
G1 X103.825
G17 G3 X103.625 Y50.031 I0 J-0.2
X104.425 Y50.031 I0.4 J0
X103.625 Y50.031 I-0.4 J0
X103.825 Y49.831 I0.2 J0
G1 X103.925
G18 G2 X104.125 Z-0.75 I0 K0.2
G0 Z2.05
Y50.231
Z0.55
G1 Z-1.25 F100
G3 X103.925 Z-1.45 I-0.2 K0
G1 X103.825
G17 G3 X103.625 Y50.031 I0 J-0.2
X104.425 Y50.031 I0.4 J0
X103.625 Y50.031 I-0.4 J0
X103.825 Y49.831 I0.2 J0
G1 X103.925
G18 G2 X104.125 Z-1.25 I0 K0.2
G0 Z2.05
Y50.231
Z0.05
G1 Z-1.75 F100
G3 X103.925 Z-1.95 I-0.2 K0
G1 X103.825
G17 G3 X103.625 Y50.031 I0 J-0.2
X104.425 Y50.031 I0.4 J0
X103.625 Y50.031 I-0.4 J0
X103.825 Y49.831 I0.2 J0
G1 X103.925
G18 G2 X104.125 Z-1.75 I0 K0.2
G0 Z2.05
Y50.231
Z-0.45
G1 Z-2.25 F100
G3 X103.925 Z-2.45 I-0.2 K0
G1 X103.825
G17 G3 X103.625 Y50.031 I0 J-0.2
X104.425 Y50.031 I0.4 J0
X103.625 Y50.031 I-0.4 J0
X103.825 Y49.831 I0.2 J0
G1 X103.925
G18 G2 X104.125 Z-2.25 I0 K0.2
G0 Z2.05
Y50.231
Z-0.85
G1 Z-2.65 F100
G3 X103.925 Z-2.85 I-0.2 K0
G1 X103.825
G17 G3 X103.625 Y50.031 I0 J-0.2
X104.425 Y50.031 I0.4 J0
X103.625 Y50.031 I-0.4 J0
X103.825 Y49.831 I0.2 J0
G1 X103.925
G18 G2 X104.125 Z-2.65 I0 K0.2
G0 Z2.05
Y50.231
Z-1.25
G1 Z-3.05 F100
G3 X103.925 Z-3.25 I-0.2 K0
G1 X103.825
G17 G3 X103.625 Y50.031 I0 J-0.2
X104.425 Y50.031 I0.4 J0
X103.625 Y50.031 I-0.4 J0
X103.825 Y49.831 I0.2 J0
G1 X103.925
G18 G2 X104.125 Z-3.05 I0 K0.2
G0 Z2.05
X94.374 Y63.219
Z1.55
G1 Z-0.25 F100
G3 X94.174 Z-0.45 I-0.2 K0
G1 X94.074
G17 G3 X93.874 Y63.019 I0 J-0.2
X94.674 Y63.019 I0.4 J0
X93.874 Y63.019 I-0.4 J0
X94.074 Y62.819 I0.2 J0
G1 X94.174
G18 G2 X94.374 Z-0.25 I0 K0.2
G0 Z2.05
Y63.219
Z1.05
G1 Z-0.75 F100
G3 X94.174 Z-0.95 I-0.2 K0
G1 X94.074
G17 G3 X93.874 Y63.019 I0 J-0.2
X94.674 Y63.019 I0.4 J0
X93.874 Y63.019 I-0.4 J0
X94.074 Y62.819 I0.2 J0
G1 X94.174
G18 G2 X94.374 Z-0.75 I0 K0.2
G0 Z2.05
Y63.219
Z0.55
G1 Z-1.25 F100
G3 X94.174 Z-1.45 I-0.2 K0
G1 X94.074
G17 G3 X93.874 Y63.019 I0 J-0.2
X94.674 Y63.019 I0.4 J0
X93.874 Y63.019 I-0.4 J0
X94.074 Y62.819 I0.2 J0
G1 X94.174
G18 G2 X94.374 Z-1.25 I0 K0.2
G0 Z2.05
Y63.219
Z0.05
G1 Z-1.75 F100
G3 X94.174 Z-1.95 I-0.2 K0
G1 X94.074
G17 G3 X93.874 Y63.019 I0 J-0.2
X94.674 Y63.019 I0.4 J0
X93.874 Y63.019 I-0.4 J0
X94.074 Y62.819 I0.2 J0
G1 X94.174
G18 G2 X94.374 Z-1.75 I0 K0.2
G0 Z2.05
Y63.219
Z-0.45
G1 Z-2.25 F100
G3 X94.174 Z-2.45 I-0.2 K0
G1 X94.074
G17 G3 X93.874 Y63.019 I0 J-0.2
X94.674 Y63.019 I0.4 J0
X93.874 Y63.019 I-0.4 J0
X94.074 Y62.819 I0.2 J0
G1 X94.174
G18 G2 X94.374 Z-2.25 I0 K0.2
G0 Z2.05
Y63.219
Z-0.85
G1 Z-2.65 F100
G3 X94.174 Z-2.85 I-0.2 K0
G1 X94.074
G17 G3 X93.874 Y63.019 I0 J-0.2
X94.674 Y63.019 I0.4 J0
X93.874 Y63.019 I-0.4 J0
X94.074 Y62.819 I0.2 J0
G1 X94.174
G18 G2 X94.374 Z-2.65 I0 K0.2
G0 Z2.05
Y63.219
Z-1.25
G1 Z-3.05 F100
G3 X94.174 Z-3.25 I-0.2 K0
G1 X94.074
G17 G3 X93.874 Y63.019 I0 J-0.2
X94.674 Y63.019 I0.4 J0
X93.874 Y63.019 I-0.4 J0
X94.074 Y62.819 I0.2 J0
G1 X94.174
G18 G2 X94.374 Z-3.05 I0 K0.2
G0 Z2.05
X81.374 Y63.219
Z1.55
G1 Z-0.25 F100
G3 X81.174 Z-0.45 I-0.2 K0
G1 X81.074
G17 G3 X80.874 Y63.019 I0 J-0.2
X81.674 Y63.019 I0.4 J0
X80.874 Y63.019 I-0.4 J0
X81.074 Y62.819 I0.2 J0
G1 X81.174
G18 G2 X81.374 Z-0.25 I0 K0.2
G0 Z2.05
Y63.219
Z1.05
G1 Z-0.75 F100
G3 X81.174 Z-0.95 I-0.2 K0
G1 X81.074
G17 G3 X80.874 Y63.019 I0 J-0.2
X81.674 Y63.019 I0.4 J0
X80.874 Y63.019 I-0.4 J0
X81.074 Y62.819 I0.2 J0
G1 X81.174
G18 G2 X81.374 Z-0.75 I0 K0.2
G0 Z2.05
Y63.219
Z0.55
G1 Z-1.25 F100
G3 X81.174 Z-1.45 I-0.2 K0
G1 X81.074
G17 G3 X80.874 Y63.019 I0 J-0.2
X81.674 Y63.019 I0.4 J0
X80.874 Y63.019 I-0.4 J0
X81.074 Y62.819 I0.2 J0
G1 X81.174
G18 G2 X81.374 Z-1.25 I0 K0.2
G0 Z2.05
Y63.219
Z0.05
G1 Z-1.75 F100
G3 X81.174 Z-1.95 I-0.2 K0
G1 X81.074
G17 G3 X80.874 Y63.019 I0 J-0.2
X81.674 Y63.019 I0.4 J0
X80.874 Y63.019 I-0.4 J0
X81.074 Y62.819 I0.2 J0
G1 X81.174
G18 G2 X81.374 Z-1.75 I0 K0.2
G0 Z2.05
Y63.219
Z-0.45
G1 Z-2.25 F100
G3 X81.174 Z-2.45 I-0.2 K0
G1 X81.074
G17 G3 X80.874 Y63.019 I0 J-0.2
X81.674 Y63.019 I0.4 J0
X80.874 Y63.019 I-0.4 J0
X81.074 Y62.819 I0.2 J0
G1 X81.174
G18 G2 X81.374 Z-2.25 I0 K0.2
G0 Z2.05
Y63.219
Z-0.85
G1 Z-2.65 F100
G3 X81.174 Z-2.85 I-0.2 K0
G1 X81.074
G17 G3 X80.874 Y63.019 I0 J-0.2
X81.674 Y63.019 I0.4 J0
X80.874 Y63.019 I-0.4 J0
X81.074 Y62.819 I0.2 J0
G1 X81.174
G18 G2 X81.374 Z-2.65 I0 K0.2
G0 Z2.05
Y63.219
Z-1.25
G1 Z-3.05 F100
G3 X81.174 Z-3.25 I-0.2 K0
G1 X81.074
G17 G3 X80.874 Y63.019 I0 J-0.2
X81.674 Y63.019 I0.4 J0
X80.874 Y63.019 I-0.4 J0
X81.074 Y62.819 I0.2 J0
G1 X81.174
G18 G2 X81.374 Z-3.05 I0 K0.2
G0 Z2.05
X79.125 Y50.231
Z1.55
G1 Z-0.25 F100
G3 X78.925 Z-0.45 I-0.2 K0
G1 X78.825
G17 G3 X78.625 Y50.031 I0 J-0.2
X79.425 Y50.031 I0.4 J0
X78.625 Y50.031 I-0.4 J0
X78.825 Y49.831 I0.2 J0
G1 X78.925
G18 G2 X79.125 Z-0.25 I0 K0.2
G0 Z2.05
Y50.231
Z1.05
G1 Z-0.75 F100
G3 X78.925 Z-0.95 I-0.2 K0
G1 X78.825
G17 G3 X78.625 Y50.031 I0 J-0.2
X79.425 Y50.031 I0.4 J0
X78.625 Y50.031 I-0.4 J0
X78.825 Y49.831 I0.2 J0
G1 X78.925
G18 G2 X79.125 Z-0.75 I0 K0.2
G0 Z2.05
Y50.231
Z0.55
G1 Z-1.25 F100
G3 X78.925 Z-1.45 I-0.2 K0
G1 X78.825
G17 G3 X78.625 Y50.031 I0 J-0.2
X79.425 Y50.031 I0.4 J0
X78.625 Y50.031 I-0.4 J0
X78.825 Y49.831 I0.2 J0
G1 X78.925
G18 G2 X79.125 Z-1.25 I0 K0.2
G0 Z2.05
Y50.231
Z0.05
G1 Z-1.75 F100
G3 X78.925 Z-1.95 I-0.2 K0
G1 X78.825
G17 G3 X78.625 Y50.031 I0 J-0.2
X79.425 Y50.031 I0.4 J0
X78.625 Y50.031 I-0.4 J0
X78.825 Y49.831 I0.2 J0
G1 X78.925
G18 G2 X79.125 Z-1.75 I0 K0.2
G0 Z2.05
Y50.231
Z-0.45
G1 Z-2.25 F100
G3 X78.925 Z-2.45 I-0.2 K0
G1 X78.825
G17 G3 X78.625 Y50.031 I0 J-0.2
X79.425 Y50.031 I0.4 J0
X78.625 Y50.031 I-0.4 J0
X78.825 Y49.831 I0.2 J0
G1 X78.925
G18 G2 X79.125 Z-2.25 I0 K0.2
G0 Z2.05
Y50.231
Z-0.85
G1 Z-2.65 F100
G3 X78.925 Z-2.85 I-0.2 K0
G1 X78.825
G17 G3 X78.625 Y50.031 I0 J-0.2
X79.425 Y50.031 I0.4 J0
X78.625 Y50.031 I-0.4 J0
X78.825 Y49.831 I0.2 J0
G1 X78.925
G18 G2 X79.125 Z-2.65 I0 K0.2
G0 Z2.05
Y50.231
Z-1.25
G1 Z-3.05 F100
G3 X78.925 Z-3.25 I-0.2 K0
G1 X78.825
G17 G3 X78.625 Y50.031 I0 J-0.2
X79.425 Y50.031 I0.4 J0
X78.625 Y50.031 I-0.4 J0
X78.825 Y49.831 I0.2 J0
G1 X78.925
G18 G2 X79.125 Z-3.05 I0 K0.2
G0 Z2.05
X69.125 Y50.231
Z1.55
G1 Z-0.25 F100
G3 X68.925 Z-0.45 I-0.2 K0
G1 X68.825
G17 G3 X68.625 Y50.031 I0 J-0.2
X69.425 Y50.031 I0.4 J0
X68.625 Y50.031 I-0.4 J0
X68.825 Y49.831 I0.2 J0
G1 X68.925
G18 G2 X69.125 Z-0.25 I0 K0.2
G0 Z2.05
Y50.231
Z1.05
G1 Z-0.75 F100
G3 X68.925 Z-0.95 I-0.2 K0
G1 X68.825
G17 G3 X68.625 Y50.031 I0 J-0.2
X69.425 Y50.031 I0.4 J0
X68.625 Y50.031 I-0.4 J0
X68.825 Y49.831 I0.2 J0
G1 X68.925
G18 G2 X69.125 Z-0.75 I0 K0.2
G0 Z2.05
Y50.231
Z0.55
G1 Z-1.25 F100
G3 X68.925 Z-1.45 I-0.2 K0
G1 X68.825
G17 G3 X68.625 Y50.031 I0 J-0.2
X69.425 Y50.031 I0.4 J0
X68.625 Y50.031 I-0.4 J0
X68.825 Y49.831 I0.2 J0
G1 X68.925
G18 G2 X69.125 Z-1.25 I0 K0.2
G0 Z2.05
Y50.231
Z0.05
G1 Z-1.75 F100
G3 X68.925 Z-1.95 I-0.2 K0
G1 X68.825
G17 G3 X68.625 Y50.031 I0 J-0.2
X69.425 Y50.031 I0.4 J0
X68.625 Y50.031 I-0.4 J0
X68.825 Y49.831 I0.2 J0
G1 X68.925
G18 G2 X69.125 Z-1.75 I0 K0.2
G0 Z2.05
Y50.231
Z-0.45
G1 Z-2.25 F100
G3 X68.925 Z-2.45 I-0.2 K0
G1 X68.825
G17 G3 X68.625 Y50.031 I0 J-0.2
X69.425 Y50.031 I0.4 J0
X68.625 Y50.031 I-0.4 J0
X68.825 Y49.831 I0.2 J0
G1 X68.925
G18 G2 X69.125 Z-2.25 I0 K0.2
G0 Z2.05
Y50.231
Z-0.85
G1 Z-2.65 F100
G3 X68.925 Z-2.85 I-0.2 K0
G1 X68.825
G17 G3 X68.625 Y50.031 I0 J-0.2
X69.425 Y50.031 I0.4 J0
X68.625 Y50.031 I-0.4 J0
X68.825 Y49.831 I0.2 J0
G1 X68.925
G18 G2 X69.125 Z-2.65 I0 K0.2
G0 Z2.05
Y50.231
Z-1.25
G1 Z-3.05 F100
G3 X68.925 Z-3.25 I-0.2 K0
G1 X68.825
G17 G3 X68.625 Y50.031 I0 J-0.2
X69.425 Y50.031 I0.4 J0
X68.625 Y50.031 I-0.4 J0
X68.825 Y49.831 I0.2 J0
G1 X68.925
G18 G2 X69.125 Z-3.05 I0 K0.2
G0 Z2.05
X54.125 Y55.214
Z1.55
G1 Z-0.25 F100
G3 X53.925 Z-0.45 I-0.2 K0
G1 X53.825
G17 G3 X53.625 Y55.014 I0 J-0.2
X54.425 Y55.014 I0.4 J0
X53.625 Y55.014 I-0.4 J0
X53.825 Y54.814 I0.2 J0
G1 X53.925
G18 G2 X54.125 Z-0.25 I0 K0.2
G0 Z2.05
Y55.214
Z1.05
G1 Z-0.75 F100
G3 X53.925 Z-0.95 I-0.2 K0
G1 X53.825
G17 G3 X53.625 Y55.014 I0 J-0.2
X54.425 Y55.014 I0.4 J0
X53.625 Y55.014 I-0.4 J0
X53.825 Y54.814 I0.2 J0
G1 X53.925
G18 G2 X54.125 Z-0.75 I0 K0.2
G0 Z2.05
Y55.214
Z0.55
G1 Z-1.25 F100
G3 X53.925 Z-1.45 I-0.2 K0
G1 X53.825
G17 G3 X53.625 Y55.014 I0 J-0.2
X54.425 Y55.014 I0.4 J0
X53.625 Y55.014 I-0.4 J0
X53.825 Y54.814 I0.2 J0
G1 X53.925
G18 G2 X54.125 Z-1.25 I0 K0.2
G0 Z2.05
Y55.214
Z0.05
G1 Z-1.75 F100
G3 X53.925 Z-1.95 I-0.2 K0
G1 X53.825
G17 G3 X53.625 Y55.014 I0 J-0.2
X54.425 Y55.014 I0.4 J0
X53.625 Y55.014 I-0.4 J0
X53.825 Y54.814 I0.2 J0
G1 X53.925
G18 G2 X54.125 Z-1.75 I0 K0.2
G0 Z2.05
Y55.214
Z-0.45
G1 Z-2.25 F100
G3 X53.925 Z-2.45 I-0.2 K0
G1 X53.825
G17 G3 X53.625 Y55.014 I0 J-0.2
X54.425 Y55.014 I0.4 J0
X53.625 Y55.014 I-0.4 J0
X53.825 Y54.814 I0.2 J0
G1 X53.925
G18 G2 X54.125 Z-2.25 I0 K0.2
G0 Z2.05
Y55.214
Z-0.85
G1 Z-2.65 F100
G3 X53.925 Z-2.85 I-0.2 K0
G1 X53.825
G17 G3 X53.625 Y55.014 I0 J-0.2
X54.425 Y55.014 I0.4 J0
X53.625 Y55.014 I-0.4 J0
X53.825 Y54.814 I0.2 J0
G1 X53.925
G18 G2 X54.125 Z-2.65 I0 K0.2
G0 Z2.05
Y55.214
Z-1.25
G1 Z-3.05 F100
G3 X53.925 Z-3.25 I-0.2 K0
G1 X53.825
G17 G3 X53.625 Y55.014 I0 J-0.2
X54.425 Y55.014 I0.4 J0
X53.625 Y55.014 I-0.4 J0
X53.825 Y54.814 I0.2 J0
G1 X53.925
G18 G2 X54.125 Z-3.05 I0 K0.2
G0 Z2.05
X44.125 Y55.214
Z1.55
G1 Z-0.25 F100
G3 X43.925 Z-0.45 I-0.2 K0
G1 X43.825
G17 G3 X43.625 Y55.014 I0 J-0.2
X44.425 Y55.014 I0.4 J0
X43.625 Y55.014 I-0.4 J0
X43.825 Y54.814 I0.2 J0
G1 X43.925
G18 G2 X44.125 Z-0.25 I0 K0.2
G0 Z2.05
Y55.214
Z1.05
G1 Z-0.75 F100
G3 X43.925 Z-0.95 I-0.2 K0
G1 X43.825
G17 G3 X43.625 Y55.014 I0 J-0.2
X44.425 Y55.014 I0.4 J0
X43.625 Y55.014 I-0.4 J0
X43.825 Y54.814 I0.2 J0
G1 X43.925
G18 G2 X44.125 Z-0.75 I0 K0.2
G0 Z2.05
Y55.214
Z0.55
G1 Z-1.25 F100
G3 X43.925 Z-1.45 I-0.2 K0
G1 X43.825
G17 G3 X43.625 Y55.014 I0 J-0.2
X44.425 Y55.014 I0.4 J0
X43.625 Y55.014 I-0.4 J0
X43.825 Y54.814 I0.2 J0
G1 X43.925
G18 G2 X44.125 Z-1.25 I0 K0.2
G0 Z2.05
Y55.214
Z0.05
G1 Z-1.75 F100
G3 X43.925 Z-1.95 I-0.2 K0
G1 X43.825
G17 G3 X43.625 Y55.014 I0 J-0.2
X44.425 Y55.014 I0.4 J0
X43.625 Y55.014 I-0.4 J0
X43.825 Y54.814 I0.2 J0
G1 X43.925
G18 G2 X44.125 Z-1.75 I0 K0.2
G0 Z2.05
Y55.214
Z-0.45
G1 Z-2.25 F100
G3 X43.925 Z-2.45 I-0.2 K0
G1 X43.825
G17 G3 X43.625 Y55.014 I0 J-0.2
X44.425 Y55.014 I0.4 J0
X43.625 Y55.014 I-0.4 J0
X43.825 Y54.814 I0.2 J0
G1 X43.925
G18 G2 X44.125 Z-2.25 I0 K0.2
G0 Z2.05
Y55.214
Z-0.85
G1 Z-2.65 F100
G3 X43.925 Z-2.85 I-0.2 K0
G1 X43.825
G17 G3 X43.625 Y55.014 I0 J-0.2
X44.425 Y55.014 I0.4 J0
X43.625 Y55.014 I-0.4 J0
X43.825 Y54.814 I0.2 J0
G1 X43.925
G18 G2 X44.125 Z-2.65 I0 K0.2
G0 Z2.05
Y55.214
Z-1.25
G1 Z-3.05 F100
G3 X43.925 Z-3.25 I-0.2 K0
G1 X43.825
G17 G3 X43.625 Y55.014 I0 J-0.2
X44.425 Y55.014 I0.4 J0
X43.625 Y55.014 I-0.4 J0
X43.825 Y54.814 I0.2 J0
G1 X43.925
G18 G2 X44.125 Z-3.05 I0 K0.2
G0 Z2.05
X53.691 Y39.451
Z1.55
G1 Z-0.25 F100
G3 X53.491 Z-0.45 I-0.2 K0
G1 X53.391
G17 G3 X53.191 Y39.251 I0 J-0.2
X54.091 Y39.251 I0.45 J0
X53.191 Y39.251 I-0.45 J0
X53.391 Y39.051 I0.2 J0
G1 X53.491
G18 G2 X53.691 Z-0.25 I0 K0.2
G0 Z2.05
Y39.451
Z1.05
G1 Z-0.75 F100
G3 X53.491 Z-0.95 I-0.2 K0
G1 X53.391
G17 G3 X53.191 Y39.251 I0 J-0.2
X54.091 Y39.251 I0.45 J0
X53.191 Y39.251 I-0.45 J0
X53.391 Y39.051 I0.2 J0
G1 X53.491
G18 G2 X53.691 Z-0.75 I0 K0.2
G0 Z2.05
Y39.451
Z0.55
G1 Z-1.25 F100
G3 X53.491 Z-1.45 I-0.2 K0
G1 X53.391
G17 G3 X53.191 Y39.251 I0 J-0.2
X54.091 Y39.251 I0.45 J0
X53.191 Y39.251 I-0.45 J0
X53.391 Y39.051 I0.2 J0
G1 X53.491
G18 G2 X53.691 Z-1.25 I0 K0.2
G0 Z2.05
Y39.451
Z0.05
G1 Z-1.75 F100
G3 X53.491 Z-1.95 I-0.2 K0
G1 X53.391
G17 G3 X53.191 Y39.251 I0 J-0.2
X54.091 Y39.251 I0.45 J0
X53.191 Y39.251 I-0.45 J0
X53.391 Y39.051 I0.2 J0
G1 X53.491
G18 G2 X53.691 Z-1.75 I0 K0.2
G0 Z2.05
Y39.451
Z-0.45
G1 Z-2.25 F100
G3 X53.491 Z-2.45 I-0.2 K0
G1 X53.391
G17 G3 X53.191 Y39.251 I0 J-0.2
X54.091 Y39.251 I0.45 J0
X53.191 Y39.251 I-0.45 J0
X53.391 Y39.051 I0.2 J0
G1 X53.491
G18 G2 X53.691 Z-2.25 I0 K0.2
G0 Z2.05
Y39.451
Z-0.85
G1 Z-2.65 F100
G3 X53.491 Z-2.85 I-0.2 K0
G1 X53.391
G17 G3 X53.191 Y39.251 I0 J-0.2
X54.091 Y39.251 I0.45 J0
X53.191 Y39.251 I-0.45 J0
X53.391 Y39.051 I0.2 J0
G1 X53.491
G18 G2 X53.691 Z-2.65 I0 K0.2
G0 Z2.05
Y39.451
Z-1.25
G1 Z-3.05 F100
G3 X53.491 Z-3.25 I-0.2 K0
G1 X53.391
G17 G3 X53.191 Y39.251 I0 J-0.2
X54.091 Y39.251 I0.45 J0
X53.191 Y39.251 I-0.45 J0
X53.391 Y39.051 I0.2 J0
G1 X53.491
G18 G2 X53.691 Z-3.05 I0 K0.2
G0 Z2.05
X63.695 Y24.451
Z1.55
G1 Z-0.25 F100
G3 X63.495 Z-0.45 I-0.2 K0
G1 X63.395
G17 G3 X63.195 Y24.251 I0 J-0.2
X64.095 Y24.251 I0.45 J0
X63.195 Y24.251 I-0.45 J0
X63.395 Y24.051 I0.2 J0
G1 X63.495
G18 G2 X63.695 Z-0.25 I0 K0.2
G0 Z2.05
Y24.451
Z1.05
G1 Z-0.75 F100
G3 X63.495 Z-0.95 I-0.2 K0
G1 X63.395
G17 G3 X63.195 Y24.251 I0 J-0.2
X64.095 Y24.251 I0.45 J0
X63.195 Y24.251 I-0.45 J0
X63.395 Y24.051 I0.2 J0
G1 X63.495
G18 G2 X63.695 Z-0.75 I0 K0.2
G0 Z2.05
Y24.451
Z0.55
G1 Z-1.25 F100
G3 X63.495 Z-1.45 I-0.2 K0
G1 X63.395
G17 G3 X63.195 Y24.251 I0 J-0.2
X64.095 Y24.251 I0.45 J0
X63.195 Y24.251 I-0.45 J0
X63.395 Y24.051 I0.2 J0
G1 X63.495
G18 G2 X63.695 Z-1.25 I0 K0.2
G0 Z2.05
Y24.451
Z0.05
G1 Z-1.75 F100
G3 X63.495 Z-1.95 I-0.2 K0
G1 X63.395
G17 G3 X63.195 Y24.251 I0 J-0.2
X64.095 Y24.251 I0.45 J0
X63.195 Y24.251 I-0.45 J0
X63.395 Y24.051 I0.2 J0
G1 X63.495
G18 G2 X63.695 Z-1.75 I0 K0.2
G0 Z2.05
Y24.451
Z-0.45
G1 Z-2.25 F100
G3 X63.495 Z-2.45 I-0.2 K0
G1 X63.395
G17 G3 X63.195 Y24.251 I0 J-0.2
X64.095 Y24.251 I0.45 J0
X63.195 Y24.251 I-0.45 J0
X63.395 Y24.051 I0.2 J0
G1 X63.495
G18 G2 X63.695 Z-2.25 I0 K0.2
G0 Z2.05
Y24.451
Z-0.85
G1 Z-2.65 F100
G3 X63.495 Z-2.85 I-0.2 K0
G1 X63.395
G17 G3 X63.195 Y24.251 I0 J-0.2
X64.095 Y24.251 I0.45 J0
X63.195 Y24.251 I-0.45 J0
X63.395 Y24.051 I0.2 J0
G1 X63.495
G18 G2 X63.695 Z-2.65 I0 K0.2
G0 Z2.05
Y24.451
Z-1.25
G1 Z-3.05 F100
G3 X63.495 Z-3.25 I-0.2 K0
G1 X63.395
G17 G3 X63.195 Y24.251 I0 J-0.2
X64.095 Y24.251 I0.45 J0
X63.195 Y24.251 I-0.45 J0
X63.395 Y24.051 I0.2 J0
G1 X63.495
G18 G2 X63.695 Z-3.05 I0 K0.2
G0 Z2.05
X76.358 Y20.219
Z1.55
G1 Z-0.25 F100
G3 X76.158 Z-0.45 I-0.2 K0
G1 X76.058
G17 G3 X75.858 Y20.019 I0 J-0.2
X76.658 Y20.019 I0.4 J0
X75.858 Y20.019 I-0.4 J0
X76.058 Y19.819 I0.2 J0
G1 X76.158
G18 G2 X76.358 Z-0.25 I0 K0.2
G0 Z2.05
Y20.219
Z1.05
G1 Z-0.75 F100
G3 X76.158 Z-0.95 I-0.2 K0
G1 X76.058
G17 G3 X75.858 Y20.019 I0 J-0.2
X76.658 Y20.019 I0.4 J0
X75.858 Y20.019 I-0.4 J0
X76.058 Y19.819 I0.2 J0
G1 X76.158
G18 G2 X76.358 Z-0.75 I0 K0.2
G0 Z2.05
Y20.219
Z0.55
G1 Z-1.25 F100
G3 X76.158 Z-1.45 I-0.2 K0
G1 X76.058
G17 G3 X75.858 Y20.019 I0 J-0.2
X76.658 Y20.019 I0.4 J0
X75.858 Y20.019 I-0.4 J0
X76.058 Y19.819 I0.2 J0
G1 X76.158
G18 G2 X76.358 Z-1.25 I0 K0.2
G0 Z2.05
Y20.219
Z0.05
G1 Z-1.75 F100
G3 X76.158 Z-1.95 I-0.2 K0
G1 X76.058
G17 G3 X75.858 Y20.019 I0 J-0.2
X76.658 Y20.019 I0.4 J0
X75.858 Y20.019 I-0.4 J0
X76.058 Y19.819 I0.2 J0
G1 X76.158
G18 G2 X76.358 Z-1.75 I0 K0.2
G0 Z2.05
Y20.219
Z-0.45
G1 Z-2.25 F100
G3 X76.158 Z-2.45 I-0.2 K0
G1 X76.058
G17 G3 X75.858 Y20.019 I0 J-0.2
X76.658 Y20.019 I0.4 J0
X75.858 Y20.019 I-0.4 J0
X76.058 Y19.819 I0.2 J0
G1 X76.158
G18 G2 X76.358 Z-2.25 I0 K0.2
G0 Z2.05
Y20.219
Z-0.85
G1 Z-2.65 F100
G3 X76.158 Z-2.85 I-0.2 K0
G1 X76.058
G17 G3 X75.858 Y20.019 I0 J-0.2
X76.658 Y20.019 I0.4 J0
X75.858 Y20.019 I-0.4 J0
X76.058 Y19.819 I0.2 J0
G1 X76.158
G18 G2 X76.358 Z-2.65 I0 K0.2
G0 Z2.05
Y20.219
Z-1.25
G1 Z-3.05 F100
G3 X76.158 Z-3.25 I-0.2 K0
G1 X76.058
G17 G3 X75.858 Y20.019 I0 J-0.2
X76.658 Y20.019 I0.4 J0
X75.858 Y20.019 I-0.4 J0
X76.058 Y19.819 I0.2 J0
G1 X76.158
G18 G2 X76.358 Z-3.05 I0 K0.2
G0 Z2.05
X89.358 Y20.219
Z1.55
G1 Z-0.25 F100
G3 X89.158 Z-0.45 I-0.2 K0
G1 X89.058
G17 G3 X88.858 Y20.019 I0 J-0.2
X89.658 Y20.019 I0.4 J0
X88.858 Y20.019 I-0.4 J0
X89.058 Y19.819 I0.2 J0
G1 X89.158
G18 G2 X89.358 Z-0.25 I0 K0.2
G0 Z2.05
Y20.219
Z1.05
G1 Z-0.75 F100
G3 X89.158 Z-0.95 I-0.2 K0
G1 X89.058
G17 G3 X88.858 Y20.019 I0 J-0.2
X89.658 Y20.019 I0.4 J0
X88.858 Y20.019 I-0.4 J0
X89.058 Y19.819 I0.2 J0
G1 X89.158
G18 G2 X89.358 Z-0.75 I0 K0.2
G0 Z2.05
Y20.219
Z0.55
G1 Z-1.25 F100
G3 X89.158 Z-1.45 I-0.2 K0
G1 X89.058
G17 G3 X88.858 Y20.019 I0 J-0.2
X89.658 Y20.019 I0.4 J0
X88.858 Y20.019 I-0.4 J0
X89.058 Y19.819 I0.2 J0
G1 X89.158
G18 G2 X89.358 Z-1.25 I0 K0.2
G0 Z2.05
Y20.219
Z0.05
G1 Z-1.75 F100
G3 X89.158 Z-1.95 I-0.2 K0
G1 X89.058
G17 G3 X88.858 Y20.019 I0 J-0.2
X89.658 Y20.019 I0.4 J0
X88.858 Y20.019 I-0.4 J0
X89.058 Y19.819 I0.2 J0
G1 X89.158
G18 G2 X89.358 Z-1.75 I0 K0.2
G0 Z2.05
Y20.219
Z-0.45
G1 Z-2.25 F100
G3 X89.158 Z-2.45 I-0.2 K0
G1 X89.058
G17 G3 X88.858 Y20.019 I0 J-0.2
X89.658 Y20.019 I0.4 J0
X88.858 Y20.019 I-0.4 J0
X89.058 Y19.819 I0.2 J0
G1 X89.158
G18 G2 X89.358 Z-2.25 I0 K0.2
G0 Z2.05
Y20.219
Z-0.85
G1 Z-2.65 F100
G3 X89.158 Z-2.85 I-0.2 K0
G1 X89.058
G17 G3 X88.858 Y20.019 I0 J-0.2
X89.658 Y20.019 I0.4 J0
X88.858 Y20.019 I-0.4 J0
X89.058 Y19.819 I0.2 J0
G1 X89.158
G18 G2 X89.358 Z-2.65 I0 K0.2
G0 Z2.05
Y20.219
Z-1.25
G1 Z-3.05 F100
G3 X89.158 Z-3.25 I-0.2 K0
G1 X89.058
G17 G3 X88.858 Y20.019 I0 J-0.2
X89.658 Y20.019 I0.4 J0
X88.858 Y20.019 I-0.4 J0
X89.058 Y19.819 I0.2 J0
G1 X89.158
G18 G2 X89.358 Z-3.05 I0 K0.2
G0 Z2.05
X89.354 Y35.219
Z1.55
G1 Z-0.25 F100
G3 X89.154 Z-0.45 I-0.2 K0
G1 X89.054
G17 G3 X88.854 Y35.019 I0 J-0.2
X89.654 Y35.019 I0.4 J0
X88.854 Y35.019 I-0.4 J0
X89.054 Y34.819 I0.2 J0
G1 X89.154
G18 G2 X89.354 Z-0.25 I0 K0.2
G0 Z2.05
Y35.219
Z1.05
G1 Z-0.75 F100
G3 X89.154 Z-0.95 I-0.2 K0
G1 X89.054
G17 G3 X88.854 Y35.019 I0 J-0.2
X89.654 Y35.019 I0.4 J0
X88.854 Y35.019 I-0.4 J0
X89.054 Y34.819 I0.2 J0
G1 X89.154
G18 G2 X89.354 Z-0.75 I0 K0.2
G0 Z2.05
Y35.219
Z0.55
G1 Z-1.25 F100
G3 X89.154 Z-1.45 I-0.2 K0
G1 X89.054
G17 G3 X88.854 Y35.019 I0 J-0.2
X89.654 Y35.019 I0.4 J0
X88.854 Y35.019 I-0.4 J0
X89.054 Y34.819 I0.2 J0
G1 X89.154
G18 G2 X89.354 Z-1.25 I0 K0.2
G0 Z2.05
Y35.219
Z0.05
G1 Z-1.75 F100
G3 X89.154 Z-1.95 I-0.2 K0
G1 X89.054
G17 G3 X88.854 Y35.019 I0 J-0.2
X89.654 Y35.019 I0.4 J0
X88.854 Y35.019 I-0.4 J0
X89.054 Y34.819 I0.2 J0
G1 X89.154
G18 G2 X89.354 Z-1.75 I0 K0.2
G0 Z2.05
Y35.219
Z-0.45
G1 Z-2.25 F100
G3 X89.154 Z-2.45 I-0.2 K0
G1 X89.054
G17 G3 X88.854 Y35.019 I0 J-0.2
X89.654 Y35.019 I0.4 J0
X88.854 Y35.019 I-0.4 J0
X89.054 Y34.819 I0.2 J0
G1 X89.154
G18 G2 X89.354 Z-2.25 I0 K0.2
G0 Z2.05
Y35.219
Z-0.85
G1 Z-2.65 F100
G3 X89.154 Z-2.85 I-0.2 K0
G1 X89.054
G17 G3 X88.854 Y35.019 I0 J-0.2
X89.654 Y35.019 I0.4 J0
X88.854 Y35.019 I-0.4 J0
X89.054 Y34.819 I0.2 J0
G1 X89.154
G18 G2 X89.354 Z-2.65 I0 K0.2
G0 Z2.05
Y35.219
Z-1.25
G1 Z-3.05 F100
G3 X89.154 Z-3.25 I-0.2 K0
G1 X89.054
G17 G3 X88.854 Y35.019 I0 J-0.2
X89.654 Y35.019 I0.4 J0
X88.854 Y35.019 I-0.4 J0
X89.054 Y34.819 I0.2 J0
G1 X89.154
G18 G2 X89.354 Z-3.05 I0 K0.2
G0 Z2.05
X76.354 Y35.219
Z1.55
G1 Z-0.25 F100
G3 X76.154 Z-0.45 I-0.2 K0
G1 X76.054
G17 G3 X75.854 Y35.019 I0 J-0.2
X76.654 Y35.019 I0.4 J0
X75.854 Y35.019 I-0.4 J0
X76.054 Y34.819 I0.2 J0
G1 X76.154
G18 G2 X76.354 Z-0.25 I0 K0.2
G0 Z2.05
Y35.219
Z1.05
G1 Z-0.75 F100
G3 X76.154 Z-0.95 I-0.2 K0
G1 X76.054
G17 G3 X75.854 Y35.019 I0 J-0.2
X76.654 Y35.019 I0.4 J0
X75.854 Y35.019 I-0.4 J0
X76.054 Y34.819 I0.2 J0
G1 X76.154
G18 G2 X76.354 Z-0.75 I0 K0.2
G0 Z2.05
Y35.219
Z0.55
G1 Z-1.25 F100
G3 X76.154 Z-1.45 I-0.2 K0
G1 X76.054
G17 G3 X75.854 Y35.019 I0 J-0.2
X76.654 Y35.019 I0.4 J0
X75.854 Y35.019 I-0.4 J0
X76.054 Y34.819 I0.2 J0
G1 X76.154
G18 G2 X76.354 Z-1.25 I0 K0.2
G0 Z2.05
Y35.219
Z0.05
G1 Z-1.75 F100
G3 X76.154 Z-1.95 I-0.2 K0
G1 X76.054
G17 G3 X75.854 Y35.019 I0 J-0.2
X76.654 Y35.019 I0.4 J0
X75.854 Y35.019 I-0.4 J0
X76.054 Y34.819 I0.2 J0
G1 X76.154
G18 G2 X76.354 Z-1.75 I0 K0.2
G0 Z2.05
Y35.219
Z-0.45
G1 Z-2.25 F100
G3 X76.154 Z-2.45 I-0.2 K0
G1 X76.054
G17 G3 X75.854 Y35.019 I0 J-0.2
X76.654 Y35.019 I0.4 J0
X75.854 Y35.019 I-0.4 J0
X76.054 Y34.819 I0.2 J0
G1 X76.154
G18 G2 X76.354 Z-2.25 I0 K0.2
G0 Z2.05
Y35.219
Z-0.85
G1 Z-2.65 F100
G3 X76.154 Z-2.85 I-0.2 K0
G1 X76.054
G17 G3 X75.854 Y35.019 I0 J-0.2
X76.654 Y35.019 I0.4 J0
X75.854 Y35.019 I-0.4 J0
X76.054 Y34.819 I0.2 J0
G1 X76.154
G18 G2 X76.354 Z-2.65 I0 K0.2
G0 Z2.05
Y35.219
Z-1.25
G1 Z-3.05 F100
G3 X76.154 Z-3.25 I-0.2 K0
G1 X76.054
G17 G3 X75.854 Y35.019 I0 J-0.2
X76.654 Y35.019 I0.4 J0
X75.854 Y35.019 I-0.4 J0
X76.054 Y34.819 I0.2 J0
G1 X76.154
G18 G2 X76.354 Z-3.05 I0 K0.2
G0 Z2.05
X18.695 Y24.451
Z1.55
G1 Z-0.25 F100
G3 X18.495 Z-0.45 I-0.2 K0
G1 X18.395
G17 G3 X18.195 Y24.251 I0 J-0.2
X19.095 Y24.251 I0.45 J0
X18.195 Y24.251 I-0.45 J0
X18.395 Y24.051 I0.2 J0
G1 X18.495
G18 G2 X18.695 Z-0.25 I0 K0.2
G0 Z2.05
Y24.451
Z1.05
G1 Z-0.75 F100
G3 X18.495 Z-0.95 I-0.2 K0
G1 X18.395
G17 G3 X18.195 Y24.251 I0 J-0.2
X19.095 Y24.251 I0.45 J0
X18.195 Y24.251 I-0.45 J0
X18.395 Y24.051 I0.2 J0
G1 X18.495
G18 G2 X18.695 Z-0.75 I0 K0.2
G0 Z2.05
Y24.451
Z0.55
G1 Z-1.25 F100
G3 X18.495 Z-1.45 I-0.2 K0
G1 X18.395
G17 G3 X18.195 Y24.251 I0 J-0.2
X19.095 Y24.251 I0.45 J0
X18.195 Y24.251 I-0.45 J0
X18.395 Y24.051 I0.2 J0
G1 X18.495
G18 G2 X18.695 Z-1.25 I0 K0.2
G0 Z2.05
Y24.451
Z0.05
G1 Z-1.75 F100
G3 X18.495 Z-1.95 I-0.2 K0
G1 X18.395
G17 G3 X18.195 Y24.251 I0 J-0.2
X19.095 Y24.251 I0.45 J0
X18.195 Y24.251 I-0.45 J0
X18.395 Y24.051 I0.2 J0
G1 X18.495
G18 G2 X18.695 Z-1.75 I0 K0.2
G0 Z2.05
Y24.451
Z-0.45
G1 Z-2.25 F100
G3 X18.495 Z-2.45 I-0.2 K0
G1 X18.395
G17 G3 X18.195 Y24.251 I0 J-0.2
X19.095 Y24.251 I0.45 J0
X18.195 Y24.251 I-0.45 J0
X18.395 Y24.051 I0.2 J0
G1 X18.495
G18 G2 X18.695 Z-2.25 I0 K0.2
G0 Z2.05
Y24.451
Z-0.85
G1 Z-2.65 F100
G3 X18.495 Z-2.85 I-0.2 K0
G1 X18.395
G17 G3 X18.195 Y24.251 I0 J-0.2
X19.095 Y24.251 I0.45 J0
X18.195 Y24.251 I-0.45 J0
X18.395 Y24.051 I0.2 J0
G1 X18.495
G18 G2 X18.695 Z-2.65 I0 K0.2
G0 Z2.05
Y24.451
Z-1.25
G1 Z-3.05 F100
G3 X18.495 Z-3.25 I-0.2 K0
G1 X18.395
G17 G3 X18.195 Y24.251 I0 J-0.2
X19.095 Y24.251 I0.45 J0
X18.195 Y24.251 I-0.45 J0
X18.395 Y24.051 I0.2 J0
G1 X18.495
G18 G2 X18.695 Z-3.05 I0 K0.2
G0 Z2.05
X8.691 Y39.451
Z1.55
G1 Z-0.25 F100
G3 X8.491 Z-0.45 I-0.2 K0
G1 X8.391
G17 G3 X8.191 Y39.251 I0 J-0.2
X9.091 Y39.251 I0.45 J0
X8.191 Y39.251 I-0.45 J0
X8.391 Y39.051 I0.2 J0
G1 X8.491
G18 G2 X8.691 Z-0.25 I0 K0.2
G0 Z2.05
Y39.451
Z1.05
G1 Z-0.75 F100
G3 X8.491 Z-0.95 I-0.2 K0
G1 X8.391
G17 G3 X8.191 Y39.251 I0 J-0.2
X9.091 Y39.251 I0.45 J0
X8.191 Y39.251 I-0.45 J0
X8.391 Y39.051 I0.2 J0
G1 X8.491
G18 G2 X8.691 Z-0.75 I0 K0.2
G0 Z2.05
Y39.451
Z0.55
G1 Z-1.25 F100
G3 X8.491 Z-1.45 I-0.2 K0
G1 X8.391
G17 G3 X8.191 Y39.251 I0 J-0.2
X9.091 Y39.251 I0.45 J0
X8.191 Y39.251 I-0.45 J0
X8.391 Y39.051 I0.2 J0
G1 X8.491
G18 G2 X8.691 Z-1.25 I0 K0.2
G0 Z2.05
Y39.451
Z0.05
G1 Z-1.75 F100
G3 X8.491 Z-1.95 I-0.2 K0
G1 X8.391
G17 G3 X8.191 Y39.251 I0 J-0.2
X9.091 Y39.251 I0.45 J0
X8.191 Y39.251 I-0.45 J0
X8.391 Y39.051 I0.2 J0
G1 X8.491
G18 G2 X8.691 Z-1.75 I0 K0.2
G0 Z2.05
Y39.451
Z-0.45
G1 Z-2.25 F100
G3 X8.491 Z-2.45 I-0.2 K0
G1 X8.391
G17 G3 X8.191 Y39.251 I0 J-0.2
X9.091 Y39.251 I0.45 J0
X8.191 Y39.251 I-0.45 J0
X8.391 Y39.051 I0.2 J0
G1 X8.491
G18 G2 X8.691 Z-2.25 I0 K0.2
G0 Z2.05
Y39.451
Z-0.85
G1 Z-2.65 F100
G3 X8.491 Z-2.85 I-0.2 K0
G1 X8.391
G17 G3 X8.191 Y39.251 I0 J-0.2
X9.091 Y39.251 I0.45 J0
X8.191 Y39.251 I-0.45 J0
X8.391 Y39.051 I0.2 J0
G1 X8.491
G18 G2 X8.691 Z-2.65 I0 K0.2
G0 Z2.05
Y39.451
Z-1.25
G1 Z-3.05 F100
G3 X8.491 Z-3.25 I-0.2 K0
G1 X8.391
G17 G3 X8.191 Y39.251 I0 J-0.2
X9.091 Y39.251 I0.45 J0
X8.191 Y39.251 I-0.45 J0
X8.391 Y39.051 I0.2 J0
G1 X8.491
G18 G2 X8.691 Z-3.05 I0 K0.2
G0 Z2.05
X9.125 Y55.214
Z1.55
G1 Z-0.25 F100
G3 X8.925 Z-0.45 I-0.2 K0
G1 X8.825
G17 G3 X8.625 Y55.014 I0 J-0.2
X9.425 Y55.014 I0.4 J0
X8.625 Y55.014 I-0.4 J0
X8.825 Y54.814 I0.2 J0
G1 X8.925
G18 G2 X9.125 Z-0.25 I0 K0.2
G0 Z2.05
Y55.214
Z1.05
G1 Z-0.75 F100
G3 X8.925 Z-0.95 I-0.2 K0
G1 X8.825
G17 G3 X8.625 Y55.014 I0 J-0.2
X9.425 Y55.014 I0.4 J0
X8.625 Y55.014 I-0.4 J0
X8.825 Y54.814 I0.2 J0
G1 X8.925
G18 G2 X9.125 Z-0.75 I0 K0.2
G0 Z2.05
Y55.214
Z0.55
G1 Z-1.25 F100
G3 X8.925 Z-1.45 I-0.2 K0
G1 X8.825
G17 G3 X8.625 Y55.014 I0 J-0.2
X9.425 Y55.014 I0.4 J0
X8.625 Y55.014 I-0.4 J0
X8.825 Y54.814 I0.2 J0
G1 X8.925
G18 G2 X9.125 Z-1.25 I0 K0.2
G0 Z2.05
Y55.214
Z0.05
G1 Z-1.75 F100
G3 X8.925 Z-1.95 I-0.2 K0
G1 X8.825
G17 G3 X8.625 Y55.014 I0 J-0.2
X9.425 Y55.014 I0.4 J0
X8.625 Y55.014 I-0.4 J0
X8.825 Y54.814 I0.2 J0
G1 X8.925
G18 G2 X9.125 Z-1.75 I0 K0.2
G0 Z2.05
Y55.214
Z-0.45
G1 Z-2.25 F100
G3 X8.925 Z-2.45 I-0.2 K0
G1 X8.825
G17 G3 X8.625 Y55.014 I0 J-0.2
X9.425 Y55.014 I0.4 J0
X8.625 Y55.014 I-0.4 J0
X8.825 Y54.814 I0.2 J0
G1 X8.925
G18 G2 X9.125 Z-2.25 I0 K0.2
G0 Z2.05
Y55.214
Z-0.85
G1 Z-2.65 F100
G3 X8.925 Z-2.85 I-0.2 K0
G1 X8.825
G17 G3 X8.625 Y55.014 I0 J-0.2
X9.425 Y55.014 I0.4 J0
X8.625 Y55.014 I-0.4 J0
X8.825 Y54.814 I0.2 J0
G1 X8.925
G18 G2 X9.125 Z-2.65 I0 K0.2
G0 Z2.05
Y55.214
Z-1.25
G1 Z-3.05 F100
G3 X8.925 Z-3.25 I-0.2 K0
G1 X8.825
G17 G3 X8.625 Y55.014 I0 J-0.2
X9.425 Y55.014 I0.4 J0
X8.625 Y55.014 I-0.4 J0
X8.825 Y54.814 I0.2 J0
G1 X8.925
G18 G2 X9.125 Z-3.05 I0 K0.2
G0 Z2.05
X19.125 Y55.214
Z1.55
G1 Z-0.25 F100
G3 X18.925 Z-0.45 I-0.2 K0
G1 X18.825
G17 G3 X18.625 Y55.014 I0 J-0.2
X19.425 Y55.014 I0.4 J0
X18.625 Y55.014 I-0.4 J0
X18.825 Y54.814 I0.2 J0
G1 X18.925
G18 G2 X19.125 Z-0.25 I0 K0.2
G0 Z2.05
Y55.214
Z1.05
G1 Z-0.75 F100
G3 X18.925 Z-0.95 I-0.2 K0
G1 X18.825
G17 G3 X18.625 Y55.014 I0 J-0.2
X19.425 Y55.014 I0.4 J0
X18.625 Y55.014 I-0.4 J0
X18.825 Y54.814 I0.2 J0
G1 X18.925
G18 G2 X19.125 Z-0.75 I0 K0.2
G0 Z2.05
Y55.214
Z0.55
G1 Z-1.25 F100
G3 X18.925 Z-1.45 I-0.2 K0
G1 X18.825
G17 G3 X18.625 Y55.014 I0 J-0.2
X19.425 Y55.014 I0.4 J0
X18.625 Y55.014 I-0.4 J0
X18.825 Y54.814 I0.2 J0
G1 X18.925
G18 G2 X19.125 Z-1.25 I0 K0.2
G0 Z2.05
Y55.214
Z0.05
G1 Z-1.75 F100
G3 X18.925 Z-1.95 I-0.2 K0
G1 X18.825
G17 G3 X18.625 Y55.014 I0 J-0.2
X19.425 Y55.014 I0.4 J0
X18.625 Y55.014 I-0.4 J0
X18.825 Y54.814 I0.2 J0
G1 X18.925
G18 G2 X19.125 Z-1.75 I0 K0.2
G0 Z2.05
Y55.214
Z-0.45
G1 Z-2.25 F100
G3 X18.925 Z-2.45 I-0.2 K0
G1 X18.825
G17 G3 X18.625 Y55.014 I0 J-0.2
X19.425 Y55.014 I0.4 J0
X18.625 Y55.014 I-0.4 J0
X18.825 Y54.814 I0.2 J0
G1 X18.925
G18 G2 X19.125 Z-2.25 I0 K0.2
G0 Z2.05
Y55.214
Z-0.85
G1 Z-2.65 F100
G3 X18.925 Z-2.85 I-0.2 K0
G1 X18.825
G17 G3 X18.625 Y55.014 I0 J-0.2
X19.425 Y55.014 I0.4 J0
X18.625 Y55.014 I-0.4 J0
X18.825 Y54.814 I0.2 J0
G1 X18.925
G18 G2 X19.125 Z-2.65 I0 K0.2
G0 Z2.05
Y55.214
Z-1.25
G1 Z-3.05 F100
G3 X18.925 Z-3.25 I-0.2 K0
G1 X18.825
G17 G3 X18.625 Y55.014 I0 J-0.2
X19.425 Y55.014 I0.4 J0
X18.625 Y55.014 I-0.4 J0
X18.825 Y54.814 I0.2 J0
G1 X18.925
G18 G2 X19.125 Z-3.05 I0 K0.2
G0 Z4.05
G17

(2D Contour31 2)
G0 Z6.05
X88.928 Y6.027
Z2.05
G1 Z1.55 F100
Z-0.45
X124.021
G2 X130 Y11.527 I5.979 J-0.5
X135.979 Y6.027 I0 J-6
G1 X160
G2 X160 Y-5.973 I0 J-6
G1 X135.979
G2 X130 Y-11.473 I-5.979 J0.5
X124.021 Y-5.973 I0 J6
G1 X85.979
G2 X80 Y-11.473 I-5.979 J0.5
X74.021 Y-5.973 I0 J6
G1 X50.277
X35.943 Y-14.586
G2 X30.454 Y-13.218 I-2.06 J3.429
G1 X26.102 Y-5.973
X11
Y-29.973
G2 X10 Y-30.973 I-1 J0
G1 X0
G2 X-1 Y-29.973 I0 J1
G1 Y30.027
G2 X0 Y31.027 I1 J0
G1 X10
G2 X11 Y30.027 I0 J-1
G1 Y6.027
X26.102
X30.454 Y13.271
G2 X35.943 Y14.64 I3.429 J-2.06
G1 X50.277 Y6.027
X74.021
G2 X80 Y11.527 I5.979 J-0.5
X85.979 Y6.027 I0 J-6
G1 X88.928
Z1.55
Z2.05
G0 Z4.05
X76.258 Y14.019
Z2.05
G1 Z1.55 F100
Z-0.45
G2 X76.258 Y26.019 I0 J6
G1 X121.254
X121.258
G2 X121.258 Y14.019 I0 J-6
G1 X76.258
Z1.55
Z2.05
G0 Z4.05
X65.116 Y18.434
Z2.05
G1 Z1.55 F100
Z-0.45
G2 X63.645 Y18.251 I-1.471 J5.817
G1 X18.645
G2 X18.645 Y30.251 I0 J6
G1 X53.641
X63.645
G2 X65.116 Y18.434 I0 J-6
G1 Z-0.95
G2 X63.645 Y18.251 I-1.471 J5.817
G1 X18.645
G2 X18.645 Y30.251 I0 J6
G1 X53.641
X63.645
G2 X65.116 Y18.434 I0 J-6
G1 Z1.05
Z2.05
G0 Z4.05
X71.577 Y16.267
Z2.05
G1 Z1.05 F100
Z-0.95
G2 X76.258 Y26.019 I4.682 J3.753
G1 X121.254
X121.258
G2 X121.258 Y14.019 I0 J-6
G1 X76.258
G2 X71.577 Y16.267 I0 J6
G1 Z1.05
Z2.05
G0 Z4.05
X76.258 Y14.019
Z2.05
G1 Z0.55 F100
Z-1.45
G2 X76.258 Y26.019 I0 J6
G1 X121.254
X121.258
G2 X121.258 Y14.019 I0 J-6
G1 X76.258
Z0.55
Z2.05
G0 Z4.05
Y29.019
Z2.05
G1 Z1.55 F100
Z-0.45
X76.255
X76.208
G2 X70.255 Y35.019 I0.047 J6
X76.255 Y41.019 I6 J0
G1 X121.254
G2 X121.254 Y29.019 I0 J-6
G1 X76.258
Z1.55
Z2.05
G0 Z4.05
X69.025 Y44.031
Z2.05
G1 Z1.55 F100
Z-0.45
G2 X69.025 Y56.031 I0 J6
G1 X114.025
G2 X114.025 Y44.031 I0 J-6
G1 X69.025
Z1.55
Z2.05
G0 Z4.05
X59.641 Y39.251
Z2.05
G1 Z1.55 F100
Z-0.45
G2 X53.641 Y33.251 I-6 J0
G1 X8.641
G2 X8.641 Y45.251 I0 J6
G1 X53.641
G2 X59.641 Y39.251 I0 J-6
G1 Z-0.95
G2 X53.641 Y33.251 I-6 J0
G1 X8.641
G2 X8.641 Y45.251 I0 J6
G1 X53.641
G2 X59.641 Y39.251 I0 J-6
G1 Z-1.45
G2 X53.641 Y33.251 I-6 J0
G1 X8.641
G2 X8.641 Y45.251 I0 J6
G1 X53.641
G2 X59.641 Y39.251 I0 J-6
G1 Z-1.95
G2 X53.641 Y33.251 I-6 J0
G1 X8.641
G2 X8.641 Y45.251 I0 J6
G1 X53.641
G2 X59.641 Y39.251 I0 J-6
G1 Z-2.45
G2 X53.641 Y33.251 I-6 J0
G1 X8.641
G2 X8.641 Y45.251 I0 J6
G1 X53.641
G2 X59.641 Y39.251 I0 J-6
G1 Z-2.95
G2 X53.641 Y33.251 I-6 J0
G1 X8.641
G2 X8.641 Y45.251 I0 J6
G1 X53.641
G2 X59.641 Y39.251 I0 J-6
G1 Z-3.25
G2 X53.641 Y33.251 I-6 J0
G1 X8.641
G2 X8.641 Y45.251 I0 J6
G1 X53.641
G2 X59.641 Y39.251 I0 J-6
G1 Z-1.45
Z2.05
G0 Z4.05
X57.484 Y50.112
Z2.05
G1 Z1.55 F100
Z-0.45
G2 X54.025 Y49.014 I-3.459 J4.902
G1 X9.025
G2 X9.025 Y61.014 I0 J6
G1 X54.025
G2 X57.484 Y50.112 I0 J-6
G1 Z-0.95
G2 X54.025 Y49.014 I-3.459 J4.902
G1 X9.025
G2 X9.025 Y61.014 I0 J6
G1 X54.025
G2 X57.484 Y50.112 I0 J-6
G1 Z-1.45
G2 X54.025 Y49.014 I-3.459 J4.902
G1 X9.025
G2 X9.025 Y61.014 I0 J6
G1 X54.025
G2 X57.484 Y50.112 I0 J-6
G1 Z-1.95
G2 X54.025 Y49.014 I-3.459 J4.902
G1 X9.025
G2 X9.025 Y61.014 I0 J6
G1 X54.025
G2 X57.484 Y50.112 I0 J-6
G1 Z-2.45
G2 X54.025 Y49.014 I-3.459 J4.902
G1 X9.025
G2 X9.025 Y61.014 I0 J6
G1 X54.025
G2 X57.484 Y50.112 I0 J-6
G1 Z-2.95
G2 X54.025 Y49.014 I-3.459 J4.902
G1 X9.025
G2 X9.025 Y61.014 I0 J6
G1 X54.025
G2 X57.484 Y50.112 I0 J-6
G1 Z-3.25
G2 X54.025 Y49.014 I-3.459 J4.902
G1 X9.025
G2 X9.025 Y61.014 I0 J6
G1 X54.025
G2 X57.484 Y50.112 I0 J-6
G1 Z-1.45
Z2.05
G0 Z4.05
X75.274 Y63.019
Z2.05
G1 Z1.55 F100
Z-0.45
G2 X81.274 Y69.019 I6 J0
G1 X126.274
G2 X126.274 Y57.019 I0 J-6
G1 X81.274
G2 X75.274 Y63.019 I0 J6
G1 Z-0.95
G2 X81.274 Y69.019 I6 J0
G1 X126.274
G2 X126.274 Y57.019 I0 J-6
G1 X81.274
G2 X75.274 Y63.019 I0 J6
G1 Z1.05
Z2.05
G0 Z4.05
X67.784 Y55.901
Z2.05
G1 Z1.05 F100
Z-0.95
G2 X69.025 Y56.031 I1.24 J-5.87
G1 X114.025
G2 X114.025 Y44.031 I0 J-6
G1 X69.025
G2 X67.784 Y55.901 I0 J6
G1 Z-1.45
G2 X69.025 Y56.031 I1.24 J-5.87
G1 X114.025
G2 X114.025 Y44.031 I0 J-6
G1 X69.025
G2 X67.784 Y55.901 I0 J6
G1 Z0.55
Z2.05
G0 Z4.05
X75.274 Y63.019
Z2.05
G1 Z0.55 F100
Z-1.45
G2 X81.274 Y69.019 I6 J0
G1 X126.274
G2 X126.274 Y57.019 I0 J-6
G1 X81.274
G2 X75.274 Y63.019 I0 J6
G1 Z-1.95
G2 X81.274 Y69.019 I6 J0
G1 X126.274
G2 X126.274 Y57.019 I0 J-6
G1 X81.274
G2 X75.274 Y63.019 I0 J6
G1 Z0.05
Z2.05
G0 Z4.05
X67.784 Y55.901
Z2.05
G1 Z0.05 F100
Z-1.95
G2 X69.025 Y56.031 I1.24 J-5.87
G1 X114.025
G2 X114.025 Y44.031 I0 J-6
G1 X69.025
G2 X67.784 Y55.901 I0 J6
G1 Z-2.45
G2 X69.025 Y56.031 I1.24 J-5.87
G1 X114.025
G2 X114.025 Y44.031 I0 J-6
G1 X69.025
G2 X67.784 Y55.901 I0 J6
G1 Z-0.45
Z2.05
G0 Z4.05
X75.274 Y63.019
Z2.05
G1 Z-0.45 F100
Z-2.45
G2 X81.274 Y69.019 I6 J0
G1 X126.274
G2 X126.274 Y57.019 I0 J-6
G1 X81.274
G2 X75.274 Y63.019 I0 J6
G1 Z-2.95
G2 X81.274 Y69.019 I6 J0
G1 X126.274
G2 X126.274 Y57.019 I0 J-6
G1 X81.274
G2 X75.274 Y63.019 I0 J6
G1 Z-0.95
Z2.05
G0 Z4.05
X67.784 Y55.901
Z2.05
G1 Z-0.95 F100
Z-2.95
G2 X69.025 Y56.031 I1.24 J-5.87
G1 X114.025
G2 X114.025 Y44.031 I0 J-6
G1 X69.025
G2 X67.784 Y55.901 I0 J6
G1 Z-3.25
G2 X69.025 Y56.031 I1.24 J-5.87
G1 X114.025
G2 X114.025 Y44.031 I0 J-6
G1 X69.025
G2 X67.784 Y55.901 I0 J6
G1 Z-1.45
Z2.05
G0 Z4.05
X75.274 Y63.019
Z2.05
G1 Z-1.45 F100
Z-3.25
G2 X81.274 Y69.019 I6 J0
G1 X126.274
G2 X126.274 Y57.019 I0 J-6
G1 X81.274
G2 X75.274 Y63.019 I0 J6
G1 Z-1.45
Z2.05
G0 Z4.05
X127.612 Y47.944
Z2.05
G1 Z1.55 F100
Z-0.45
G2 X130.994 Y48.989 I3.384 J-4.955
G1 X144.993 Y48.997
X144.986 Y62.997
Y63.048
G2 X150.983 Y69 I6 J-0.048
X156.986 Y63.003 I0.003 J-6
G1 X156.993 Y49.003
X170.993 Y49.01
G2 X171 Y37.01 I0.003 J-6
G1 X157 Y37.003
X157.012 Y13.003
G2 X151.015 Y7 I-6 J-0.003
X145.012 Y12.997 I-0.003 J6
G1 X145 Y36.997
X131 Y36.99
G2 X127.612 Y47.944 I-0.004 J6
G1 Z-0.95
G2 X130.994 Y48.989 I3.384 J-4.955
G1 X144.993 Y48.997
X144.986 Y62.997
Y63.048
G2 X150.983 Y69 I6 J-0.048
X156.986 Y63.003 I0.003 J-6
G1 X156.993 Y49.003
X170.993 Y49.01
G2 X171 Y37.01 I0.003 J-6
G1 X157 Y37.003
X157.012 Y13.003
G2 X151.015 Y7 I-6 J-0.003
X145.012 Y12.997 I-0.003 J6
G1 X145 Y36.997
X131 Y36.99
G2 X127.612 Y47.944 I-0.004 J6
G1 Z1.05
Z2.05
G0 Z4.05
X121.512 Y41.014
Z2.05
G1 Z1.05 F100
Z-0.95
G2 X121.254 Y29.019 I-0.258 J-5.994
G1 X76.255
X76.208
G2 X70.255 Y35.019 I0.047 J6
X76.255 Y41.019 I6 J0
G1 X121.254
G2 X121.512 Y41.014 I0 J-6
G1 Z1.05
Z2.05
G0 Z4.05
X121.254 Y41.019
Z2.05
G1 Z0.55 F100
Z-1.45
G2 X121.254 Y29.019 I0 J-6
G1 X76.255
X76.208
G2 X70.255 Y35.019 I0.047 J6
X76.255 Y41.019 I6 J0
G1 X121.254
Z0.55
Z2.05
G0 Z4.05
X139.003 Y-14.443
Z2.05
G1 Z1.55 F100
Z-0.45
X139.002 Y-12.001
G2 X144.999 Y-5.998 I6 J0.003
X151.002 Y-11.995 I0.003 J-6
G1 X151.014 Y-35.995
X165.014 Y-35.988
G2 X171.018 Y-41.985 I0.004 J-6
X165.02 Y-47.988 I-6 J-0.003
G1 X151.021 Y-47.995
X151.028 Y-61.995
G2 X145.031 Y-67.998 I-6 J-0.003
X139.028 Y-62.001 I-0.003 J6
G1 X139.021 Y-48.001
X125.021 Y-48.009
G2 X125.014 Y-36.009 I-0.003 J6
G1 X139.014 Y-36.001
X139.003 Y-14.443
Z-0.95
X139.002 Y-12.001
G2 X144.999 Y-5.998 I6 J0.003
X151.002 Y-11.995 I0.003 J-6
G1 X151.014 Y-35.995
X165.014 Y-35.988
G2 X171.018 Y-41.985 I0.004 J-6
X165.02 Y-47.988 I-6 J-0.003
G1 X151.021 Y-47.995
X151.028 Y-61.995
G2 X145.031 Y-67.998 I-6 J-0.003
X139.028 Y-62.001 I-0.003 J6
G1 X139.021 Y-48.001
X125.021 Y-48.009
G2 X125.014 Y-36.009 I-0.003 J6
G1 X139.014 Y-36.001
X139.003 Y-14.443
Z1.05
Z2.05
G0 Z4.05
X131.307 Y-16.72
Z2.05
G1 Z1.55 F100
Z-0.45
G2 X126.27 Y-25.981 I-5.037 J-3.261
G1 X81.27
G2 X81.27 Y-13.981 I0 J6
G1 X126.27
G2 X131.307 Y-16.72 I0 J-6
G1 Z-0.95
G2 X126.27 Y-25.981 I-5.037 J-3.261
G1 X81.27
G2 X81.27 Y-13.981 I0 J6
G1 X126.27
G2 X131.307 Y-16.72 I0 J-6
G1 Z-1.45
G2 X126.27 Y-25.981 I-5.037 J-3.261
G1 X81.27
G2 X81.27 Y-13.981 I0 J6
G1 X126.27
G2 X131.307 Y-16.72 I0 J-6
G1 Z-1.95
G2 X126.27 Y-25.981 I-5.037 J-3.261
G1 X81.27
G2 X81.27 Y-13.981 I0 J6
G1 X126.27
G2 X131.307 Y-16.72 I0 J-6
G1 Z-2.45
G2 X126.27 Y-25.981 I-5.037 J-3.261
G1 X81.27
G2 X81.27 Y-13.981 I0 J6
G1 X126.27
G2 X131.307 Y-16.72 I0 J-6
G1 Z-2.95
G2 X126.27 Y-25.981 I-5.037 J-3.261
G1 X81.27
G2 X81.27 Y-13.981 I0 J6
G1 X126.27
G2 X131.307 Y-16.72 I0 J-6
G1 Z-3.25
G2 X126.27 Y-25.981 I-5.037 J-3.261
G1 X81.27
G2 X81.27 Y-13.981 I0 J6
G1 X126.27
G2 X131.307 Y-16.72 I0 J-6
G1 Z-1.45
Z2.05
G0 Z4.05
X108.348 Y-44.296
Z2.05
G1 Z1.55 F100
Z-0.45
G2 X106.548 Y-56.019 I-1.8 J-5.724
G1 X26.549
G2 X26.549 Y-44.019 I0 J6
G1 X106.548
G2 X108.348 Y-44.296 I0 J-6
G1 Z1.55
Z2.05
G0 Z4.05
X106.548 Y-57.019
Z2.05
G1 Z1.55 F100
Z-0.45
X106.552
G2 X106.552 Y-69.019 I0 J-6
G1 X26.552
G2 X26.552 Y-57.019 I0 J6
G1 X106.548
Z-0.95
X106.552
G2 X106.552 Y-69.019 I0 J-6
G1 X26.552
