(sensor_support)
(T1  D=2 CR=0 - ZMIN=-3.25 - flat end mill)
G90 G94
G17
G21

(2D Contour31)
S20000 M3
G54
M8
G0 X-0.994 Y-30.018
Z6.05
Z2.05
G1 Z1.55 F100
Z-0.45
X-0.989 Y0
G2 X0.011 Y1 I1 J0
G1 X10.011 Y0.998
G2 X11.011 Y-0.002 I0 J-1
G1 X11.007 Y-24.002
X26.108 Y-24.005
X30.462 Y-16.761
G2 X35.951 Y-15.394 I3.428 J-2.061
G1 X50.284 Y-24.009
X70.007 Y-24.013
G2 X71.007 Y-25.013 I0 J-1
G1 X71.005 Y-35.013
G2 X70.005 Y-36.013 I-1 J0
G1 X50.282 Y-36.009
X35.946 Y-44.619
G2 X30.458 Y-43.25 I-2.06 J3.429
G1 X26.106 Y-36.005
X11.005 Y-36.002
X11 Y-60.002
G2 X10 Y-61.002 I-1 J0
G1 X0 Y-61
G2 X-1 Y-60 I0 J1
G1 X-0.994 Y-30.018
Z-0.95
X-0.989 Y0
G2 X0.011 Y1 I1 J0
G1 X10.011 Y0.998
G2 X11.011 Y-0.002 I0 J-1
G1 X11.007 Y-24.002
X26.108 Y-24.005
X30.462 Y-16.761
G2 X35.951 Y-15.394 I3.428 J-2.061
G1 X50.284 Y-24.009
X70.007 Y-24.013
G2 X71.007 Y-25.013 I0 J-1
G1 X71.005 Y-35.013
G2 X70.005 Y-36.013 I-1 J0
G1 X50.282 Y-36.009
X35.946 Y-44.619
G2 X30.458 Y-43.25 I-2.06 J3.429
G1 X26.106 Y-36.005
X11.005 Y-36.002
X11 Y-60.002
G2 X10 Y-61.002 I-1 J0
G1 X0 Y-61
G2 X-1 Y-60 I0 J1
G1 X-0.994 Y-30.018
Z-1.45
X-0.989 Y0
G2 X0.011 Y1 I1 J0
G1 X10.011 Y0.998
G2 X11.011 Y-0.002 I0 J-1
G1 X11.007 Y-24.002
X26.108 Y-24.005
X30.462 Y-16.761
G2 X35.951 Y-15.394 I3.428 J-2.061
G1 X50.284 Y-24.009
X70.007 Y-24.013
G2 X71.007 Y-25.013 I0 J-1
G1 X71.005 Y-35.013
G2 X70.005 Y-36.013 I-1 J0
G1 X50.282 Y-36.009
X35.946 Y-44.619
G2 X30.458 Y-43.25 I-2.06 J3.429
G1 X26.106 Y-36.005
X11.005 Y-36.002
X11 Y-60.002
G2 X10 Y-61.002 I-1 J0
G1 X0 Y-61
G2 X-1 Y-60 I0 J1
G1 X-0.994 Y-30.018
Z-1.95
X-0.989 Y0
G2 X0.011 Y1 I1 J0
G1 X10.011 Y0.998
G2 X11.011 Y-0.002 I0 J-1
G1 X11.007 Y-24.002
X26.108 Y-24.005
X30.462 Y-16.761
G2 X35.951 Y-15.394 I3.428 J-2.061
G1 X50.284 Y-24.009
X70.007 Y-24.013
G2 X71.007 Y-25.013 I0 J-1
G1 X71.005 Y-35.013
G2 X70.005 Y-36.013 I-1 J0
G1 X50.282 Y-36.009
X35.946 Y-44.619
G2 X30.458 Y-43.25 I-2.06 J3.429
G1 X26.106 Y-36.005
X11.005 Y-36.002
X11 Y-60.002
G2 X10 Y-61.002 I-1 J0
G1 X0 Y-61
G2 X-1 Y-60 I0 J1
G1 X-0.994 Y-30.018
Z-2.45
X-0.989 Y0
G2 X0.011 Y1 I1 J0
G1 X10.011 Y0.998
G2 X11.011 Y-0.002 I0 J-1
G1 X11.007 Y-24.002
X26.108 Y-24.005
X30.462 Y-16.761
G2 X35.951 Y-15.394 I3.428 J-2.061
G1 X50.284 Y-24.009
X70.007 Y-24.013
G2 X71.007 Y-25.013 I0 J-1
G1 X71.005 Y-35.013
G2 X70.005 Y-36.013 I-1 J0
G1 X50.282 Y-36.009
X35.946 Y-44.619
G2 X30.458 Y-43.25 I-2.06 J3.429
G1 X26.106 Y-36.005
X11.005 Y-36.002
X11 Y-60.002
G2 X10 Y-61.002 I-1 J0
G1 X0 Y-61
G2 X-1 Y-60 I0 J1
G1 X-0.994 Y-30.018
Z-2.95
X-0.989 Y0
G2 X0.011 Y1 I1 J0
G1 X10.011 Y0.998
G2 X11.011 Y-0.002 I0 J-1
G1 X11.007 Y-24.002
X26.108 Y-24.005
X30.462 Y-16.761
G2 X35.951 Y-15.394 I3.428 J-2.061
G1 X50.284 Y-24.009
X70.007 Y-24.013
G2 X71.007 Y-25.013 I0 J-1
G1 X71.005 Y-35.013
G2 X70.005 Y-36.013 I-1 J0
G1 X50.282 Y-36.009
X35.946 Y-44.619
G2 X30.458 Y-43.25 I-2.06 J3.429
G1 X26.106 Y-36.005
X11.005 Y-36.002
X11 Y-60.002
G2 X10 Y-61.002 I-1 J0
G1 X0 Y-61
G2 X-1 Y-60 I0 J1
G1 X-0.994 Y-30.018
Z-3.25
X-0.989 Y0
G2 X0.011 Y1 I1 J0
G1 X10.011 Y0.998
G2 X11.011 Y-0.002 I0 J-1
G1 X11.007 Y-24.002
X26.108 Y-24.005
X30.462 Y-16.761
G2 X35.951 Y-15.394 I3.428 J-2.061
G1 X50.284 Y-24.009
X70.007 Y-24.013
G2 X71.007 Y-25.013 I0 J-1
G1 X71.005 Y-35.013
G2 X70.005 Y-36.013 I-1 J0
G1 X50.282 Y-36.009
X35.946 Y-44.619
G2 X30.458 Y-43.25 I-2.06 J3.429
G1 X26.106 Y-36.005
X11.005 Y-36.002
X11 Y-60.002
G2 X10 Y-61.002 I-1 J0
G1 X0 Y-61
G2 X-1 Y-60 I0 J1
G1 X-0.994 Y-30.018
Z2.05
G0 Z6.05
M9
M5
M30
