(sensor_support)
(T1  D=2 CR=0 - ZMIN=-3.25 - flat end mill)
G90 G94
G17
G21

(2D Contour31)
S20000 M3
G54
M8
G0 X-0.987 Y-30.043
Z6.05
Z2.05
G1 Z1.55 F100
Z-0.45
X-0.973 Y0
G2 X0.027 Y1 I1 J0
G1 X10.027 Y0.996
G2 X11.027 Y-0.005 I0 J-1
G1 X11.016 Y-24.005
X26.118 Y-24.012
X30.474 Y-16.769
G2 X35.963 Y-15.403 I3.428 J-2.062
G1 X50.293 Y-24.022
X70.016 Y-24.031
G2 X71.016 Y-25.032 I0 J-1
G1 X71.011 Y-35.032
G2 X70.011 Y-36.031 I-1 J0
G1 X50.288 Y-36.022
X35.95 Y-44.629
G2 X30.462 Y-43.258 I-2.059 J3.43
G1 X26.112 Y-36.012
X11.011 Y-36.005
X11 Y-60.005
G2 X10 Y-61.004 I-1 J0
G1 X0 Y-61
G2 X-1 Y-60 I0 J1
G1 X-0.987 Y-30.043
Z-0.95
X-0.973 Y0
G2 X0.027 Y1 I1 J0
G1 X10.027 Y0.996
G2 X11.027 Y-0.005 I0 J-1
G1 X11.016 Y-24.005
X26.118 Y-24.012
X30.474 Y-16.769
G2 X35.963 Y-15.403 I3.428 J-2.062
G1 X50.293 Y-24.022
X70.016 Y-24.031
G2 X71.016 Y-25.032 I0 J-1
G1 X71.011 Y-35.032
G2 X70.011 Y-36.031 I-1 J0
G1 X50.288 Y-36.022
X35.95 Y-44.629
G2 X30.462 Y-43.258 I-2.059 J3.43
G1 X26.112 Y-36.012
X11.011 Y-36.005
X11 Y-60.005
G2 X10 Y-61.004 I-1 J0
G1 X0 Y-61
G2 X-1 Y-60 I0 J1
G1 X-0.987 Y-30.043
Z-1.45
X-0.973 Y0
G2 X0.027 Y1 I1 J0
G1 X10.027 Y0.996
G2 X11.027 Y-0.005 I0 J-1
G1 X11.016 Y-24.005
X26.118 Y-24.012
X30.474 Y-16.769
G2 X35.963 Y-15.403 I3.428 J-2.062
G1 X50.293 Y-24.022
X70.016 Y-24.031
G2 X71.016 Y-25.032 I0 J-1
G1 X71.011 Y-35.032
G2 X70.011 Y-36.031 I-1 J0
G1 X50.288 Y-36.022
X35.95 Y-44.629
G2 X30.462 Y-43.258 I-2.059 J3.43
G1 X26.112 Y-36.012
X11.011 Y-36.005
X11 Y-60.005
G2 X10 Y-61.004 I-1 J0
G1 X0 Y-61
G2 X-1 Y-60 I0 J1
G1 X-0.987 Y-30.043
Z-1.95
X-0.973 Y0
G2 X0.027 Y1 I1 J0
G1 X10.027 Y0.996
G2 X11.027 Y-0.005 I0 J-1
G1 X11.016 Y-24.005
X26.118 Y-24.012
X30.474 Y-16.769
G2 X35.963 Y-15.403 I3.428 J-2.062
G1 X50.293 Y-24.022
X70.016 Y-24.031
G2 X71.016 Y-25.032 I0 J-1
G1 X71.011 Y-35.032
G2 X70.011 Y-36.031 I-1 J0
G1 X50.288 Y-36.022
X35.95 Y-44.629
G2 X30.462 Y-43.258 I-2.059 J3.43
G1 X26.112 Y-36.012
X11.011 Y-36.005
X11 Y-60.005
G2 X10 Y-61.004 I-1 J0
G1 X0 Y-61
G2 X-1 Y-60 I0 J1
G1 X-0.987 Y-30.043
Z-2.45
X-0.973 Y0
G2 X0.027 Y1 I1 J0
G1 X10.027 Y0.996
G2 X11.027 Y-0.005 I0 J-1
G1 X11.016 Y-24.005
X26.118 Y-24.012
X30.474 Y-16.769
G2 X35.963 Y-15.403 I3.428 J-2.062
G1 X50.293 Y-24.022
X70.016 Y-24.031
G2 X71.016 Y-25.032 I0 J-1
G1 X71.011 Y-35.032
G2 X70.011 Y-36.031 I-1 J0
G1 X50.288 Y-36.022
X35.95 Y-44.629
G2 X30.462 Y-43.258 I-2.059 J3.43
G1 X26.112 Y-36.012
X11.011 Y-36.005
X11 Y-60.005
G2 X10 Y-61.004 I-1 J0
G1 X0 Y-61
G2 X-1 Y-60 I0 J1
G1 X-0.987 Y-30.043
Z-2.95
X-0.973 Y0
G2 X0.027 Y1 I1 J0
G1 X10.027 Y0.996
G2 X11.027 Y-0.005 I0 J-1
G1 X11.016 Y-24.005
X26.118 Y-24.012
X30.474 Y-16.769
G2 X35.963 Y-15.403 I3.428 J-2.062
G1 X50.293 Y-24.022
X70.016 Y-24.031
G2 X71.016 Y-25.032 I0 J-1
G1 X71.011 Y-35.032
G2 X70.011 Y-36.031 I-1 J0
G1 X50.288 Y-36.022
X35.95 Y-44.629
G2 X30.462 Y-43.258 I-2.059 J3.43
G1 X26.112 Y-36.012
X11.011 Y-36.005
X11 Y-60.005
G2 X10 Y-61.004 I-1 J0
G1 X0 Y-61
G2 X-1 Y-60 I0 J1
G1 X-0.987 Y-30.043
Z-3.25
X-0.973 Y0
G2 X0.027 Y1 I1 J0
G1 X10.027 Y0.996
G2 X11.027 Y-0.005 I0 J-1
G1 X11.016 Y-24.005
X26.118 Y-24.012
X30.474 Y-16.769
G2 X35.963 Y-15.403 I3.428 J-2.062
G1 X50.293 Y-24.022
X70.016 Y-24.031
G2 X71.016 Y-25.032 I0 J-1
G1 X71.011 Y-35.032
G2 X70.011 Y-36.031 I-1 J0
G1 X50.288 Y-36.022
X35.95 Y-44.629
G2 X30.462 Y-43.258 I-2.059 J3.43
G1 X26.112 Y-36.012
X11.011 Y-36.005
X11 Y-60.005
G2 X10 Y-61.004 I-1 J0
G1 X0 Y-61
G2 X-1 Y-60 I0 J1
G1 X-0.987 Y-30.043
Z2.05
G0 Z6.05
M9
M5
M30
